;FLAVOR:Marlin
;TIME:1446
;Filament used: 0.98113m
;Layer height: 0.16
;MINX:122.195
;MINY:12.793
;MINZ:0.2
;MAXX:276.735
;MAXY:113.595
;MAXZ:4
;Generated with Cura_SteamEngine 5.2.2
M140 S60
M105
M190 S60
M104 S200
M105
M109 S200
M82 ;absolute extrusion mode
; Ender 3 Max Custom Start G-code
G92 E0 ; Reset Extruder
G28 ; Home all axes
G1 Z2.0 F3000 ; Move Z Axis up little to prevent scratching of Heat Bed
G1 X0.1 Y20 Z0.3 F5000.0 ; Move to start position
G1 X0.1 Y200.0 Z0.3 F1500.0 E15 ; Draw the first line
G1 X0.4 Y200.0 Z0.3 F5000.0 ; Move to side a little
G1 X0.4 Y20 Z0.3 F1500.0 E30 ; Draw the second line
G92 E0 ; Reset Extruder
G1 Z2.0 F3000 ; Move Z Axis up little to prevent scratching of Heat Bed
G1 X5 Y20 Z0.3 F5000.0 ; Move over to prevent blob squish
G92 E0
G92 E0
G1 F1500 E-6.5
;LAYER_COUNT:20
;LAYER:0
M107
G1 F300 Z0.4
G0 F6000 X124.113 Y92.965 Z0.4
;TYPE:SKIRT
G1 F300 Z0.2
G1 F1500 E0
G1 F1200 X124.675 Y92.214 E0.0312
G1 X125.299 Y91.514 E0.06239
G1 X125.98 Y90.869 E0.09358
G1 X126.713 Y90.284 E0.12478
G1 X127.416 Y89.812 E0.15294
G1 X127.959 Y89.483 E0.17406
G1 X257.866 Y14.483 E5.16317
G1 X258.423 Y14.174 E5.18435
G1 X259.262 Y13.754 E5.21556
G1 X260.133 Y13.408 E5.24673
G1 X261.031 Y13.137 E5.27793
G1 X261.949 Y12.943 E5.30914
G1 X262.879 Y12.828 E5.34031
G1 X263.817 Y12.793 E5.37153
G1 X264.753 Y12.838 E5.40269
G1 X265.683 Y12.963 E5.4339
G1 X266.598 Y13.166 E5.46508
G1 X267.493 Y13.446 E5.49627
G1 X268.361 Y13.802 E5.52747
G1 X269.196 Y14.23 E5.55868
G1 X269.99 Y14.728 E5.58985
G1 X270.74 Y15.292 E5.62106
G1 X271.439 Y15.918 E5.65227
G1 X272.082 Y16.6 E5.68345
G1 X272.664 Y17.335 E5.71463
G1 X273.116 Y18.01 E5.74165
G1 X273.426 Y18.521 E5.76153
G1 X275 Y21.245 E5.86617
G1 X275.34 Y21.854 E5.88936
G1 X275.761 Y22.691 E5.92053
G1 X276.11 Y23.562 E5.95173
G1 X276.384 Y24.459 E5.98293
G1 X276.58 Y25.376 E6.01412
G1 X276.697 Y26.307 E6.04533
G1 X276.735 Y27.244 E6.07652
G1 X276.693 Y28.181 E6.10771
G1 X276.571 Y29.111 E6.13891
G1 X276.37 Y30.027 E6.1701
G1 X276.092 Y30.922 E6.20127
G1 X275.738 Y31.791 E6.23248
G1 X275.312 Y32.627 E6.26369
G1 X274.817 Y33.423 E6.29487
G1 X274.255 Y34.174 E6.32606
G1 X273.631 Y34.874 E6.35725
G1 X272.95 Y35.519 E6.38845
G1 X272.217 Y36.104 E6.41964
G1 X271.514 Y36.576 E6.44781
G1 X270.971 Y36.905 E6.46892
G1 X141.064 Y111.905 E11.45803
G1 X140.507 Y112.214 E11.47922
G1 X139.668 Y112.634 E11.51043
G1 X138.797 Y112.98 E11.5416
G1 X137.899 Y113.251 E11.5728
G1 X136.981 Y113.445 E11.604
G1 X136.051 Y113.56 E11.63517
G1 X135.113 Y113.595 E11.66639
G1 X134.177 Y113.55 E11.69756
G1 X133.247 Y113.425 E11.72877
G1 X132.332 Y113.222 E11.75994
G1 X131.437 Y112.942 E11.79113
G1 X130.569 Y112.586 E11.82233
G1 X129.734 Y112.158 E11.85354
G1 X128.94 Y111.66 E11.88472
G1 X128.19 Y111.096 E11.91593
G1 X127.491 Y110.47 E11.94714
G1 X126.848 Y109.788 E11.97831
G1 X126.266 Y109.053 E12.00949
G1 X125.812 Y108.375 E12.03663
G1 X125.501 Y107.862 E12.05659
G1 X123.93 Y105.143 E12.16103
G1 X123.59 Y104.534 E12.18423
G1 X123.169 Y103.697 E12.21539
G1 X122.82 Y102.826 E12.2466
G1 X122.546 Y101.929 E12.27779
G1 X122.35 Y101.012 E12.30898
G1 X122.233 Y100.081 E12.34019
G1 X122.195 Y99.144 E12.37138
G1 X122.237 Y98.207 E12.40258
G1 X122.359 Y97.277 E12.43378
G1 X122.56 Y96.361 E12.46497
G1 X122.838 Y95.466 E12.49614
G1 X123.192 Y94.597 E12.52735
G1 X123.618 Y93.761 E12.55855
G1 X124.113 Y92.965 E12.58973
G0 F6000 X124.57 Y93.011
G1 F1200 X125.137 Y92.285 E12.62037
G1 X125.765 Y91.612 E12.65098
G1 X126.449 Y90.996 E12.6816
G1 X127.184 Y90.441 E12.71223
G1 X127.626 Y90.153 E12.72978
G1 X128.159 Y89.829 E12.75053
G1 X258.06 Y14.833 E17.7394
G1 X258.617 Y14.524 E17.76058
G1 X259.441 Y14.113 E17.79121
G1 X260.297 Y13.774 E17.82183
G1 X261.179 Y13.512 E17.85243
G1 X262.081 Y13.327 E17.88306
G1 X262.996 Y13.221 E17.9137
G1 X263.916 Y13.194 E17.94431
G1 X264.835 Y13.248 E17.97493
G1 X265.746 Y13.381 E18.00555
G1 X266.642 Y13.593 E18.03617
G1 X267.516 Y13.881 E18.06678
G1 X268.362 Y14.245 E18.09741
G1 X269.173 Y14.68 E18.12802
G1 X269.944 Y15.184 E18.15866
G1 X270.667 Y15.753 E18.18926
G1 X271.339 Y16.383 E18.2199
G1 X271.953 Y17.069 E18.25052
G1 X272.506 Y17.805 E18.28114
G1 X272.776 Y18.22 E18.2976
G1 X273.08 Y18.721 E18.31709
G1 X274.572 Y21.302 E18.41625
G1 X274.99 Y22.049 E18.44472
G1 X275.404 Y22.871 E18.47533
G1 X275.744 Y23.727 E18.50597
G1 X276.009 Y24.608 E18.53656
G1 X276.197 Y25.51 E18.56721
G1 X276.305 Y26.424 E18.59782
G1 X276.334 Y27.344 E18.62844
G1 X276.283 Y28.263 E18.65905
G1 X276.152 Y29.175 E18.68969
G1 X275.943 Y30.071 E18.72029
G1 X275.657 Y30.946 E18.75091
G1 X275.296 Y31.793 E18.78154
G1 X274.863 Y32.606 E18.81217
G1 X274.36 Y33.377 E18.84279
G1 X273.793 Y34.103 E18.87343
G1 X273.165 Y34.776 E18.90404
G1 X272.481 Y35.392 E18.93466
G1 X271.746 Y35.947 E18.96529
G1 X271.304 Y36.235 E18.98284
G1 X270.771 Y36.559 E19.00359
G1 X140.87 Y111.555 E23.99246
G1 X140.313 Y111.864 E24.01364
G1 X139.489 Y112.275 E24.04427
G1 X138.633 Y112.614 E24.07489
G1 X137.751 Y112.876 E24.1055
G1 X136.849 Y113.061 E24.13612
G1 X135.934 Y113.167 E24.16676
G1 X135.014 Y113.194 E24.19737
G1 X134.095 Y113.14 E24.22799
G1 X133.184 Y113.007 E24.25861
G1 X132.288 Y112.795 E24.28923
G1 X131.414 Y112.507 E24.31984
G1 X130.568 Y112.143 E24.35047
G1 X129.757 Y111.708 E24.38108
G1 X128.986 Y111.204 E24.41172
G1 X128.263 Y110.635 E24.44232
G1 X127.591 Y110.005 E24.47296
G1 X126.977 Y109.319 E24.50358
G1 X126.424 Y108.583 E24.5342
G1 X126.153 Y108.165 E24.55076
G1 X125.847 Y107.662 E24.57035
G1 X124.358 Y105.086 E24.66931
G1 X123.94 Y104.339 E24.69778
G1 X123.526 Y103.517 E24.72839
G1 X123.186 Y102.661 E24.75903
G1 X122.921 Y101.78 E24.78962
G1 X122.733 Y100.878 E24.82027
G1 X122.625 Y99.964 E24.85088
G1 X122.596 Y99.044 E24.8815
G1 X122.647 Y98.125 E24.91211
G1 X122.778 Y97.213 E24.94275
G1 X122.987 Y96.317 E24.97335
G1 X123.273 Y95.442 E25.00397
G1 X123.634 Y94.595 E25.0346
G1 X124.067 Y93.782 E25.06523
G1 X124.57 Y93.011 E25.09585
G0 F6000 X125.027 Y93.063
G1 F1200 X125.599 Y92.364 E25.12589
G1 X126.231 Y91.719 E25.15593
G1 X126.918 Y91.132 E25.18598
G1 X127.836 Y90.493 E25.22318
G1 X128.359 Y90.176 E25.24352
G1 X258.254 Y15.183 E30.23217
G1 X258.811 Y14.874 E30.25336
G1 X259.619 Y14.471 E30.28339
G1 X260.46 Y14.141 E30.31344
G1 X261.327 Y13.887 E30.34349
G1 X262.212 Y13.711 E30.3735
G1 X263.11 Y13.614 E30.40354
G1 X264.013 Y13.596 E30.43358
G1 X264.914 Y13.659 E30.46362
G1 X265.806 Y13.801 E30.49366
G1 X266.682 Y14.021 E30.5237
G1 X267.535 Y14.318 E30.55374
G1 X268.358 Y14.689 E30.58377
G1 X269.145 Y15.131 E30.61379
G1 X269.89 Y15.642 E30.64384
G1 X270.587 Y16.216 E30.67387
G1 X271.231 Y16.85 E30.70393
G1 X271.816 Y17.538 E30.73396
G1 X272.436 Y18.431 E30.77012
G1 X272.734 Y18.921 E30.7892
G1 X274.226 Y21.502 E30.88835
G1 X274.641 Y22.244 E30.91663
G1 X275.046 Y23.051 E30.94666
G1 X275.378 Y23.891 E30.9767
G1 X275.634 Y24.757 E31.00674
G1 X275.813 Y25.642 E31.03677
G1 X275.913 Y26.54 E31.06682
G1 X275.932 Y27.443 E31.09686
G1 X275.872 Y28.344 E31.1269
G1 X275.733 Y29.236 E31.15692
G1 X275.515 Y30.112 E31.18695
G1 X275.221 Y30.966 E31.21699
G1 X274.852 Y31.791 E31.24705
G1 X274.411 Y32.579 E31.27708
G1 X273.903 Y33.325 E31.3071
G1 X273.331 Y34.024 E31.33714
G1 X272.699 Y34.669 E31.36717
G1 X272.012 Y35.256 E31.39723
G1 X271.094 Y35.895 E31.43443
G1 X270.571 Y36.212 E31.45477
G1 X140.676 Y111.205 E36.44342
G1 X140.119 Y111.514 E36.46461
G1 X139.311 Y111.917 E36.49464
G1 X138.47 Y112.247 E36.52469
G1 X137.603 Y112.501 E36.55473
G1 X136.718 Y112.677 E36.58475
G1 X135.82 Y112.774 E36.61479
G1 X134.917 Y112.792 E36.64483
G1 X134.016 Y112.729 E36.67487
G1 X133.124 Y112.587 E36.70491
G1 X132.248 Y112.367 E36.73495
G1 X131.395 Y112.07 E36.76499
G1 X130.572 Y111.699 E36.79502
G1 X129.785 Y111.257 E36.82504
G1 X129.04 Y110.746 E36.85509
G1 X128.343 Y110.172 E36.88512
G1 X127.699 Y109.538 E36.91518
G1 X127.114 Y108.85 E36.94521
G1 X126.493 Y107.955 E36.98144
G1 X126.193 Y107.461 E37.00067
G1 X124.704 Y104.885 E37.09963
G1 X124.289 Y104.144 E37.12788
G1 X123.884 Y103.337 E37.15791
G1 X123.552 Y102.497 E37.18795
G1 X123.296 Y101.631 E37.21799
G1 X123.117 Y100.746 E37.24802
G1 X123.017 Y99.848 E37.27807
G1 X122.998 Y98.945 E37.30811
G1 X123.058 Y98.044 E37.33814
G1 X123.197 Y97.152 E37.36817
G1 X123.415 Y96.276 E37.39819
G1 X123.709 Y95.422 E37.42823
G1 X124.078 Y94.597 E37.45829
G1 X124.519 Y93.809 E37.48833
G1 X125.027 Y93.063 E37.51835
G1 F1500 E31.01835
G1 F300 Z0.4
;MESH:alignmentPin.stl
G0 F6000 X135.681 Y100.695 Z0.4
;TYPE:WALL-INNER
G1 F300 Z0.2
G1 F1500 E37.51835
G1 F1200 X263.835 Y26.706 E42.44015
G1 X263.542 Y26.199 E42.45963
G1 X263.249 Y25.692 E42.4791
G1 X135.096 Y99.682 E47.4009
G1 X135.681 Y100.695 E47.4398
G0 F6000 X135.535 Y101.242
G1 F1200 X264.381 Y26.852 E52.38821
G1 X263.888 Y25.999 E52.42098
G1 X263.395 Y25.146 E52.45375
G1 X134.549 Y99.536 E57.40215
G1 X135.535 Y101.242 E57.46769
G0 F6000 X135.388 Y101.788
G1 F1200 X264.928 Y26.999 E62.44272
G1 X264.235 Y25.799 E62.48881
G1 X263.542 Y24.599 E62.5349
G1 X134.003 Y99.389 E67.50992
G1 X135.388 Y101.788 E67.60206
G0 F6000 X135.242 Y102.335
;TYPE:WALL-OUTER
G1 F1200 X265.474 Y27.145 E72.60369
G1 X264.581 Y25.599 E72.66307
G1 X263.688 Y24.053 E72.72245
G1 X133.456 Y99.243 E77.72409
G1 X135.242 Y102.335 E77.84285
G1 F1500 E71.34285
G1 F300 Z0.4
G0 F6000 X135.817 Y100.187 Z0.4
;TYPE:SKIN
G1 F300 Z0.2
G1 F1500 E77.84285
G1 F1129.4 X263.326 Y26.57 E83.04596
G1 F1126.8 X263.219 Y26.386 E83.0535
G1 X263.113 Y26.201 E83.06105
G1 F1129.4 X135.604 Y99.818 E88.26415
G1 X135.817 Y100.187 E88.27921
;MESH:NONMESH
G0 F300 X135.817 Y100.187 Z0.4
G0 F6000 X135.681 Y100.695
;TIME_ELAPSED:143.326380
;LAYER:1
M106 S85
;TYPE:WALL-INNER
;MESH:alignmentPin.stl
G1 F1350 X263.835 Y26.706 E93.20102
G1 X263.542 Y26.199 E93.22049
G1 X263.249 Y25.692 E93.23997
G1 X135.096 Y99.682 E98.16176
G1 X135.681 Y100.695 E98.20067
G0 F7500 X135.535 Y101.242
G1 F1350 X264.381 Y26.852 E103.14908
G1 X263.888 Y25.999 E103.18184
G1 X263.395 Y25.146 E103.21461
G1 X134.549 Y99.536 E108.16302
G1 X135.535 Y101.242 E108.22856
G0 F7500 X135.388 Y101.788
G1 F1350 X264.928 Y26.999 E113.20359
G1 X264.235 Y25.799 E113.24968
G1 X263.542 Y24.599 E113.29577
G1 X134.003 Y99.389 E118.27079
G1 X135.388 Y101.788 E118.36292
G0 F7500 X135.242 Y102.335
;TYPE:WALL-OUTER
G1 F1350 X265.474 Y27.145 E123.36455
G1 X264.581 Y25.599 E123.42394
G1 X263.688 Y24.053 E123.48332
G1 X133.456 Y99.243 E128.48495
G1 X135.242 Y102.335 E128.60371
G1 F1500 E122.10371
G1 F300 Z0.6
G0 F7500 X135.817 Y100.187 Z0.6
;TYPE:SKIN
G1 F300 Z0.4
G1 F1500 E128.60371
G1 F1270.6 X263.326 Y26.57 E133.80682
G1 F1267.6 X263.219 Y26.386 E133.81436
G1 X263.113 Y26.201 E133.82191
G1 F1270.6 X135.604 Y99.818 E139.02502
G1 X135.817 Y100.187 E139.04007
;MESH:NONMESH
G0 F300 X135.817 Y100.187 Z0.6
G0 F7500 X135.681 Y100.695
;TIME_ELAPSED:212.551348
;LAYER:2
M106 S170
;TYPE:WALL-INNER
;MESH:alignmentPin.stl
G1 F1500 X263.835 Y26.706 E143.96188
G1 X263.542 Y26.199 E143.98136
G1 X263.249 Y25.692 E144.00083
G1 X135.096 Y99.682 E148.92263
G1 X135.681 Y100.695 E148.96153
G0 F9000 X135.535 Y101.242
G1 F1500 X264.381 Y26.852 E153.90994
G1 X263.888 Y25.999 E153.94271
G1 X263.395 Y25.146 E153.97548
G1 X134.549 Y99.536 E158.92388
G1 X135.535 Y101.242 E158.98942
G0 F9000 X135.388 Y101.788
G1 F1500 X264.928 Y26.999 E163.96445
G1 X264.235 Y25.799 E164.01054
G1 X263.542 Y24.599 E164.05663
G1 X134.003 Y99.389 E169.03165
G1 X135.388 Y101.788 E169.12379
G0 F9000 X135.242 Y102.335
;TYPE:WALL-OUTER
G1 F1500 X265.474 Y27.145 E174.12542
G1 X264.581 Y25.599 E174.1848
G1 X263.688 Y24.053 E174.24418
G1 X133.456 Y99.243 E179.24582
G1 X135.242 Y102.335 E179.36458
G1 F1500 E172.86458
G1 F300 Z0.8
G0 F9000 X135.817 Y100.187 Z0.8
;TYPE:SKIN
G1 F300 Z0.6
G1 F1500 E179.36458
G1 F1411.8 X263.326 Y26.57 E184.56768
G1 F1408.5 X263.219 Y26.386 E184.57522
G1 X263.113 Y26.201 E184.58278
G1 F1411.8 X135.604 Y99.818 E189.78588
G1 X135.817 Y100.187 E189.80094
;MESH:NONMESH
G0 F300 X135.817 Y100.187 Z0.8
G0 F9000 X135.681 Y100.695
;TIME_ELAPSED:275.080528
;LAYER:3
M106 S255
;TYPE:WALL-INNER
;MESH:alignmentPin.stl
G1 F1500 X263.835 Y26.706 E194.72274
G1 X263.542 Y26.199 E194.74222
G1 X263.249 Y25.692 E194.7617
G1 X135.096 Y99.682 E199.68349
G1 X135.681 Y100.695 E199.7224
G0 F9000 X135.535 Y101.242
G1 F1500 X264.381 Y26.852 E204.6708
G1 X263.888 Y25.999 E204.70357
G1 X263.395 Y25.146 E204.73634
G1 X134.549 Y99.536 E209.68475
G1 X135.535 Y101.242 E209.75028
G0 F9000 X135.388 Y101.788
G1 F1500 X264.928 Y26.999 E214.72532
G1 X264.235 Y25.799 E214.77141
G1 X263.542 Y24.599 E214.8175
G1 X134.003 Y99.389 E219.79252
G1 X135.388 Y101.788 E219.88465
G0 F9000 X135.242 Y102.335
;TYPE:WALL-OUTER
G1 F1500 X265.474 Y27.145 E224.88628
G1 X264.581 Y25.599 E224.94566
G1 X263.688 Y24.053 E225.00505
G1 X133.456 Y99.243 E230.00668
G1 X135.242 Y102.335 E230.12544
G1 F1500 E223.62544
G1 F300 Z1
G0 F9000 X135.817 Y100.187 Z1
;TYPE:SKIN
G1 F300 Z0.8
G1 F1500 E230.12544
G1 F1411.8 X263.326 Y26.57 E235.32855
G1 F1408.5 X263.219 Y26.386 E235.33609
G1 X263.113 Y26.201 E235.34364
G1 F1411.8 X135.604 Y99.818 E240.54675
G1 X135.817 Y100.187 E240.5618
;MESH:NONMESH
G0 F300 X135.817 Y100.187 Z1
G0 F9000 X135.681 Y100.695
;TIME_ELAPSED:337.609707
;LAYER:4
;TYPE:WALL-INNER
;MESH:alignmentPin.stl
G1 F1500 X263.835 Y26.706 E245.48361
G1 X263.542 Y26.199 E245.50308
G1 X263.249 Y25.692 E245.52256
G1 X135.096 Y99.682 E250.44435
G1 X135.681 Y100.695 E250.48326
G0 F9000 X135.535 Y101.242
G1 F1500 X264.381 Y26.852 E255.43167
G1 X263.888 Y25.999 E255.46444
G1 X263.395 Y25.146 E255.4972
G1 X134.549 Y99.536 E260.44561
G1 X135.535 Y101.242 E260.51115
G0 F9000 X135.388 Y101.788
G1 F1500 X264.928 Y26.999 E265.48618
G1 X264.235 Y25.799 E265.53227
G1 X263.542 Y24.599 E265.57836
G1 X134.003 Y99.389 E270.55338
G1 X135.388 Y101.788 E270.64551
G0 F9000 X135.242 Y102.335
;TYPE:WALL-OUTER
G1 F1500 X265.474 Y27.145 E275.64715
G1 X264.581 Y25.599 E275.70653
G1 X263.688 Y24.053 E275.76591
G1 X133.456 Y99.243 E280.76754
G1 X135.242 Y102.335 E280.88631
G1 F1500 E274.38631
G1 F300 Z1.2
G0 F9000 X135.817 Y100.187 Z1.2
;TYPE:SKIN
G1 F300 Z1
G1 F1500 E280.88631
G1 F1411.8 X263.326 Y26.57 E286.08941
G1 F1408.5 X263.219 Y26.386 E286.09695
G1 X263.113 Y26.201 E286.1045
G1 F1411.8 X135.604 Y99.818 E291.30761
G1 X135.817 Y100.187 E291.32267
;MESH:NONMESH
G0 F300 X135.817 Y100.187 Z1.2
G0 F9000 X135.681 Y100.695
;TIME_ELAPSED:400.138887
;LAYER:5
;TYPE:WALL-INNER
;MESH:alignmentPin.stl
G1 F1500 X263.835 Y26.706 E296.24447
G1 X263.542 Y26.199 E296.26395
G1 X263.249 Y25.692 E296.28342
G1 X135.096 Y99.682 E301.20522
G1 X135.681 Y100.695 E301.24413
G0 F9000 X135.535 Y101.242
G1 F1500 X264.381 Y26.852 E306.19253
G1 X263.888 Y25.999 E306.2253
G1 X263.395 Y25.146 E306.25807
G1 X134.549 Y99.536 E311.20648
G1 X135.535 Y101.242 E311.27201
G0 F9000 X135.388 Y101.788
G1 F1500 X264.928 Y26.999 E316.24704
G1 X264.235 Y25.799 E316.29313
G1 X263.542 Y24.599 E316.33922
G1 X134.003 Y99.389 E321.31424
G1 X135.388 Y101.788 E321.40638
G0 F9000 X135.242 Y102.335
;TYPE:WALL-OUTER
G1 F1500 X265.474 Y27.145 E326.40801
G1 X264.581 Y25.599 E326.46739
G1 X263.688 Y24.053 E326.52677
G1 X133.456 Y99.243 E331.52841
G1 X135.242 Y102.335 E331.64717
G1 F1500 E325.14717
G1 F300 Z1.4
G0 F9000 X135.817 Y100.187 Z1.4
;TYPE:SKIN
G1 F300 Z1.2
G1 F1500 E331.64717
G1 F1411.8 X263.326 Y26.57 E336.85028
G1 F1408.5 X263.219 Y26.386 E336.85782
G1 X263.113 Y26.201 E336.86537
G1 F1411.8 X135.604 Y99.818 E342.06847
G1 X135.817 Y100.187 E342.08353
;MESH:NONMESH
G0 F300 X135.817 Y100.187 Z1.4
G0 F9000 X135.681 Y100.695
;TIME_ELAPSED:462.668066
;LAYER:6
;TYPE:WALL-INNER
;MESH:alignmentPin.stl
G1 F1500 X263.835 Y26.706 E347.00534
G1 X263.542 Y26.199 E347.02481
G1 X263.249 Y25.692 E347.04429
G1 X135.096 Y99.682 E351.96608
G1 X135.681 Y100.695 E352.00499
G0 F9000 X135.535 Y101.242
G1 F1500 X264.381 Y26.852 E356.9534
G1 X263.888 Y25.999 E356.98616
G1 X263.395 Y25.146 E357.01893
G1 X134.549 Y99.536 E361.96734
G1 X135.535 Y101.242 E362.03288
G0 F9000 X135.388 Y101.788
G1 F1500 X264.928 Y26.999 E367.00791
