;FLAVOR:Marlin
;TIME:9092
;Filament used: 5.93185m
;Layer height: 0.16
;MINX:105.642
;MINY:87.618
;MINZ:0.2
;MAXX:272.463
;MAXY:194.364
;MAXZ:3.2
;Generated with Cura_SteamEngine 5.2.2
M140 S60
M105
M190 S60
M104 S200
M105
M109 S200
M82 ;absolute extrusion mode
; Ender 3 Max Custom Start G-code
G92 E0 ; Reset Extruder
G28 ; Home all axes
G1 Z2.0 F3000 ; Move Z Axis up little to prevent scratching of Heat Bed
G1 X0.1 Y20 Z0.3 F5000.0 ; Move to start position
G1 X0.1 Y200.0 Z0.3 F1500.0 E15 ; Draw the first line
G1 X0.4 Y200.0 Z0.3 F5000.0 ; Move to side a little
G1 X0.4 Y20 Z0.3 F1500.0 E30 ; Draw the second line
G92 E0 ; Reset Extruder
G1 Z2.0 F3000 ; Move Z Axis up little to prevent scratching of Heat Bed
G1 X5 Y20 Z0.3 F5000.0 ; Move over to prevent blob squish
G92 E0
G92 E0
G1 F1500 E-6.5
;LAYER_COUNT:16
;LAYER:0
M107
G1 F300 Z0.4
G0 F6000 X118.686 Y118.573 Z0.4
;TYPE:SKIRT
G1 F300 Z0.2
G1 F1500 E0
G1 F1200 X119.91 Y117.4 E0.05639
G1 X120.876 Y116.534 E0.09954
G1 X122.042 Y115.555 E0.15017
G1 X123.339 Y114.541 E0.20493
G1 X124.537 Y113.67 E0.2542
G1 X125.777 Y112.832 E0.30397
G1 X127.033 Y112.043 E0.35331
G1 X128.303 Y111.304 E0.40218
G1 X129.514 Y110.649 E0.44797
G1 X130.803 Y110.004 E0.49591
G1 X132.335 Y109.304 E0.55193
G1 X133.584 Y108.784 E0.59693
G1 X135.073 Y108.221 E0.64988
G1 X136.367 Y107.781 E0.69534
G1 X137.766 Y107.354 E0.74399
G1 X139.378 Y106.925 E0.79947
G1 X140.699 Y106.62 E0.84456
G1 X142.108 Y106.342 E0.89233
G1 X143.613 Y106.097 E0.94304
G1 X145.252 Y105.889 E0.99799
G1 X146.563 Y105.768 E1.04178
G1 X148.262 Y105.669 E1.09839
G1 X149.657 Y105.636 E1.1448
G1 X151.268 Y105.652 E1.19838
G1 X153.289 Y105.741 E1.26567
G1 X154.475 Y105.815 E1.30519
G1 X157.158 Y105.906 E1.39448
G1 X159.847 Y105.922 E1.48392
G1 X162.53 Y105.862 E1.57317
G1 X165.255 Y105.723 E1.66393
G1 X167.892 Y105.514 E1.75191
G1 X170.564 Y105.226 E1.84129
G1 X173.241 Y104.861 E1.93116
G1 X175.872 Y104.426 E2.01985
G1 X178.533 Y103.907 E2.11002
G1 X181.155 Y103.32 E2.19939
G1 X183.712 Y102.671 E2.28713
G1 X186.349 Y101.921 E2.37832
G1 X188.888 Y101.12 E2.46687
G1 X191.431 Y100.239 E2.55638
G1 X193.937 Y99.291 E2.6455
G1 X196.416 Y98.272 E2.73464
G1 X198.894 Y97.169 E2.82486
G1 X201.309 Y96.012 E2.91392
G1 X203.721 Y94.77 E3.00416
G1 X205.686 Y93.695 E3.07865
G1 X207.068 Y92.92 E3.13135
G1 X208.277 Y92.294 E3.17664
G1 X209.732 Y91.599 E3.23027
G1 X211.106 Y91.003 E3.28008
G1 X212.523 Y90.443 E3.33076
G1 X213.737 Y90.007 E3.37366
G1 X215.34 Y89.492 E3.42966
G1 X216.597 Y89.135 E3.47312
G1 X218.218 Y88.732 E3.52868
G1 X219.503 Y88.459 E3.57237
G1 X220.939 Y88.2 E3.6209
G1 X222.629 Y87.957 E3.67769
G1 X224.089 Y87.799 E3.72653
G1 X225.56 Y87.69 E3.77559
G1 X226.942 Y87.632 E3.8216
G1 X228.37 Y87.618 E3.8691
G1 X230.048 Y87.661 E3.92493
G1 X231.53 Y87.75 E3.97431
G1 X232.855 Y87.873 E4.01856
G1 X234.495 Y88.081 E4.07355
G1 X235.809 Y88.292 E4.11781
G1 X237.261 Y88.572 E4.167
G1 X238.881 Y88.947 E4.2223
G1 X240.173 Y89.291 E4.26677
G1 X241.755 Y89.77 E4.32175
G1 X242.969 Y90.183 E4.3644
G1 X244.579 Y90.791 E4.42164
G1 X245.782 Y91.294 E4.46501
G1 X247.138 Y91.91 E4.51454
G1 X248.44 Y92.555 E4.56287
G1 X249.953 Y93.372 E4.62006
G1 X251.208 Y94.11 E4.66848
G1 X252.313 Y94.806 E4.71192
G1 X253.565 Y95.652 E4.76218
G1 X254.795 Y96.547 E4.81277
G1 X256.069 Y97.542 E4.86654
G1 X257.089 Y98.396 E4.91078
G1 X258.206 Y99.395 E4.96062
G1 X259.268 Y100.409 E5.00946
G1 X260.355 Y101.52 E5.06116
G1 X261.416 Y102.682 E5.11349
G1 X262.417 Y103.861 E5.16493
G1 X263.228 Y104.881 E5.20828
G1 X264.129 Y106.091 E5.25845
G1 X264.963 Y107.293 E5.30711
G1 X265.769 Y108.541 E5.35653
G1 X266.619 Y109.968 E5.41177
G1 X267.357 Y111.311 E5.46274
G1 X268.008 Y112.598 E5.51071
G1 X268.653 Y113.985 E5.56158
G1 X269.159 Y115.174 E5.60456
G1 X269.769 Y116.746 E5.66065
G1 X270.207 Y118.001 E5.70486
G1 X270.69 Y119.549 E5.75879
G1 X271.041 Y120.824 E5.80278
G1 X271.399 Y122.309 E5.85358
G1 X271.689 Y123.71 E5.90117
G1 X271.978 Y125.413 E5.95862
G1 X272.171 Y126.866 E6.00737
G1 X272.32 Y128.352 E6.05704
G1 X272.407 Y129.637 E6.09988
G1 X272.463 Y131.331 E6.15625
G1 X272.463 Y132.63 E6.19946
G1 X272.407 Y134.306 E6.25523
G1 X272.304 Y135.788 E6.30464
G1 X272.17 Y137.113 E6.34894
G1 X271.949 Y138.75 E6.40388
G1 X271.726 Y140.064 E6.44821
G1 X271.396 Y141.68 E6.50307
G1 X271.051 Y143.108 E6.55193
G1 X270.641 Y144.585 E6.60291
G1 X270.258 Y145.811 E6.64563
G1 X269.709 Y147.383 E6.70101
G1 X269.159 Y148.793 E6.75135
G1 X268.581 Y150.143 E6.80019
G1 X268.007 Y151.37 E6.84525
G1 X267.35 Y152.667 E6.89361
G1 X266.55 Y154.123 E6.94886
G1 X265.847 Y155.299 E6.99443
G1 X264.971 Y156.663 E7.04835
G1 X264.12 Y157.888 E7.09796
G1 X263.35 Y158.926 E7.14094
G1 X262.399 Y160.126 E7.19187
G1 X261.311 Y161.404 E7.24769
G1 X260.47 Y162.326 E7.2892
G1 X259.268 Y163.558 E7.34645
G1 X258.207 Y164.571 E7.39524
G1 X257.219 Y165.458 E7.4394
G1 X255.94 Y166.529 E7.49489
G1 X254.927 Y167.321 E7.53765
G1 X253.56 Y168.318 E7.59393
G1 X252.32 Y169.157 E7.64372
G1 X251.217 Y169.853 E7.6871
G1 X249.778 Y170.694 E7.74254
G1 X248.644 Y171.308 E7.78543
G1 X247.099 Y172.077 E7.84283
G1 X245.951 Y172.601 E7.8848
G1 X244.393 Y173.25 E7.94094
G1 X243.016 Y173.768 E7.98987
G1 X241.729 Y174.205 E8.03508
G1 X240.166 Y174.678 E8.08939
G1 X238.72 Y175.06 E8.13913
G1 X237.265 Y175.393 E8.18878
G1 X235.811 Y175.675 E8.23804
G1 X234.474 Y175.89 E8.28308
G1 X233.047 Y176.073 E8.33093
G1 X231.369 Y176.23 E8.38699
G1 X230.025 Y176.308 E8.43176
G1 X228.377 Y176.349 E8.48659
G1 X226.941 Y176.335 E8.53436
G1 X224.947 Y176.244 E8.60075
G1 X224.826 Y176.244 E8.60477
G1 X223.441 Y176.16 E8.65092
G1 X220.785 Y176.074 E8.73931
G1 X218.101 Y176.063 E8.82858
G1 X215.376 Y176.13 E8.91924
G1 X212.736 Y176.268 E9.00716
G1 X210.015 Y176.489 E9.09796
G1 X207.374 Y176.779 E9.18633
G1 X204.689 Y177.149 E9.27648
G1 X202.064 Y177.589 E9.365
G1 X199.415 Y178.109 E9.45479
G1 X196.798 Y178.7 E9.54403
G1 X194.196 Y179.367 E9.63337
G1 X191.611 Y180.106 E9.72279
G1 X189.069 Y180.913 E9.81149
G1 X186.501 Y181.807 E9.90193
G1 X184.027 Y182.747 E9.98996
G1 X181.508 Y183.79 E10.08064
G1 X179.09 Y184.87 E10.16872
G1 X176.626 Y186.056 E10.25967
G1 X174.269 Y187.274 E10.34791
G1 X172.471 Y188.26 E10.41612
G1 X171.186 Y188.983 E10.46516
G1 X169.87 Y189.668 E10.5145
G1 X168.33 Y190.403 E10.57126
G1 X167.155 Y190.915 E10.61389
G1 X165.588 Y191.539 E10.66999
G1 X164.361 Y191.979 E10.71334
G1 X162.773 Y192.489 E10.76882
G1 X161.506 Y192.849 E10.81262
G1 X159.904 Y193.247 E10.86753
G1 X158.606 Y193.524 E10.91167
G1 X157.133 Y193.789 E10.96145
G1 X155.491 Y194.025 E11.01662
G1 X154.023 Y194.184 E11.06573
G1 X152.493 Y194.297 E11.11676
G1 X151.268 Y194.348 E11.15754
G1 X149.658 Y194.364 E11.21109
G1 X148.094 Y194.324 E11.26313
G1 X146.565 Y194.232 E11.31407
G1 X145.253 Y194.111 E11.3579
G1 X143.612 Y193.903 E11.41291
G1 X142.114 Y193.659 E11.46339
G1 X140.694 Y193.38 E11.51153
G1 X139.217 Y193.035 E11.56197
G1 X137.769 Y192.647 E11.61183
G1 X136.527 Y192.271 E11.65499
G1 X135.072 Y191.778 E11.70609
G1 X133.742 Y191.279 E11.75334
G1 X132.179 Y190.627 E11.80966
G1 X130.804 Y189.996 E11.85998
G1 X129.665 Y189.429 E11.9023
G1 X128.153 Y188.613 E11.95945
G1 X127.027 Y187.953 E12.00286
G1 X125.638 Y187.077 E12.05747
G1 X124.537 Y186.33 E12.10173
G1 X123.339 Y185.459 E12.15099
G1 X122.041 Y184.445 E12.20577
G1 X120.868 Y183.459 E12.25674
G1 X119.91 Y182.6 E12.29954
G1 X118.686 Y181.427 E12.35592
G1 X117.805 Y180.522 E12.39793
G1 X116.757 Y179.377 E12.44956
G1 X115.716 Y178.154 E12.50298
G1 X114.758 Y176.946 E12.55425
G1 X113.977 Y175.893 E12.59786
G1 X113.148 Y174.7 E12.64618
G1 X112.234 Y173.279 E12.70237
G1 X111.543 Y172.118 E12.74731
G1 X110.767 Y170.712 E12.80072
G1 X110.077 Y169.348 E12.85156
G1 X109.537 Y168.19 E12.89406
G1 X108.87 Y166.626 E12.95061
G1 X108.396 Y165.4 E12.99433
G1 X107.852 Y163.843 E13.04919
G1 X107.403 Y162.396 E13.09958
G1 X107.067 Y161.175 E13.1417
G1 X106.711 Y159.698 E13.19223
G1 X106.405 Y158.219 E13.24247
G1 X106.132 Y156.605 E13.29691
G1 X105.935 Y155.129 E13.34644
G1 X105.784 Y153.608 E13.39727
G1 X105.698 Y152.338 E13.43961
G1 X105.642 Y150.653 E13.49569
G1 X105.642 Y149.348 E13.53909
G1 X105.698 Y147.661 E13.59523
G1 X105.785 Y146.379 E13.63797
G1 X105.935 Y144.871 E13.68837
G1 X106.132 Y143.395 E13.7379
G1 X106.373 Y141.953 E13.78653
G1 X106.714 Y140.288 E13.84305
G1 X107.067 Y138.824 E13.89314
G1 X107.451 Y137.439 E13.94094
G1 X107.854 Y136.149 E13.9859
G1 X108.396 Y134.6 E14.04048
G1 X108.934 Y133.216 E14.08987
G1 X109.469 Y131.961 E14.13524
G1 X110.079 Y130.65 E14.18333
G1 X110.846 Y129.14 E14.23967
G1 X111.459 Y128.027 E14.28193
G1 X112.323 Y126.579 E14.33801
G1 X113.149 Y125.297 E14.38873
G1 X113.977 Y124.107 E14.43695
G1 X114.758 Y123.054 E14.48056
G1 X115.823 Y121.716 E14.53743
G1 X116.757 Y120.623 E14.58525
G1 X117.805 Y119.478 E14.63688
G1 X118.686 Y118.573 E14.67889
G0 F6000 X118.973 Y118.852
G1 F1200 X120.177 Y117.698 E14.73436
G1 X121.143 Y116.832 E14.77751
G1 X122.298 Y115.862 E14.82767
G1 X123.453 Y114.956 E14.8765
G1 X124.761 Y114.001 E14.93036
G1 X125.862 Y113.254 E14.97461
G1 X127.235 Y112.388 E15.0286
G1 X128.361 Y111.73 E15.07198
G1 X129.705 Y111.001 E15.12284
G1 X131.122 Y110.295 E15.17549
G1 X132.489 Y109.673 E15.22544
G1 X133.879 Y109.097 E15.27549
G1 X135.056 Y108.652 E15.31734
G1 X136.496 Y108.16 E15.36795
G1 X137.882 Y107.737 E15.41615
G1 X139.468 Y107.315 E15.47073
G1 X140.941 Y106.977 E15.521
G1 X142.184 Y106.734 E15.56313
G1 X143.831 Y106.469 E15.61861
G1 X145.289 Y106.287 E15.66748
G1 X146.6 Y106.166 E15.71127
G1 X148.272 Y106.068 E15.76697
G1 X149.499 Y106.037 E15.8078
G1 X151.097 Y106.048 E15.86095
G1 X152.684 Y106.113 E15.91378
G1 X153.191 Y106.142 E15.93067
G1 X153.264 Y106.14 E15.9331
G1 X154.472 Y106.216 E15.97335
G1 X157.142 Y106.306 E16.06221
G1 X159.854 Y106.322 E16.15241
G1 X162.559 Y106.261 E16.2424
G1 X165.235 Y106.125 E16.33152
G1 X167.933 Y105.912 E16.42154
G1 X170.624 Y105.622 E16.51156
G1 X173.324 Y105.253 E16.6022
G1 X175.942 Y104.82 E16.69045
G1 X178.598 Y104.302 E16.78046
G1 X181.227 Y103.714 E16.87006
G1 X183.856 Y103.046 E16.96028
G1 X186.431 Y102.313 E17.04932
G1 X189.023 Y101.496 E17.13972
G1 X191.578 Y100.611 E17.22965
G1 X194.082 Y99.664 E17.31869
G1 X196.595 Y98.631 E17.40906
G1 X199.036 Y97.544 E17.49793
G1 X201.5 Y96.364 E17.5888
G1 X203.902 Y95.128 E17.67865
G1 X205.854 Y94.059 E17.75267
G1 X207.109 Y93.352 E17.80058
G1 X208.461 Y92.649 E17.85126
G1 X209.892 Y91.965 E17.90401
G1 X211.112 Y91.433 E17.94828
G1 X212.658 Y90.82 E18.0036
G1 X213.872 Y90.384 E18.0465
G1 X215.449 Y89.877 E18.10159
G1 X216.852 Y89.481 E18.15008
G1 X218.301 Y89.123 E18.19972
G1 X219.586 Y88.85 E18.24342
G1 X221.164 Y88.569 E18.29673
G1 X222.673 Y88.354 E18.34742
G1 X223.966 Y88.212 E18.39069
G1 X225.421 Y88.099 E18.43923
G1 X227.115 Y88.028 E18.49562
G1 X228.526 Y88.019 E18.54255
G1 X229.871 Y88.053 E18.5873
G1 X231.337 Y88.137 E18.63614
G1 X232.818 Y88.272 E18.6856
G1 X234.431 Y88.476 E18.73968
G1 X235.745 Y88.687 E18.78394
G1 X237.344 Y88.999 E18.83813
G1 X238.779 Y89.334 E18.88714
G1 X240.22 Y89.72 E18.93676
G1 X241.478 Y90.101 E18.98047
G1 X242.841 Y90.562 E19.02833
G1 X244.274 Y91.1 E19.07924
G1 X245.627 Y91.663 E19.12798
G1 X247.113 Y92.341 E19.18231
G1 X248.262 Y92.913 E19.225
G1 X249.608 Y93.637 E19.27583
G1 X250.995 Y94.449 E19.32929
G1 X252.23 Y95.23 E19.37789
G1 X253.34 Y95.983 E19.4225
G1 X254.68 Y96.961 E19.47768
G1 X255.812 Y97.849 E19.52553
G1 X256.952 Y98.807 E19.57506
G1 X258.048 Y99.794 E19.62411
G1 X259.104 Y100.809 E19.67283
G1 X260.173 Y101.909 E19.72384
G1 X261.008 Y102.824 E19.76505
G1 X262.104 Y104.11 E19.82124
G1 X262.915 Y105.13 E19.86459
G1 X263.897 Y106.454 E19.91941
G1 X264.719 Y107.647 E19.9676
G1 X265.433 Y108.757 E20.0115
G1 X266.195 Y110.032 E20.0609
G1 X266.926 Y111.352 E20.11109
G1 X267.645 Y112.767 E20.16388
G1 X268.285 Y114.142 E20.21432
G1 X268.791 Y115.331 E20.2573
G1 X269.391 Y116.878 E20.31249
G1 X269.877 Y118.278 E20.36178
G1 X270.304 Y119.655 E20.40973
G1 X270.694 Y121.081 E20.4589
G1 X271.01 Y122.402 E20.50407
G1 X271.326 Y123.945 E20.55646
G1 X271.582 Y125.467 E20.60779
G1 X271.756 Y126.758 E20.65112
G1 X271.907 Y128.225 E20.70017
G1 X272.015 Y129.822 E20.75341
G1 X272.063 Y131.331 E20.80362
G1 X272.063 Y132.63 E20.84683
G1 X272.008 Y134.279 E20.9017
G1 X271.919 Y135.595 E20.94557
G1 X271.772 Y137.073 E20.99497
G1 X271.578 Y138.529 E21.04383
G1 X271.303 Y140.147 E21.09842
G1 X271.007 Y141.587 E21.14731
G1 X270.705 Y142.849 E21.19047
G1 X270.259 Y144.466 E21.24626
G1 X269.876 Y145.692 E21.28898
G1 X269.336 Y147.238 E21.34345
G1 X268.791 Y148.636 E21.39335
G1 X268.219 Y149.973 E21.44172
G1 X267.579 Y151.335 E21.49177
G1 X266.925 Y152.617 E21.53964
G1 X266.29 Y153.773 E21.58351
G1 X265.426 Y155.219 E21.63953
G1 X264.642 Y156.436 E21.68768
G1 X263.887 Y157.527 E21.73181
G1 X262.935 Y158.809 E21.78492
G1 X261.987 Y159.998 E21.8355
G1 X261.016 Y161.134 E21.88521
G1 X260.175 Y162.056 E21.92671
G1 X259.104 Y163.158 E21.97782
G1 X257.94 Y164.273 E22.03143
G1 X256.952 Y165.16 E22.0756
G1 X255.813 Y166.117 E22.12508
G1 X254.557 Y167.099 E22.1781
G1 X253.335 Y167.987 E22.22834
G1 X252.237 Y168.733 E22.2725
G1 X251.004 Y169.514 E22.32104
G1 X249.717 Y170.269 E22.37067
G1 X248.453 Y170.956 E22.41852
G1 X246.933 Y171.713 E22.475
G1 X245.785 Y172.237 E22.51697
G1 X244.252 Y172.875 E22.57219
G1 X242.887 Y173.389 E22.62071
G1 X241.6 Y173.826 E22.66591
G1 X240.063 Y174.291 E22.71932
G1 X238.63 Y174.67 E22.76862
G1 X237.339 Y174.968 E22.81269
G1 X235.747 Y175.28 E22.86665
G1 X234.41 Y175.495 E22.91169
G1 X232.846 Y175.693 E22.96412
G1 X231.507 Y175.818 E23.00885
G1 X229.85 Y175.915 E23.06406
G1 X228.532 Y175.948 E23.10791
G1 X227.117 Y175.939 E23.15497
G1 X225.306 Y175.864 E23.21526
G1 X224.936 Y175.842 E23.22759
G1 X224.85 Y175.845 E23.23045
G1 X223.478 Y175.762 E23.27616
G1 X220.765 Y175.674 E23.36645
G1 X218.093 Y175.663 E23.45532
G1 X215.383 Y175.729 E23.54548
G1 X212.68 Y175.871 E23.63551
G1 X210.01 Y176.088 E23.7246
G1 X207.312 Y176.384 E23.81488
G1 X204.639 Y176.753 E23.90463
G1 X201.986 Y177.197 E23.99409
G1 X199.328 Y177.719 E24.08419
G1 X196.715 Y178.309 E24.17328
G1 X194.092 Y178.982 E24.26335
G1 X191.496 Y179.724 E24.35315
G1 X188.922 Y180.54 E24.44296
G1 X186.365 Y181.431 E24.53302
G1 X183.869 Y182.38 E24.62184
G1 X181.371 Y183.413 E24.71175
G1 X178.904 Y184.516 E24.80163
G1 X176.476 Y185.684 E24.89124
G1 X174.056 Y186.934 E24.98183
G1 X172.232 Y187.935 E25.05103
G1 X170.99 Y188.634 E25.09844
G1 X169.686 Y189.313 E25.14734
G1 X168.171 Y190.036 E25.20317
G1 X166.86 Y190.605 E25.2507
G1 X165.602 Y191.106 E25.29574
G1 X164.08 Y191.652 E25.34952
G1 X162.813 Y192.059 E25.39378
G1 X161.396 Y192.464 E25.4428
G1 X159.82 Y192.856 E25.49681
G1 X158.369 Y193.163 E25.54614
G1 X157.062 Y193.396 E25.5903
G1 X155.447 Y193.627 E25.64456
G1 X153.992 Y193.785 E25.69324
G1 X152.632 Y193.888 E25.7386
G1 X151.098 Y193.952 E25.78967
G1 X149.5 Y193.963 E25.84282
G1 X148.271 Y193.932 E25.88371
G1 X146.602 Y193.834 E25.93931
G1 X145.135 Y193.696 E25.98832
G1 X143.831 Y193.531 E26.03204
G1 X142.336 Y193.292 E26.08239
G1 X140.784 Y192.99 E26.13498
G1 X139.464 Y192.684 E26.18005
G1 X137.885 Y192.264 E26.23439
G1 X136.643 Y191.888 E26.27755
G1 X135.06 Y191.349 E26.33317
G1 X133.883 Y190.905 E26.37501
G1 X132.345 Y190.263 E26.43045
G1 X130.982 Y189.638 E26.48032
G1 X129.843 Y189.071 E26.52264
G1 X128.355 Y188.268 E26.57887
G1 X127.229 Y187.608 E26.62228
G1 X125.862 Y186.746 E26.67604
G1 X124.761 Y185.999 E26.72029
G1 X123.453 Y185.044 E26.77415
G1 X122.298 Y184.138 E26.82298
G1 X121.135 Y183.161 E26.8735
G1 X120.177 Y182.302 E26.91629
G1 X118.973 Y181.148 E26.97176
G1 X118.092 Y180.243 E27.01377
G1 X116.949 Y178.99 E27.07018
G1 X116.127 Y178.025 E27.11234
G1 X115.079 Y176.707 E27.16835
G1 X114.211 Y175.533 E27.21691
G1 X113.477 Y174.473 E27.25979
G1 X112.578 Y173.075 E27.31507
G1 X111.887 Y171.914 E27.36001
G1 X111.199 Y170.673 E27.4072
G1 X110.44 Y169.179 E27.46294
G1 X109.9 Y168.021 E27.50544
G1 X109.303 Y166.628 E27.55584
G1 X108.718 Y165.116 E27.60977
