;FLAVOR:Marlin
;TIME:10665
;Filament used: 4.04945m
;Layer height: 0.12
;MINX:92.873
;MINY:100.083
;MINZ:0.12
;MAXX:207.246
;MAXY:181.245
;MAXZ:25.44
;Generated with Cura_SteamEngine 5.2.2
M140 S60
M105
M190 S60
M104 S200
M105
M109 S200
M82 ;absolute extrusion mode
; Ender 3 Max Custom Start G-code
G92 E0 ; Reset Extruder
G28 ; Home all axes
G1 Z2.0 F3000 ; Move Z Axis up little to prevent scratching of Heat Bed
G1 X0.1 Y20 Z0.3 F5000.0 ; Move to start position
G1 X0.1 Y200.0 Z0.3 F1500.0 E15 ; Draw the first line
G1 X0.4 Y200.0 Z0.3 F5000.0 ; Move to side a little
G1 X0.4 Y20 Z0.3 F1500.0 E30 ; Draw the second line
G92 E0 ; Reset Extruder
G1 Z2.0 F3000 ; Move Z Axis up little to prevent scratching of Heat Bed
G1 X5 Y20 Z0.3 F5000.0 ; Move over to prevent blob squish
G92 E0
G92 E0
G1 F1500 E-6.5
;LAYER_COUNT:212
;LAYER:0
M107
G0 F6000 X116.968 Y106.756 Z0.12
;TYPE:SKIRT
G1 F1500 E0
G1 F1200 X117.639 Y106.1 E0.01873
G1 X118.149 Y105.669 E0.03205
G1 X118.999 Y104.995 E0.0537
G1 X120.147 Y104.115 E0.08257
G1 X120.681 Y103.718 E0.09585
G1 X121.457 Y103.191 E0.11456
G1 X122.275 Y102.732 E0.13328
G1 X122.851 Y102.461 E0.14599
G1 X123.843 Y102.031 E0.16756
G1 X125.031 Y101.539 E0.19322
G1 X125.77 Y101.243 E0.20911
G1 X126.655 Y100.932 E0.22783
G1 X127.563 Y100.698 E0.24654
G1 X128.222 Y100.578 E0.25991
G1 X129.128 Y100.442 E0.27819
G1 X130.717 Y100.232 E0.31018
G1 X131.401 Y100.152 E0.32392
G1 X132.336 Y100.083 E0.34263
G1 X133.274 Y100.094 E0.36135
G1 X133.923 Y100.149 E0.37435
G1 X135.018 Y100.275 E0.39634
G1 X136.405 Y100.458 E0.42426
G1 X137.062 Y100.553 E0.43751
G1 X137.984 Y100.727 E0.45624
G1 X138.887 Y100.978 E0.47494
G1 X139.518 Y101.205 E0.48832
G1 X140.559 Y101.617 E0.51066
G1 X141.832 Y102.146 E0.53817
G1 X142.493 Y102.431 E0.55254
G1 X143.338 Y102.839 E0.57126
G1 X144.145 Y103.317 E0.58998
G1 X144.537 Y103.585 E0.59946
G1 X146.262 Y104.819 E0.64178
G1 X148.36 Y106.236 E0.69231
G1 X150.486 Y107.587 E0.74257
G1 X152.622 Y108.863 E0.79223
G1 X153.767 Y109.527 E0.81864
G1 X154.557 Y110.032 E0.83735
G1 X155.522 Y110.791 E0.86185
G1 X155.915 Y111.138 E0.87232
G1 X157.839 Y112.788 E0.9229
G1 X159.804 Y114.377 E0.97333
G1 X161.809 Y115.909 E1.02368
G1 X163.857 Y117.382 E1.07403
G1 X165.925 Y118.785 E1.1239
G1 X168.037 Y120.131 E1.17387
G1 X170.222 Y121.438 E1.22468
G1 X172.412 Y122.665 E1.27478
G1 X174.647 Y123.836 E1.32513
G1 X176.901 Y124.936 E1.37518
G1 X179.196 Y125.978 E1.42548
G1 X181.546 Y126.964 E1.47634
G1 X183.876 Y127.866 E1.5262
G1 X186.221 Y128.699 E1.57586
G1 X188.635 Y129.48 E1.6265
G1 X191.058 Y130.188 E1.67687
G1 X194.101 Y130.979 E1.73962
G1 X194.998 Y131.253 E1.75833
G1 X195.868 Y131.603 E1.77705
G1 X196.705 Y132.026 E1.79576
G1 X197.504 Y132.518 E1.81449
G1 X198.257 Y133.077 E1.8332
G1 X198.967 Y133.705 E1.85212
G1 X199.509 Y134.229 E1.86716
G1 X203.54 Y138.271 E1.98108
G1 X204.14 Y138.89 E1.99829
G1 X204.763 Y139.591 E2.017
G1 X205.324 Y140.342 E2.03571
G1 X205.819 Y141.139 E2.05443
G1 X206.245 Y141.975 E2.07315
G1 X206.597 Y142.844 E2.09187
G1 X206.874 Y143.74 E2.11058
G1 X207.074 Y144.656 E2.12929
G1 X207.195 Y145.586 E2.14801
G1 X207.235 Y146.345 E2.16317
G1 X207.246 Y147.061 E2.17746
G1 X207.237 Y152.951 E2.29501
G1 X207.226 Y153.653 E2.30902
G1 X207.171 Y154.59 E2.32775
G1 X207.037 Y155.518 E2.34646
G1 X206.824 Y156.431 E2.36517
G1 X206.534 Y157.323 E2.38389
G1 X206.169 Y158.187 E2.4026
G1 X205.732 Y159.017 E2.42132
G1 X205.226 Y159.807 E2.44005
G1 X204.655 Y160.55 E2.45875
G1 X204.143 Y161.119 E2.47402
G1 X203.61 Y161.669 E2.4893
G1 X199.58 Y165.687 E2.60287
G1 X198.961 Y166.287 E2.62007
G1 X198.26 Y166.91 E2.63879
G1 X197.509 Y167.471 E2.6575
G1 X196.712 Y167.966 E2.67622
G1 X195.876 Y168.391 E2.69494
G1 X195.007 Y168.744 E2.71365
G1 X194.111 Y169.021 E2.73237
G1 X192.788 Y169.284 E2.75929
G1 X190.324 Y169.618 E2.80891
G1 X187.878 Y170.019 E2.85837
G1 X185.37 Y170.502 E2.90934
G1 X182.886 Y171.053 E2.96012
G1 X180.488 Y171.657 E3.00947
G1 X178.079 Y172.337 E3.05942
G1 X175.623 Y173.106 E3.11078
G1 X173.275 Y173.915 E3.16034
G1 X170.909 Y174.806 E3.21079
G1 X168.571 Y175.762 E3.2612
G1 X166.292 Y176.772 E3.31095
G1 X163.996 Y177.865 E3.36169
G1 X162.706 Y178.518 E3.39055
G1 X161.852 Y178.905 E3.40926
G1 X161.072 Y179.186 E3.4258
G1 X160.333 Y179.42 E3.44127
G1 X157.683 Y180.225 E3.49654
G1 X156.971 Y180.43 E3.51133
G1 X156.06 Y180.65 E3.53003
G1 X155.146 Y180.791 E3.54848
G1 X154.352 Y180.879 E3.56443
G1 X151.754 Y181.135 E3.61652
G1 X150.937 Y181.205 E3.63289
G1 X150 Y181.245 E3.6516
G1 X149.09 Y181.207 E3.66978
G1 X148.241 Y181.135 E3.68678
G1 X145.699 Y180.884 E3.73776
G1 X144.796 Y180.782 E3.75589
G1 X143.87 Y180.636 E3.7746
G1 X142.988 Y180.42 E3.79272
G1 X142.242 Y180.203 E3.80823
G1 X139.56 Y179.387 E3.86417
G1 X138.933 Y179.187 E3.8773
G1 X138.053 Y178.864 E3.89601
G1 X137.362 Y178.548 E3.91117
G1 X135.087 Y177.412 E3.96192
G1 X132.754 Y176.326 E4.01327
G1 X130.495 Y175.351 E4.06237
G1 X128.132 Y174.408 E4.11315
G1 X125.737 Y173.531 E4.16405
G1 X123.386 Y172.745 E4.21351
G1 X120.98 Y172.015 E4.26369
G1 X118.55 Y171.352 E4.31396
G1 X116.04 Y170.744 E4.36549
G1 X113.644 Y170.235 E4.41438
G1 X111.183 Y169.783 E4.46431
G1 X107.171 Y169.194 E4.54523
G1 X106.25 Y169.019 E4.56394
G1 X105.347 Y168.765 E4.58266
G1 X104.469 Y168.436 E4.60137
G1 X103.622 Y168.033 E4.62009
G1 X102.813 Y167.559 E4.6388
G1 X102.046 Y167.018 E4.65753
G1 X101.161 Y166.257 E4.68082
G1 X100.652 Y165.767 E4.69492
G1 X96.601 Y161.73 E4.80905
G1 X95.992 Y161.104 E4.82648
G1 X95.369 Y160.403 E4.8452
G1 X94.807 Y159.652 E4.86392
G1 X94.312 Y158.856 E4.88262
G1 X93.886 Y158.02 E4.90135
G1 X93.532 Y157.151 E4.92007
G1 X93.255 Y156.255 E4.93879
G1 X93.054 Y155.339 E4.9575
G1 X92.932 Y154.409 E4.97622
G1 X92.892 Y153.658 E4.99123
G1 X92.879 Y152.885 E5.00666
G1 X92.873 Y147.252 E5.11907
G1 X92.883 Y146.421 E5.13566
G1 X92.936 Y145.485 E5.15436
G1 X93.068 Y144.557 E5.17307
G1 X93.278 Y143.643 E5.19179
G1 X93.566 Y142.75 E5.21051
G1 X93.929 Y141.885 E5.22923
G1 X94.364 Y141.054 E5.24795
G1 X94.869 Y140.264 E5.26666
G1 X95.606 Y139.322 E5.29053
G1 X96.268 Y138.566 E5.31058
G1 X96.848 Y137.923 E5.32786
G1 X98.478 Y136.011 E5.378
G1 X100.063 Y134.041 E5.42846
G1 X101.58 Y132.042 E5.47854
G1 X103.05 Y129.986 E5.52898
G1 X104.462 Y127.888 E5.57944
G1 X105.805 Y125.767 E5.62954
G1 X107.084 Y123.613 E5.67953
G1 X108.308 Y121.412 E5.72979
G1 X109.481 Y119.158 E5.7805
G1 X110.565 Y116.921 E5.83011
G1 X111.48 Y114.907 E5.87425
G1 X112.061 Y113.802 E5.89917
G1 X113.107 Y112.058 E5.93975
G1 X113.848 Y110.852 E5.968
G1 X114.398 Y110.034 E5.98767
G1 X115.089 Y109.103 E6.0108
G1 X115.859 Y108.099 E6.03605
G1 X116.357 Y107.467 E6.05211
G1 X116.968 Y106.756 E6.07082
G0 F6000 X117.272 Y107.018
G1 F1200 X117.931 Y106.375 E6.08919
G1 X118.398 Y105.982 E6.10137
G1 X119.243 Y105.312 E6.12289
G1 X120.386 Y104.436 E6.15163
G1 X120.92 Y104.039 E6.16491
G1 X121.682 Y103.523 E6.18328
G1 X122.486 Y103.074 E6.20165
G1 X123.01 Y102.828 E6.21321
G1 X123.818 Y102.476 E6.23079
G1 X125.303 Y101.86 E6.26288
G1 X125.918 Y101.614 E6.2761
G1 X126.787 Y101.31 E6.29447
G1 X127.679 Y101.082 E6.31284
G1 X128.281 Y100.973 E6.32505
G1 X129.187 Y100.837 E6.34333
G1 X130.615 Y100.648 E6.37208
G1 X131.448 Y100.55 E6.38882
G1 X132.366 Y100.483 E6.40719
G1 X133.286 Y100.495 E6.42555
G1 X133.878 Y100.546 E6.4374
G1 X134.966 Y100.671 E6.45926
G1 X136.213 Y100.835 E6.48436
G1 X137.005 Y100.949 E6.50033
G1 X137.91 Y101.12 E6.51871
G1 X138.796 Y101.369 E6.53707
G1 X139.371 Y101.577 E6.54928
G1 X140.406 Y101.986 E6.57148
G1 X141.674 Y102.513 E6.59889
G1 X142.335 Y102.798 E6.61325
G1 X143.164 Y103.199 E6.63163
G1 X144.304 Y103.91 E6.65844
G1 X146.027 Y105.142 E6.70071
G1 X148.152 Y106.578 E6.75189
G1 X150.262 Y107.919 E6.80178
G1 X152.457 Y109.23 E6.85281
G1 X153.566 Y109.873 E6.87839
G1 X154.342 Y110.369 E6.89677
G1 X155.257 Y111.091 E6.92003
G1 X157.611 Y113.118 E6.98202
G1 X159.555 Y114.69 E7.03191
G1 X161.556 Y116.219 E7.08217
G1 X163.628 Y117.71 E7.13311
G1 X165.708 Y119.12 E7.18326
G1 X167.863 Y120.494 E7.23426
G1 X170 Y121.772 E7.28395
G1 X172.237 Y123.025 E7.33512
G1 X174.464 Y124.192 E7.38529
G1 X176.709 Y125.288 E7.43515
G1 X179.029 Y126.341 E7.48599
G1 X181.408 Y127.339 E7.53747
G1 X183.734 Y128.24 E7.58725
G1 X186.1 Y129.081 E7.63736
G1 X188.515 Y129.861 E7.68801
G1 X190.933 Y130.569 E7.73829
G1 X194.001 Y131.366 E7.80155
G1 X194.881 Y131.636 E7.81991
G1 X195.734 Y131.981 E7.83828
G1 X196.554 Y132.4 E7.85665
G1 X197.335 Y132.887 E7.87502
G1 X198.071 Y133.441 E7.8934
G1 X198.69 Y133.993 E7.90996
G1 X199.226 Y134.512 E7.92484
G1 X203.257 Y138.554 E8.03876
G1 X203.853 Y139.168 E8.05584
G1 X204.464 Y139.857 E8.07422
G1 X205.013 Y140.596 E8.09259
G1 X205.496 Y141.38 E8.11097
G1 X205.908 Y142.202 E8.12931
G1 X206.248 Y143.058 E8.14769
G1 X206.513 Y143.94 E8.16607
G1 X206.7 Y144.841 E8.18444
G1 X206.808 Y145.756 E8.20282
G1 X206.835 Y146.352 E8.21473
G1 X206.846 Y147.061 E8.22888
G1 X206.837 Y152.945 E8.3463
G1 X206.826 Y153.647 E8.36031
G1 X206.771 Y154.566 E8.37869
G1 X206.637 Y155.477 E8.39706
G1 X206.425 Y156.373 E8.41543
G1 X206.136 Y157.247 E8.43381
G1 X205.771 Y158.092 E8.45217
G1 X205.335 Y158.903 E8.47055
G1 X204.83 Y159.673 E8.48893
G1 X204.261 Y160.396 E8.50729
G1 X203.855 Y160.841 E8.51931
G1 X203.327 Y161.385 E8.53444
G1 X199.297 Y165.403 E8.648
G1 X198.683 Y165.999 E8.66508
G1 X197.995 Y166.611 E8.68345
G1 X197.256 Y167.16 E8.70183
G1 X196.472 Y167.642 E8.72019
G1 X195.649 Y168.055 E8.73857
G1 X194.793 Y168.395 E8.75695
G1 X193.911 Y168.66 E8.77533
G1 X192.734 Y168.888 E8.79925
G1 X190.283 Y169.22 E8.84861
G1 X187.775 Y169.631 E8.89933
G1 X185.272 Y170.113 E8.9502
G1 X182.807 Y170.66 E9.00058
G1 X180.428 Y171.259 E9.04954
G1 X177.923 Y171.967 E9.10149
G1 X175.5 Y172.725 E9.15215
G1 X173.12 Y173.545 E9.20239
G1 X170.796 Y174.42 E9.25195
G1 X168.424 Y175.391 E9.30309
G1 X166.107 Y176.417 E9.35366
G1 X163.823 Y177.505 E9.40415
G1 X162.526 Y178.161 E9.43316
G1 X161.687 Y178.54 E9.45153
G1 X160.951 Y178.805 E9.46714
G1 X160.344 Y178.998 E9.47985
G1 X157.725 Y179.795 E9.53448
G1 X156.861 Y180.045 E9.55243
G1 X155.966 Y180.261 E9.5708
G1 X155.102 Y180.394 E9.58825
G1 X154.312 Y180.481 E9.60411
G1 X151.574 Y180.75 E9.65901
G1 X150.904 Y180.807 E9.67243
G1 X149.984 Y180.845 E9.69081
G1 X149.123 Y180.808 E9.708
G1 X148.28 Y180.737 E9.72489
G1 X145.738 Y180.486 E9.77586
G1 X144.841 Y180.384 E9.79388
G1 X143.932 Y180.24 E9.81224
G1 X143.1 Y180.036 E9.82934
G1 X142.495 Y179.861 E9.84191
G1 X139.682 Y179.006 E9.90058
G1 X139.055 Y178.806 E9.91371
G1 X138.191 Y178.488 E9.93209
G1 X137.54 Y178.19 E9.94637
G1 X135.241 Y177.042 E9.99765
G1 X132.932 Y175.967 E10.04848
G1 X130.623 Y174.97 E10.09867
G1 X128.282 Y174.036 E10.14897
G1 X125.896 Y173.163 E10.19967
G1 X123.492 Y172.359 E10.25026
G1 X121.095 Y171.632 E10.30025
G1 X118.644 Y170.963 E10.35095
G1 X116.139 Y170.356 E10.40238
G1 X113.735 Y169.845 E10.45143
G1 X111.257 Y169.39 E10.50171
G1 X107.229 Y168.799 E10.58295
G1 X106.325 Y168.626 E10.60132
G1 X105.439 Y168.375 E10.6197
G1 X104.579 Y168.048 E10.63806
G1 X103.749 Y167.648 E10.65644
G1 X102.958 Y167.177 E10.67482
G1 X102.211 Y166.639 E10.69319
G1 X101.438 Y165.968 E10.71361
G1 X101.087 Y165.632 E10.72331
G1 X96.755 Y161.316 E10.84534
G1 X96.279 Y160.825 E10.85899
G1 X95.668 Y160.137 E10.87735
G1 X95.118 Y159.398 E10.89574
G1 X94.635 Y158.615 E10.9141
G1 X94.221 Y157.792 E10.93248
G1 X93.881 Y156.937 E10.95084
G1 X93.616 Y156.055 E10.96922
G1 X93.428 Y155.154 E10.98759
G1 X93.32 Y154.24 E11.00596
G1 X93.292 Y153.65 E11.01774
G1 X93.279 Y152.884 E11.03303
G1 X93.273 Y147.251 E11.14545
G1 X93.283 Y146.427 E11.16189
G1 X93.335 Y145.508 E11.18026
G1 X93.467 Y144.597 E11.19863
G1 X93.678 Y143.7 E11.21702
G1 X93.965 Y142.826 E11.23538
G1 X94.327 Y141.979 E11.25376
G1 X94.762 Y141.167 E11.27214
G1 X95.265 Y140.396 E11.29051
G1 X95.907 Y139.586 E11.31114
G1 X96.569 Y138.83 E11.33119
G1 X97.133 Y138.204 E11.34801
G1 X98.81 Y136.238 E11.39957
G1 X100.378 Y134.288 E11.44951
G1 X101.909 Y132.271 E11.50004
G1 X103.364 Y130.236 E11.54997
G1 X104.799 Y128.103 E11.60127
G1 X106.154 Y125.964 E11.6518
G1 X107.426 Y123.821 E11.70153
G1 X108.655 Y121.612 E11.75198
G1 X109.838 Y119.337 E11.80315
G1 X110.93 Y117.082 E11.85315
G1 X111.844 Y115.073 E11.89719
G1 X112.404 Y114.008 E11.92121
G1 X113.45 Y112.264 E11.96179
G1 X114.189 Y111.06 E11.98998
G1 X114.72 Y110.272 E12.00894
G1 X115.407 Y109.346 E12.03195
G1 X116.177 Y108.342 E12.0572
G1 X116.671 Y107.715 E12.07313
G1 X117.272 Y107.018 E12.0915
G0 F6000 X117.575 Y107.279
G1 F1200 X118.223 Y106.651 E12.10951
G1 X118.646 Y106.295 E12.12054
G1 X119.352 Y105.734 E12.13854
G1 X120.624 Y104.757 E12.17054
G1 X121.158 Y104.36 E12.18382
G1 X121.906 Y103.854 E12.20184
G1 X122.696 Y103.416 E12.21987
G1 X123.17 Y103.195 E12.23031
G1 X124.149 Y102.77 E12.25161
G1 X125.337 Y102.278 E12.27727
G1 X126.067 Y101.986 E12.29296
G1 X126.919 Y101.688 E12.31097
G1 X127.795 Y101.466 E12.329
G1 X128.341 Y101.369 E12.34007
G1 X129.433 Y101.207 E12.3621
G1 X130.81 Y101.027 E12.38981
G1 X131.494 Y100.947 E12.40356
G1 X132.395 Y100.882 E12.42158
G1 X133.298 Y100.897 E12.43961
G1 X133.832 Y100.943 E12.4503
G1 X134.737 Y101.046 E12.46848
G1 X136.291 Y101.25 E12.49976
G1 X136.948 Y101.345 E12.51301
G1 X137.835 Y101.514 E12.53102
G1 X138.704 Y101.76 E12.54905
G1 X139.225 Y101.949 E12.56011
G1 X140.252 Y102.355 E12.58215
G1 X141.385 Y102.825 E12.60662
G1 X142.176 Y103.166 E12.62381
G1 X142.989 Y103.559 E12.64183
G1 X144.072 Y104.236 E12.66732
G1 X145.81 Y105.479 E12.70996
G1 X147.91 Y106.898 E12.76054
G1 X150.074 Y108.273 E12.81171
G1 X152.233 Y109.562 E12.86189
G1 X153.365 Y110.219 E12.88801
G1 X154.126 Y110.706 E12.90604
G1 X154.993 Y111.391 E12.92809
G1 X155.357 Y111.712 E12.93777
G1 X157.345 Y113.417 E12.99004
G1 X159.307 Y115.004 E13.0404
G1 X161.325 Y116.546 E13.09108
G1 X163.409 Y118.045 E13.14231
G1 X165.473 Y119.445 E13.19208
G1 X167.649 Y120.831 E13.24356
G1 X169.806 Y122.121 E13.29372
G1 X172.035 Y123.371 E13.34472
G1 X174.283 Y124.548 E13.39536
G1 X176.576 Y125.668 E13.44628
G1 X178.859 Y126.704 E13.49631
G1 X181.245 Y127.705 E13.54795
G1 X183.604 Y128.618 E13.59843
G1 X185.98 Y129.463 E13.64875
G1 X188.385 Y130.24 E13.69919
G1 X190.825 Y130.954 E13.74993
G1 X193.9 Y131.753 E13.81333
G1 X194.763 Y132.019 E13.83135
G1 X195.599 Y132.36 E13.84937
G1 X196.402 Y132.773 E13.86739
G1 X197.165 Y133.256 E13.88541
G1 X197.883 Y133.805 E13.90345
G1 X198.412 Y134.281 E13.91765
G1 X198.942 Y134.794 E13.93237
G1 X202.973 Y138.836 E14.04629
G1 X203.565 Y139.446 E14.06325
G1 X204.164 Y140.122 E14.08127
G1 X204.701 Y140.849 E14.09931
G1 X205.171 Y141.62 E14.11733
G1 X205.571 Y142.429 E14.13534
G1 X205.899 Y143.271 E14.15337
G1 X206.15 Y144.138 E14.17139
G1 X206.324 Y145.025 E14.18942
G1 X206.435 Y146.359 E14.21614
G1 X206.446 Y147.06 E14.23013
G1 X206.437 Y152.939 E14.34745
G1 X206.426 Y153.641 E14.36146
G1 X206.372 Y154.542 E14.37947
G1 X206.238 Y155.435 E14.39749
G1 X206.026 Y156.313 E14.41552
G1 X205.737 Y157.169 E14.43355
G1 X205.373 Y157.996 E14.45158
G1 X204.938 Y158.787 E14.4696
G1 X204.435 Y159.537 E14.48762
G1 X203.567 Y160.563 E14.51444
G1 X203.045 Y161.102 E14.52941
G1 X199.015 Y165.12 E14.64298
G1 X198.405 Y165.712 E14.65994
G1 X197.729 Y166.311 E14.67796
G1 X197.003 Y166.848 E14.69598
G1 X196.232 Y167.318 E14.714
G1 X195.422 Y167.718 E14.73203
G1 X194.58 Y168.045 E14.75006
G1 X193.713 Y168.297 E14.76808
G1 X192.68 Y168.492 E14.78905
G1 X190.201 Y168.828 E14.83898
G1 X187.706 Y169.237 E14.88943
G1 X185.223 Y169.715 E14.93989
G1 X182.721 Y170.27 E14.99104
G1 X180.294 Y170.881 E15.04098
G1 X177.8 Y171.586 E15.0927
G1 X175.398 Y172.338 E15.14293
G1 X172.986 Y173.169 E15.19384
G1 X170.639 Y174.052 E15.24388
G1 X168.259 Y175.026 E15.2952
G1 X165.952 Y176.048 E15.34556
G1 X163.632 Y177.153 E15.39684
G1 X162.345 Y177.804 E15.42562
G1 X161.522 Y178.176 E15.44364
G1 X160.83 Y178.423 E15.45831
G1 X160.1 Y178.655 E15.47359
G1 X157.608 Y179.413 E15.52557
G1 X156.75 Y179.661 E15.5434
G1 X155.872 Y179.872 E15.56142
G1 X155.058 Y179.996 E15.57785
