;FLAVOR:Marlin
;TIME:6823
;Filament used: 2.43853m
;Layer height: 0.12
;MINX:99.515
;MINY:116.507
;MINZ:0.12
;MAXX:200.485
;MAXY:183.482
;MAXZ:6.96
;Generated with Cura_SteamEngine 5.2.2
M140 S60
M105
M190 S60
M104 S200
M105
M109 S200
M82 ;absolute extrusion mode
; Ender 3 Max Custom Start G-code
G92 E0 ; Reset Extruder
G28 ; Home all axes
G1 Z2.0 F3000 ; Move Z Axis up little to prevent scratching of Heat Bed
G1 X0.1 Y20 Z0.3 F5000.0 ; Move to start position
G1 X0.1 Y200.0 Z0.3 F1500.0 E15 ; Draw the first line
G1 X0.4 Y200.0 Z0.3 F5000.0 ; Move to side a little
G1 X0.4 Y20 Z0.3 F1500.0 E30 ; Draw the second line
G92 E0 ; Reset Extruder
G1 Z2.0 F3000 ; Move Z Axis up little to prevent scratching of Heat Bed
G1 X5 Y20 Z0.3 F5000.0 ; Move over to prevent blob squish
G92 E0
G92 E0
G1 F1500 E-6.5
;LAYER_COUNT:58
;LAYER:0
M107
G0 F6000 X106.826 Y127.54 Z0.12
;TYPE:SKIRT
G1 F1500 E0
G1 F1200 X107.576 Y126.977 E0.01871
G1 X108.649 Y126.328 E0.04374
G1 X109.482 Y125.888 E0.06254
G1 X110.417 Y125.412 E0.08348
G1 X111.171 Y125.041 E0.10025
G1 X112.029 Y124.663 E0.11896
G1 X112.917 Y124.36 E0.13768
G1 X114.141 Y124.074 E0.16277
G1 X115.052 Y123.916 E0.18122
G1 X115.977 Y123.769 E0.19991
G1 X118.443 Y123.342 E0.24985
G1 X120.936 Y122.837 E0.30061
G1 X123.4 Y122.264 E0.3511
G1 X125.806 Y121.633 E0.40074
G1 X128.231 Y120.925 E0.45115
G1 X130.641 Y120.144 E0.50171
G1 X133.004 Y119.305 E0.55175
G1 X135.364 Y118.392 E0.60224
G1 X137.789 Y117.375 E0.65472
G1 X138.668 Y117.049 E0.67343
G1 X139.572 Y116.8 E0.69214
G1 X140.495 Y116.628 E0.71088
G1 X141.837 Y116.521 E0.73774
G1 X142.686 Y116.507 E0.75469
G1 X157.424 Y116.508 E1.0488
G1 X158.131 Y116.519 E1.06291
G1 X159.067 Y116.574 E1.08162
G1 X159.996 Y116.708 E1.10036
G1 X160.909 Y116.921 E1.11906
G1 X162.209 Y117.372 E1.14652
G1 X164.804 Y118.459 E1.20267
G1 X167.171 Y119.37 E1.25328
G1 X169.527 Y120.201 E1.30314
G1 X171.92 Y120.97 E1.3533
G1 X174.343 Y121.675 E1.40366
G1 X176.779 Y122.308 E1.45389
G1 X179.22 Y122.87 E1.50387
G1 X181.732 Y123.374 E1.555
G1 X184.103 Y123.782 E1.60301
G1 X185.162 Y123.951 E1.62441
G1 X185.842 Y124.069 E1.63819
G1 X186.758 Y124.269 E1.6569
G1 X187.654 Y124.546 E1.67561
G1 X188.798 Y125.028 E1.70039
G1 X189.628 Y125.435 E1.71883
G1 X190.69 Y125.977 E1.74263
G1 X191.315 Y126.306 E1.75672
G1 X192.125 Y126.778 E1.77543
G1 X192.893 Y127.317 E1.79416
G1 X193.854 Y128.148 E1.81951
G1 X194.404 Y128.682 E1.83481
G1 X195.375 Y129.653 E1.86221
G1 X195.842 Y130.133 E1.87558
G1 X196.467 Y130.833 E1.8943
G1 X197.03 Y131.583 E1.91302
G1 X197.677 Y132.652 E1.93795
G1 X198.012 Y133.284 E1.95223
G1 X198.656 Y134.547 E1.98052
G1 X198.96 Y135.163 E1.99423
G1 X199.339 Y136.021 E2.01295
G1 X199.643 Y136.908 E2.03166
G1 X199.933 Y138.145 E2.05701
G1 X200.09 Y139.053 E2.0754
G1 X200.278 Y140.244 E2.09946
G1 X200.377 Y140.932 E2.11334
G1 X200.471 Y141.865 E2.13205
G1 X200.485 Y142.803 E2.15077
G1 X200.379 Y144.049 E2.17572
G1 X200.241 Y145.009 E2.19508
G1 X200.056 Y146.167 E2.21848
G1 X199.94 Y146.839 E2.23209
G1 X199.741 Y147.756 E2.25082
G1 X199.465 Y148.652 E2.26953
G1 X198.978 Y149.807 E2.29454
G1 X198.565 Y150.648 E2.31324
G1 X198.103 Y151.556 E2.33357
G1 X197.346 Y152.993 E2.36598
G1 X196.153 Y155.334 E2.41841
G1 X195.074 Y157.608 E2.46864
G1 X194.075 Y159.881 E2.51819
G1 X193.108 Y162.255 E2.56935
G1 X192.232 Y164.595 E2.61921
G1 X191.424 Y166.958 E2.66905
G1 X190.666 Y169.395 E2.71998
G1 X189.99 Y171.805 E2.76993
G1 X189.363 Y174.315 E2.82156
G1 X189.191 Y175.034 E2.83631
G1 X188.934 Y175.936 E2.85503
G1 X188.601 Y176.813 E2.87375
G1 X188.195 Y177.658 E2.89246
G1 X187.718 Y178.466 E2.91118
G1 X187.175 Y179.23 E2.92989
G1 X186.568 Y179.945 E2.9486
G1 X185.902 Y180.606 E2.96733
G1 X185.182 Y181.207 E2.98604
G1 X184.414 Y181.745 E3.00476
G1 X183.603 Y182.216 E3.02347
G1 X182.755 Y182.616 E3.04218
G1 X181.875 Y182.942 E3.06091
G1 X180.971 Y183.192 E3.07963
G1 X180.049 Y183.364 E3.09835
G1 X179.116 Y183.457 E3.11706
G1 X178.178 Y183.471 E3.13578
G1 X177.266 Y183.406 E3.15402
G1 X176.132 Y183.278 E3.1768
G1 X175.543 Y183.203 E3.18865
G1 X173.079 Y182.959 E3.23806
G1 X170.527 Y182.779 E3.28911
G1 X168.042 Y182.674 E3.33875
G1 X165.519 Y182.639 E3.3891
G1 X162.995 Y182.676 E3.43948
G1 X160.464 Y182.784 E3.49003
G1 X158 Y182.959 E3.53933
G1 X155.387 Y183.22 E3.59173
G1 X153.781 Y183.408 E3.624
G1 X152.845 Y183.478 E3.64273
G1 X152.368 Y183.482 E3.65225
G1 X149.683 Y183.45 E3.70584
G1 X148.162 Y183.475 E3.73619
G1 X147.475 Y183.475 E3.7499
G1 X146.275 Y183.407 E3.77389
G1 X145.193 Y183.286 E3.79562
G1 X144.425 Y183.19 E3.81106
G1 X141.914 Y182.944 E3.86141
G1 X139.401 Y182.771 E3.91168
G1 X136.871 Y182.667 E3.96221
G1 X134.39 Y182.636 E4.01173
G1 X131.831 Y182.677 E4.0628
G1 X129.333 Y182.787 E4.1127
G1 X126.826 Y182.969 E4.16286
G1 X124.261 Y183.228 E4.21431
G1 X122.789 Y183.4 E4.24388
G1 X121.853 Y183.47 E4.26262
G1 X120.915 Y183.459 E4.28134
G1 X119.982 Y183.368 E4.30004
G1 X119.06 Y183.199 E4.31875
G1 X118.155 Y182.951 E4.33747
G1 X117.275 Y182.627 E4.35619
G1 X116.425 Y182.23 E4.37491
G1 X115.613 Y181.761 E4.39362
G1 X114.843 Y181.225 E4.41235
G1 X114.122 Y180.626 E4.43105
G1 X113.455 Y179.967 E4.44976
G1 X112.846 Y179.253 E4.46849
G1 X112.3 Y178.491 E4.4872
G1 X111.821 Y177.685 E4.50591
G1 X111.412 Y176.84 E4.52464
G1 X111.077 Y175.964 E4.54336
G1 X110.831 Y175.117 E4.56096
G1 X110.606 Y174.204 E4.57973
G1 X110.34 Y173.068 E4.60301
G1 X109.692 Y170.621 E4.65353
G1 X108.972 Y168.184 E4.70424
G1 X108.201 Y165.82 E4.75386
G1 X107.35 Y163.442 E4.80426
G1 X106.443 Y161.117 E4.85406
G1 X105.449 Y158.768 E4.90497
G1 X104.404 Y156.48 E4.95516
G1 X103.285 Y154.203 E5.00579
G1 X102.617 Y152.915 E5.03475
G1 X101.861 Y151.486 E5.06701
G1 X101.404 Y150.588 E5.08712
G1 X101.037 Y149.844 E5.10367
G1 X100.658 Y148.985 E5.12241
G1 X100.355 Y148.098 E5.14111
G1 X100.067 Y146.87 E5.16629
G1 X99.937 Y146.124 E5.1814
G1 X99.722 Y144.77 E5.20876
G1 X99.623 Y144.082 E5.22263
G1 X99.529 Y143.149 E5.24134
G1 X99.515 Y142.211 E5.26006
G1 X99.621 Y140.965 E5.28502
G1 X99.759 Y140.005 E5.30437
G1 X99.944 Y138.847 E5.32777
G1 X100.06 Y138.175 E5.34138
G1 X100.259 Y137.258 E5.36011
G1 X100.535 Y136.362 E5.37882
G1 X101.022 Y135.207 E5.40383
G1 X101.439 Y134.358 E5.42271
G1 X101.907 Y133.44 E5.44327
G1 X102.297 Y132.697 E5.46002
G1 X102.768 Y131.886 E5.47873
G1 X103.307 Y131.118 E5.49746
G1 X104.142 Y130.152 E5.52294
G1 X104.681 Y129.597 E5.53838
G1 X105.646 Y128.632 E5.56561
G1 X106.126 Y128.165 E5.57898
G1 X106.826 Y127.54 E5.5977
G0 F6000 X107.092 Y127.839
G1 F1200 X107.83 Y127.288 E5.61608
G1 X108.836 Y126.682 E5.63952
G1 X109.664 Y126.245 E5.6582
G1 X110.729 Y125.703 E5.68205
G1 X111.347 Y125.399 E5.69579
G1 X112.19 Y125.029 E5.71417
G1 X113.062 Y124.734 E5.73254
G1 X114.209 Y124.468 E5.75603
G1 X114.962 Y124.337 E5.77129
G1 X115.972 Y124.176 E5.7917
G1 X118.525 Y123.733 E5.84341
G1 X120.994 Y123.234 E5.89367
G1 X123.486 Y122.654 E5.94473
G1 X125.957 Y122.006 E5.99571
G1 X128.362 Y121.303 E6.04572
G1 X130.751 Y120.53 E6.09582
G1 X133.146 Y119.679 E6.14655
G1 X135.482 Y118.775 E6.19653
G1 X137.943 Y117.743 E6.24979
G1 X138.807 Y117.425 E6.26816
G1 X139.695 Y117.182 E6.28653
G1 X140.601 Y117.017 E6.30491
G1 X141.845 Y116.921 E6.32981
G1 X142.686 Y116.907 E6.3466
G1 X157.418 Y116.908 E6.64059
G1 X158.125 Y116.919 E6.6547
G1 X159.044 Y116.974 E6.67307
G1 X159.955 Y117.107 E6.69144
G1 X160.851 Y117.32 E6.70982
G1 X162.054 Y117.741 E6.73526
G1 X164.642 Y118.825 E6.79125
G1 X167.031 Y119.744 E6.84233
G1 X169.409 Y120.583 E6.89266
G1 X171.801 Y121.352 E6.9428
G1 X174.227 Y122.057 E6.99321
G1 X176.702 Y122.701 E7.04425
G1 X179.117 Y123.257 E7.0937
G1 X181.664 Y123.767 E7.14554
G1 X184.049 Y124.179 E7.19384
G1 X185.093 Y124.345 E7.21494
G1 X185.773 Y124.463 E7.22871
G1 X186.673 Y124.66 E7.2471
G1 X187.552 Y124.934 E7.26547
G1 X188.622 Y125.387 E7.28866
G1 X189.446 Y125.792 E7.30698
G1 X190.504 Y126.331 E7.33068
G1 X191.129 Y126.66 E7.34477
G1 X191.924 Y127.124 E7.36314
G1 X192.676 Y127.655 E7.38151
G1 X193.575 Y128.435 E7.40526
G1 X194.125 Y128.969 E7.42056
G1 X195.089 Y129.932 E7.44775
G1 X195.556 Y130.412 E7.46112
G1 X196.168 Y131.099 E7.47948
G1 X196.719 Y131.837 E7.49786
G1 X197.324 Y132.84 E7.52123
G1 X197.737 Y133.622 E7.53888
G1 X198.236 Y134.601 E7.56081
G1 X198.601 Y135.34 E7.57726
G1 X198.973 Y136.182 E7.59563
G1 X199.269 Y137.054 E7.61401
G1 X199.539 Y138.214 E7.63777
G1 X199.695 Y139.116 E7.65604
G1 X199.882 Y140.301 E7.67998
G1 X199.981 Y140.989 E7.69385
G1 X200.072 Y141.905 E7.71222
G1 X200.084 Y142.826 E7.7306
G1 X199.983 Y143.992 E7.75396
G1 X199.846 Y144.946 E7.77319
G1 X199.662 Y146.099 E7.79649
G1 X199.546 Y146.771 E7.8101
G1 X199.35 Y147.671 E7.82848
G1 X199.076 Y148.55 E7.84686
G1 X198.619 Y149.631 E7.87028
G1 X198.28 Y150.323 E7.88566
G1 X197.674 Y151.515 E7.91234
G1 X196.977 Y152.835 E7.94213
G1 X195.8 Y155.146 E7.99389
G1 X194.705 Y157.455 E8.04488
G1 X193.696 Y159.749 E8.09489
G1 X192.738 Y162.102 E8.14559
G1 X191.862 Y164.442 E8.19546
G1 X191.039 Y166.846 E8.24616
G1 X190.284 Y169.273 E8.29689
G1 X189.598 Y171.722 E8.34764
G1 X188.974 Y174.222 E8.39906
G1 X188.802 Y174.941 E8.41381
G1 X188.549 Y175.826 E8.43218
G1 X188.221 Y176.686 E8.45055
G1 X187.818 Y177.515 E8.46895
G1 X187.346 Y178.305 E8.48731
G1 X186.807 Y179.051 E8.50568
G1 X186.205 Y179.748 E8.52406
G1 X185.545 Y180.389 E8.54242
G1 X184.831 Y180.971 E8.5608
G1 X184.07 Y181.489 E8.57917
G1 X183.267 Y181.939 E8.59754
G1 X182.428 Y182.318 E8.61591
G1 X181.559 Y182.622 E8.63428
G1 X180.667 Y182.85 E8.65266
G1 X179.758 Y182.999 E8.67104
G1 X178.84 Y183.069 E8.68941
G1 X177.92 Y183.059 E8.70777
G1 X177.311 Y183.009 E8.71997
G1 X176.34 Y182.9 E8.73947
G1 X175.593 Y182.806 E8.75449
G1 X173.112 Y182.56 E8.80425
G1 X170.573 Y182.381 E8.85504
G1 X168.029 Y182.274 E8.90585
G1 X165.519 Y182.239 E8.95595
G1 X162.972 Y182.276 E9.00678
G1 X160.455 Y182.384 E9.05706
G1 X157.968 Y182.56 E9.10681
G1 X155.351 Y182.821 E9.1593
G1 X153.734 Y183.011 E9.19179
G1 X152.373 Y183.082 E9.21898
G1 X149.681 Y183.05 E9.27271
G1 X148.155 Y183.075 E9.30317
G1 X147.476 Y183.075 E9.31672
G1 X146.32 Y183.009 E9.33982
G1 X145.086 Y182.87 E9.36461
G1 X144.478 Y182.793 E9.37684
G1 X141.944 Y182.546 E9.42764
G1 X139.411 Y182.37 E9.47831
G1 X136.892 Y182.267 E9.52863
G1 X134.389 Y182.236 E9.57858
G1 X131.841 Y182.277 E9.62943
G1 X129.289 Y182.39 E9.68041
G1 X126.791 Y182.57 E9.73039
G1 X124.232 Y182.829 E9.78172
G1 X122.742 Y183.003 E9.81166
G1 X121.824 Y183.07 E9.83003
G1 X120.903 Y183.058 E9.84841
G1 X119.987 Y182.965 E9.86678
G1 X119.083 Y182.794 E9.88514
G1 X118.197 Y182.544 E9.90351
G1 X117.335 Y182.219 E9.9219
G1 X116.506 Y181.82 E9.94026
G1 X115.714 Y181.35 E9.95863
G1 X114.965 Y180.814 E9.97701
G1 X114.266 Y180.215 E9.99539
G1 X113.622 Y179.557 E10.01376
G1 X113.037 Y178.846 E10.03213
G1 X112.516 Y178.087 E10.0505
G1 X112.063 Y177.285 E10.06889
G1 X111.682 Y176.448 E10.08724
G1 X111.374 Y175.58 E10.10562
G1 X111.219 Y175.021 E10.11719
G1 X110.995 Y174.112 E10.13588
G1 X110.723 Y172.955 E10.1596
G1 X110.077 Y170.511 E10.21004
G1 X109.36 Y168.084 E10.26055
G1 X108.582 Y165.698 E10.31063
G1 X107.727 Y163.31 E10.36125
G1 X106.807 Y160.952 E10.41176
G1 X105.81 Y158.595 E10.46283
G1 X104.769 Y156.317 E10.51281
G1 X103.642 Y154.021 E10.56385
G1 X103.011 Y152.806 E10.59117
G1 X102.218 Y151.305 E10.62505
G1 X101.699 Y150.284 E10.64791
G1 X101.395 Y149.667 E10.66163
G1 X101.025 Y148.824 E10.68001
G1 X100.729 Y147.952 E10.69838
G1 X100.461 Y146.802 E10.72195
G1 X100.331 Y146.056 E10.73706
G1 X100.141 Y144.865 E10.76113
G1 X100.019 Y144.025 E10.77807
G1 X99.928 Y143.109 E10.79644
G1 X99.916 Y142.188 E10.81482
G1 X100.017 Y141.022 E10.83817
G1 X100.154 Y140.068 E10.85741
G1 X100.338 Y138.915 E10.88071
G1 X100.454 Y138.243 E10.89432
G1 X100.65 Y137.343 E10.9127
G1 X100.924 Y136.464 E10.93107
G1 X101.381 Y135.383 E10.95449
G1 X101.795 Y134.54 E10.97323
G1 X102.263 Y133.622 E10.9938
G1 X102.651 Y132.883 E11.01045
G1 X103.114 Y132.087 E11.02883
G1 X103.645 Y131.335 E11.0472
G1 X104.429 Y130.431 E11.07108
G1 X104.968 Y129.876 E11.08652
G1 X105.925 Y128.918 E11.11354
G1 X106.405 Y128.451 E11.12691
G1 X107.092 Y127.839 E11.14527
G0 F6000 X107.359 Y128.138
G1 F1200 X108.084 Y127.599 E11.1633
G1 X109.023 Y127.035 E11.18516
G1 X109.845 Y126.601 E11.20371
G1 X110.906 Y126.062 E11.22746
G1 X111.524 Y125.758 E11.2412
G1 X112.351 Y125.396 E11.25922
G1 X113.207 Y125.108 E11.27724
G1 X114.278 Y124.862 E11.29917
G1 X115.031 Y124.731 E11.31442
G1 X116.026 Y124.572 E11.33453
G1 X118.601 Y124.126 E11.38668
G1 X121.099 Y123.621 E11.43754
G1 X123.564 Y123.047 E11.48805
G1 X126.066 Y122.391 E11.53967
G1 X128.46 Y121.691 E11.58944
G1 X130.903 Y120.9 E11.64069
G1 X133.276 Y120.057 E11.69094
G1 X135.634 Y119.145 E11.74139
G1 X138.098 Y118.112 E11.79471
G1 X138.946 Y117.8 E11.81274
G1 X139.817 Y117.565 E11.83075
G1 X140.707 Y117.407 E11.84879
G1 X141.852 Y117.321 E11.8717
G1 X142.686 Y117.307 E11.88835
G1 X157.412 Y117.308 E12.18222
G1 X158.119 Y117.319 E12.19633
G1 X159.02 Y117.373 E12.21434
G1 X159.913 Y117.507 E12.23236
G1 X160.791 Y117.719 E12.25039
G1 X161.9 Y118.11 E12.27385
G1 X164.492 Y119.195 E12.32993
G1 X166.921 Y120.131 E12.38188
G1 X169.258 Y120.955 E12.43133
G1 X171.682 Y121.734 E12.48214
G1 X174.119 Y122.443 E12.53279
G1 X176.583 Y123.083 E12.58359
G1 X179.086 Y123.66 E12.63485
G1 X181.552 Y124.154 E12.68504
G1 X183.985 Y124.573 E12.73431
G1 X185.025 Y124.739 E12.75533
G1 X185.705 Y124.857 E12.7691
G1 X186.587 Y125.051 E12.78712
G1 X187.449 Y125.322 E12.80515
G1 X188.447 Y125.746 E12.82679
G1 X189.265 Y126.148 E12.84498
G1 X190.194 Y126.621 E12.86578
G1 X190.942 Y127.014 E12.88265
G1 X191.722 Y127.47 E12.90068
G1 X192.458 Y127.993 E12.9187
G1 X193.296 Y128.722 E12.94086
G1 X193.846 Y129.256 E12.95616
G1 X194.802 Y130.211 E12.98313
G1 X195.269 Y130.691 E12.99649
G1 X195.869 Y131.366 E13.01451
G1 X196.408 Y132.091 E13.03254
G1 X196.97 Y133.027 E13.05433
G1 X197.381 Y133.804 E13.07187
G1 X197.939 Y134.901 E13.09643
G1 X198.243 Y135.517 E13.11014
G1 X198.606 Y136.344 E13.12816
G1 X198.895 Y137.199 E13.14617
G1 X199.145 Y138.282 E13.16835
G1 X199.3 Y139.179 E13.18652
G1 X199.464 Y140.212 E13.20739
G1 X199.585 Y141.046 E13.22421
G1 X199.674 Y141.945 E13.24224
G1 X199.683 Y142.848 E13.26026
G1 X199.587 Y143.936 E13.28206
G1 X199.451 Y144.884 E13.30117
G1 X199.289 Y145.901 E13.32172
G1 X199.151 Y146.703 E13.33796
G1 X198.958 Y147.585 E13.35598
G1 X198.688 Y148.447 E13.374
G1 X198.26 Y149.455 E13.39586
G1 X197.852 Y150.286 E13.41433
G1 X197.32 Y151.329 E13.4377
G1 X196.61 Y152.674 E13.46805
G1 X195.432 Y154.986 E13.51983
G1 X194.355 Y157.258 E13.57001
G1 X193.331 Y159.586 E13.62076
G1 X192.369 Y161.947 E13.67164
G1 X191.474 Y164.341 E13.72264
G1 X190.661 Y166.714 E13.7727
G1 X189.903 Y169.152 E13.82365
G1 X189.211 Y171.622 E13.87484
G1 X188.585 Y174.129 E13.92641
G1 X188.413 Y174.848 E13.94116
G1 X188.164 Y175.716 E13.95918
G1 X187.84 Y176.559 E13.9772
G1 X187.442 Y177.37 E13.99523
G1 X186.974 Y178.142 E14.01325
G1 X186.439 Y178.87 E14.03128
G1 X185.842 Y179.548 E14.0493
G1 X185.188 Y180.17 E14.06732
G1 X184.481 Y180.732 E14.08534
G1 X183.727 Y181.23 E14.10337
G1 X182.932 Y181.658 E14.12139
G1 X182.103 Y182.015 E14.1394
G1 X181.245 Y182.297 E14.15743
G1 X180.365 Y182.502 E14.17546
G1 X179.471 Y182.628 E14.19347
G1 X178.569 Y182.675 E14.2115
G1 X177.355 Y182.611 E14.23576
G1 X176.233 Y182.484 E14.25829
G1 X175.651 Y182.41 E14.27
G1 X173.143 Y182.161 E14.3203
G1 X170.583 Y181.98 E14.37151
G1 X168.052 Y181.874 E14.42206
G1 X165.518 Y181.839 E14.47264
G1 X162.985 Y181.876 E14.52319
G1 X160.41 Y181.986 E14.57463
G1 X157.934 Y182.162 E14.62416
G1 X155.321 Y182.422 E14.67656
G1 X153.687 Y182.614 E14.7094
G1 X152.378 Y182.682 E14.73556
G1 X149.68 Y182.65 E14.7894
G1 X148.149 Y182.675 E14.81996
G1 X147.477 Y182.675 E14.83337
G1 X146.364 Y182.612 E14.85561
G1 X145.282 Y182.491 E14.87734
G1 X144.53 Y182.396 E14.89247
G1 X141.975 Y182.147 E14.9437
G1 X139.42 Y181.97 E14.99481
G1 X136.914 Y181.867 E15.04486
G1 X134.387 Y181.836 E15.09529
G1 X131.819 Y181.877 E15.14655
