;FLAVOR:Marlin
;TIME:7025
;Filament used: 2.70764m
;Layer height: 0.16
;MINX:131.428
;MINY:98.672
;MINZ:0.2
;MAXX:167.866
;MAXY:186.81
;MAXZ:14.68
;Generated with Cura_SteamEngine 5.2.2
M140 S50
M105
M190 S50
M104 S200
M105
M109 S200
M82 ;absolute extrusion mode
; Ender 3 Max Custom Start G-code
G92 E0 ; Reset Extruder
G28 ; Home all axes
G1 Z2.0 F3000 ; Move Z Axis up little to prevent scratching of Heat Bed
G1 X0.1 Y20 Z0.3 F5000.0 ; Move to start position
G1 X0.1 Y200.0 Z0.3 F1500.0 E15 ; Draw the first line
G1 X0.4 Y200.0 Z0.3 F5000.0 ; Move to side a little
G1 X0.4 Y20 Z0.3 F1500.0 E30 ; Draw the second line
G92 E0 ; Reset Extruder
G1 Z2.0 F3000 ; Move Z Axis up little to prevent scratching of Heat Bed
G1 X5 Y20 Z0.3 F5000.0 ; Move over to prevent blob squish
G92 E0
G92 E0
G1 F1500 E-6.5
;LAYER_COUNT:89
;LAYER:0
M107
G1 F300 Z0.4
G0 F6000 X133.626 Y105.837 Z0.4
;TYPE:SKIRT
G1 F300 Z0.2
G1 F1500 E0
G1 F1200 X134.127 Y105.226 E0.02628
G1 X134.687 Y104.669 E0.05255
G1 X135.376 Y104.116 E0.08193
G1 X136.894 Y103.035 E0.14392
G1 X137.56 Y102.61 E0.17019
G1 X138.265 Y102.255 E0.19645
G1 X138.701 Y102.078 E0.2121
G1 X139.747 Y101.689 E0.24922
G1 X140.248 Y101.343 E0.26947
G1 X140.939 Y100.962 E0.29571
G1 X141.666 Y100.653 E0.32199
G1 X142.42 Y100.418 E0.34825
G1 X143.197 Y100.262 E0.37461
G1 X144.771 Y99.508 E0.43266
G1 X145.499 Y99.203 E0.45891
G1 X146.255 Y98.974 E0.48519
G1 X147.03 Y98.822 E0.51145
G1 X147.975 Y98.745 E0.54299
G1 X151.44 Y98.672 E0.65826
G1 X152.229 Y98.695 E0.68451
G1 X153.012 Y98.798 E0.71078
G1 X153.78 Y98.98 E0.73703
G1 X154.527 Y99.238 E0.76332
G1 X154.929 Y99.425 E0.77806
G1 X155.265 Y99.512 E0.78961
G1 X156.005 Y99.786 E0.81585
G1 X156.737 Y100.147 E0.843
G1 X157.064 Y100.274 E0.85467
G1 X157.946 Y100.611 E0.88607
G1 X159.316 Y101.231 E0.93609
G1 X160.018 Y101.592 E0.96234
G1 X160.742 Y102.069 E0.99118
G1 X162.874 Y103.648 E1.07942
G1 X163.484 Y104.149 E1.10567
G1 X164.04 Y104.71 E1.13194
G1 X164.731 Y105.603 E1.1695
G1 X165.68 Y107.033 E1.22658
G1 X166.083 Y107.712 E1.25284
G1 X166.415 Y108.429 E1.27912
G1 X166.673 Y109.175 E1.30538
G1 X166.879 Y110.087 E1.33648
G1 X167.082 Y111.332 E1.37843
G1 X167.399 Y112.66 E1.42384
G1 X167.542 Y113.437 E1.45012
G1 X167.607 Y114.224 E1.47638
G1 X167.586 Y115.097 E1.50543
G1 X167.556 Y115.462 E1.51761
G1 X167.649 Y115.841 E1.53059
G1 X167.797 Y116.616 E1.55683
G1 X167.866 Y117.403 E1.58311
G1 X167.855 Y118.193 E1.60939
G1 X167.764 Y118.977 E1.63564
G1 X167.488 Y120.103 E1.6742
G1 X167.225 Y120.911 E1.70246
G1 X166.943 Y121.649 E1.72873
G1 X166.588 Y122.354 E1.75499
G1 X166.163 Y123.02 E1.78127
G1 X165.673 Y123.639 E1.80752
G1 X165.123 Y124.206 E1.8338
G1 X164.383 Y124.814 E1.86565
G1 X163.585 Y125.392 E1.89842
G1 X162.923 Y125.822 E1.92468
G1 X162.221 Y126.183 E1.95093
G1 X161.486 Y126.472 E1.9772
G1 X160.725 Y126.684 E2.00348
G1 X159.947 Y126.819 E2.02974
G1 X159.168 Y126.866 E2.0557
G1 X158.918 Y127.257 E2.07113
G1 X158.358 Y127.965 E2.10116
G1 X158.685 Y128.773 E2.13015
G1 X158.905 Y129.531 E2.1564
G1 X159.047 Y130.308 E2.18267
G1 X159.092 Y130.855 E2.20092
G1 X159.583 Y130.88 E2.21728
G1 X160.363 Y130.999 E2.24352
G1 X161.128 Y131.197 E2.2698
G1 X161.868 Y131.471 E2.29605
G1 X162.577 Y131.819 E2.32232
G1 X163.248 Y132.237 E2.34861
G1 X163.872 Y132.72 E2.37486
G1 X164.445 Y133.263 E2.40111
G1 X164.96 Y133.862 E2.42739
G1 X165.411 Y134.51 E2.45364
G1 X165.795 Y135.201 E2.47994
G1 X166.107 Y135.926 E2.50619
G1 X166.344 Y136.679 E2.53245
G1 X166.503 Y137.453 E2.55873
G1 X166.584 Y138.238 E2.58497
G1 X166.594 Y138.641 E2.59838
G1 X166.593 Y145.421 E2.82389
G1 X166.553 Y146.21 E2.85016
G1 X166.433 Y146.99 E2.87641
G1 X166.235 Y147.755 E2.90269
G1 X165.961 Y148.495 E2.92894
G1 X165.613 Y149.204 E2.95521
G1 X165.196 Y149.875 E2.98148
G1 X164.769 Y150.426 E3.00467
G1 X164.622 Y150.824 E3.01878
G1 X164.274 Y151.533 E3.04505
G1 X163.856 Y152.204 E3.07134
G1 X163.373 Y152.828 E3.09759
G1 X162.83 Y153.401 E3.12384
G1 X162.231 Y153.916 E3.15012
G1 X161.583 Y154.367 E3.17638
G1 X161.026 Y154.677 E3.19758
G1 X161.068 Y154.935 E3.20627
G1 X161.117 Y155.723 E3.23253
G1 X161.087 Y156.512 E3.25879
G1 X161.045 Y156.806 E3.26867
G1 X161.868 Y157.111 E3.29786
G1 X162.577 Y157.459 E3.32413
G1 X163.248 Y157.877 E3.35043
G1 X163.872 Y158.36 E3.37667
G1 X164.445 Y158.903 E3.40293
G1 X164.96 Y159.502 E3.4292
G1 X165.411 Y160.15 E3.45546
G1 X165.795 Y160.841 E3.48175
G1 X166.107 Y161.566 E3.508
G1 X166.344 Y162.319 E3.53426
G1 X166.503 Y163.093 E3.56054
G1 X166.584 Y163.878 E3.58679
G1 X166.594 Y164.281 E3.6002
G1 X166.593 Y171.061 E3.8257
G1 X166.553 Y171.85 E3.85198
G1 X166.433 Y172.63 E3.87823
G1 X166.235 Y173.395 E3.90451
G1 X165.961 Y174.135 E3.93075
G1 X165.613 Y174.844 E3.95702
G1 X165.196 Y175.515 E3.9833
G1 X164.769 Y176.066 E4.00648
G1 X164.622 Y176.464 E4.02059
G1 X164.274 Y177.173 E4.04686
G1 X163.856 Y177.844 E4.07316
G1 X163.373 Y178.468 E4.0994
G1 X162.83 Y179.041 E4.12566
G1 X162.231 Y179.556 E4.15193
G1 X161.583 Y180.007 E4.17819
G1 X160.892 Y180.391 E4.20448
G1 X160.568 Y180.53 E4.21621
G1 X160.197 Y181.501 E4.25078
G1 X159.842 Y182.206 E4.27704
G1 X159.417 Y182.872 E4.30331
G1 X158.928 Y183.491 E4.32955
G1 X158.378 Y184.058 E4.35582
G1 X157.652 Y184.656 E4.38711
G1 X156.747 Y185.315 E4.42434
G1 X156.086 Y185.747 E4.45061
G1 X155.385 Y186.11 E4.47686
G1 X154.651 Y186.4 E4.50311
G1 X153.891 Y186.615 E4.52938
G1 X153.113 Y186.751 E4.55565
G1 X152.156 Y186.81 E4.58754
G1 X151.04 Y186.81 E4.62466
G1 X150.251 Y186.77 E4.65094
G1 X149.471 Y186.651 E4.67718
G1 X148.706 Y186.453 E4.70346
G1 X147.966 Y186.179 E4.72971
G1 X147.257 Y185.831 E4.75598
G1 X146.449 Y185.315 E4.78786
G1 X145.544 Y184.656 E4.8251
G1 X144.93 Y184.16 E4.85135
G1 X144.369 Y183.604 E4.87762
G1 X143.867 Y182.994 E4.9039
G1 X143.43 Y182.336 E4.93017
G1 X143.061 Y181.638 E4.95643
G1 X142.885 Y181.19 E4.97244
G1 X142.545 Y181.19 E4.98375
G1 X141.756 Y181.15 E5.01002
G1 X140.976 Y181.031 E5.03626
G1 X140.211 Y180.833 E5.06255
G1 X139.471 Y180.559 E5.08879
G1 X138.762 Y180.211 E5.11506
G1 X138.091 Y179.793 E5.14135
G1 X137.467 Y179.31 E5.1676
G1 X136.894 Y178.767 E5.19386
G1 X136.379 Y178.168 E5.22013
G1 X135.928 Y177.52 E5.24639
G1 X135.544 Y176.829 E5.27268
G1 X135.195 Y176.017 E5.30208
G1 X135.041 Y175.838 E5.30993
G1 X134.59 Y175.19 E5.33619
G1 X134.206 Y174.499 E5.36248
G1 X133.894 Y173.774 E5.38874
G1 X133.657 Y173.021 E5.41499
G1 X133.498 Y172.247 E5.44127
G1 X133.417 Y171.462 E5.46752
G1 X133.407 Y171.06 E5.48089
G1 X133.407 Y164.28 E5.7064
G1 X133.447 Y163.491 E5.73267
G1 X133.566 Y162.711 E5.75892
G1 X133.764 Y161.946 E5.7852
G1 X134.038 Y161.206 E5.81145
G1 X134.386 Y160.497 E5.83771
G1 X134.804 Y159.826 E5.86401
G1 X135.287 Y159.202 E5.89025
G1 X135.83 Y158.629 E5.91651
G1 X136.429 Y158.114 E5.94278
G1 X137.077 Y157.663 E5.96904
G1 X137.768 Y157.279 E5.99534
G1 X138.493 Y156.967 E6.02159
G1 X139.246 Y156.73 E6.04784
G1 X140.02 Y156.571 E6.07412
G1 X140.937 Y156.476 E6.10479
G1 X140.598 Y155.782 E6.13048
G1 X140.394 Y155.24 E6.14974
G1 X140.211 Y155.193 E6.15602
G1 X139.471 Y154.919 E6.18227
G1 X138.762 Y154.571 E6.20854
G1 X138.091 Y154.153 E6.23483
G1 X137.467 Y153.67 E6.26108
G1 X136.894 Y153.127 E6.28733
G1 X136.379 Y152.528 E6.31361
G1 X135.928 Y151.88 E6.33986
G1 X135.544 Y151.189 E6.36616
G1 X135.195 Y150.377 E6.39555
G1 X135.041 Y150.198 E6.40341
G1 X134.59 Y149.55 E6.42967
G1 X134.206 Y148.859 E6.45596
G1 X133.894 Y148.134 E6.48221
G1 X133.657 Y147.381 E6.50847
G1 X133.498 Y146.607 E6.53475
G1 X133.417 Y145.822 E6.561
G1 X133.407 Y145.42 E6.57437
G1 X133.407 Y138.64 E6.79987
G1 X133.447 Y137.851 E6.82615
G1 X133.566 Y137.071 E6.85239
G1 X133.764 Y136.306 E6.87868
G1 X134.038 Y135.566 E6.90492
G1 X134.386 Y134.857 E6.93119
G1 X134.804 Y134.186 E6.95748
G1 X135.287 Y133.562 E6.98373
G1 X135.83 Y132.989 E7.00998
G1 X136.429 Y132.474 E7.03626
G1 X137.077 Y132.023 E7.06252
G1 X137.768 Y131.639 E7.08881
G1 X138.493 Y131.327 E7.11506
G1 X139.246 Y131.09 E7.14132
G1 X140.02 Y130.931 E7.1676
G1 X140.918 Y130.838 E7.19763
G1 X140.948 Y130.746 E7.20085
G1 X140.436 Y130.556 E7.21901
G1 X139.727 Y130.208 E7.24528
G1 X138.924 Y129.697 E7.27693
G1 X138.236 Y129.197 E7.30522
G1 X137.622 Y128.701 E7.33148
G1 X137.061 Y128.145 E7.35775
G1 X136.559 Y127.536 E7.384
G1 X136.121 Y126.879 E7.41026
G1 X135.751 Y126.181 E7.43653
G1 X135.617 Y125.866 E7.44792
G1 X135.199 Y125.452 E7.46749
G1 X134.698 Y124.842 E7.49374
G1 X134.261 Y124.184 E7.52001
G1 X133.892 Y123.486 E7.54627
G1 X133.563 Y122.654 E7.57603
G1 X132.612 Y119.783 E7.67662
G1 X132.402 Y119.021 E7.70291
G1 X132.27 Y118.243 E7.72916
G1 X132.217 Y117.455 E7.75543
G1 X132.244 Y116.666 E7.78168
G1 X132.289 Y116.38 E7.79131
G1 X131.778 Y114.731 E7.84873
G1 X131.583 Y113.966 E7.87499
G1 X131.466 Y113.185 E7.90126
G1 X131.428 Y112.396 E7.92753
G1 X131.471 Y111.608 E7.95378
G1 X131.593 Y110.827 E7.98007
G1 X131.854 Y109.877 E8.01284
G1 X132.527 Y107.926 E8.08148
G1 X132.822 Y107.194 E8.10773
G1 X133.19 Y106.495 E8.134
G1 X133.626 Y105.837 E8.16026
G0 F6000 X133.984 Y106.026
G1 F1200 X134.477 Y105.436 E8.18583
G1 X135.029 Y104.9 E8.21142
G1 X135.608 Y104.442 E8.23597
G1 X137.126 Y103.361 E8.29796
G1 X137.775 Y102.948 E8.32354
G1 X138.464 Y102.605 E8.34914
G1 X138.841 Y102.453 E8.36266
G1 X139.93 Y102.048 E8.4013
G1 X140.475 Y101.672 E8.42333
G1 X141.15 Y101.304 E8.4489
G1 X141.86 Y101.008 E8.47448
G1 X142.597 Y100.786 E8.50008
G1 X143.31 Y100.651 E8.52422
G1 X144.943 Y99.869 E8.58444
G1 X145.654 Y99.573 E8.61005
G1 X146.39 Y99.353 E8.6356
G1 X147.146 Y99.21 E8.66119
G1 X147.983 Y99.145 E8.68912
G1 X151.448 Y99.072 E8.80439
G1 X152.217 Y99.095 E8.82998
G1 X152.979 Y99.199 E8.85556
G1 X153.726 Y99.381 E8.88113
G1 X154.451 Y99.639 E8.90672
G1 X154.791 Y99.803 E8.91928
G1 X155.202 Y99.912 E8.93342
G1 X155.921 Y100.186 E8.95901
G1 X156.542 Y100.496 E8.9821
G1 X156.732 Y100.602 E8.98933
G1 X157.001 Y100.674 E8.9986
G1 X157.781 Y100.975 E9.0264
G1 X159.151 Y101.595 E9.07642
G1 X159.834 Y101.948 E9.10199
G1 X160.504 Y102.39 E9.12869
G1 X162.636 Y103.969 E9.21693
G1 X163.23 Y104.459 E9.24254
G1 X163.769 Y105.007 E9.2681
G1 X164.398 Y105.824 E9.3024
G1 X165.347 Y107.254 E9.35948
G1 X165.738 Y107.916 E9.38505
G1 X166.059 Y108.615 E9.41064
G1 X166.305 Y109.344 E9.43622
G1 X166.484 Y110.152 E9.46375
G1 X166.691 Y111.419 E9.50645
G1 X167.009 Y112.753 E9.55206
G1 X167.149 Y113.509 E9.57763
G1 X167.209 Y114.276 E9.60322
G1 X167.187 Y115.065 E9.62948
G1 X167.152 Y115.493 E9.64376
G1 X167.26 Y115.935 E9.65889
G1 X167.403 Y116.691 E9.68448
G1 X167.467 Y117.458 E9.71008
G1 X167.451 Y118.227 E9.73566
G1 X167.356 Y118.99 E9.76124
G1 X167.108 Y119.979 E9.79515
G1 X166.845 Y120.787 E9.82341
G1 X166.569 Y121.505 E9.849
G1 X166.22 Y122.191 E9.8746
G1 X165.802 Y122.837 E9.90019
G1 X165.319 Y123.435 E9.92575
G1 X164.777 Y123.981 E9.95134
G1 X164.149 Y124.49 E9.97823
G1 X163.351 Y125.068 E10.011
G1 X162.705 Y125.486 E10.03659
G1 X162.02 Y125.835 E10.06216
G1 X161.302 Y126.111 E10.08775
G1 X160.559 Y126.311 E10.11334
G1 X159.8 Y126.433 E10.13891
G1 X158.945 Y126.475 E10.16738
G1 X158.557 Y127.073 E10.19109
G1 X158.074 Y127.672 E10.21668
G1 X157.855 Y127.885 E10.22684
G1 X158.068 Y128.3 E10.24236
G1 X158.345 Y129.017 E10.26792
G1 X158.547 Y129.76 E10.29353
G1 X158.67 Y130.519 E10.31911
G1 X158.722 Y131.24 E10.34315
G1 X159.562 Y131.28 E10.37112
G1 X160.322 Y131.399 E10.3967
G1 X161.065 Y131.597 E10.42228
G1 X161.784 Y131.871 E10.44787
G1 X162.47 Y132.218 E10.47344
G1 X163.117 Y132.634 E10.49902
G1 X163.717 Y133.115 E10.5246
G1 X164.264 Y133.656 E10.55019
G1 X164.752 Y134.251 E10.57578
G1 X165.175 Y134.893 E10.60136
G1 X165.53 Y135.576 E10.62696
G1 X165.811 Y136.291 E10.65251
G1 X166.017 Y137.033 E10.67812
G1 X166.145 Y137.791 E10.70369
G1 X166.194 Y138.641 E10.73201
G1 X166.193 Y145.421 E10.95751
G1 X166.153 Y146.189 E10.98309
G1 X166.033 Y146.949 E11.00868
G1 X165.835 Y147.692 E11.03426
G1 X165.562 Y148.411 E11.05984
G1 X165.215 Y149.097 E11.0854
G1 X164.798 Y149.744 E11.11101
G1 X164.424 Y150.211 E11.13091
G1 X164.222 Y150.74 E11.14974
G1 X163.875 Y151.426 E11.17531
G1 X163.459 Y152.073 E11.20089
G1 X162.978 Y152.673 E11.22647
G1 X162.437 Y153.22 E11.25206
G1 X161.842 Y153.708 E11.27765
G1 X161.2 Y154.131 E11.30322
G1 X160.584 Y154.451 E11.32631
G1 X160.675 Y155.02 E11.34548
G1 X160.718 Y155.788 E11.37106
G1 X160.681 Y156.556 E11.39663
G1 X160.595 Y157.112 E11.41535
G1 X161.065 Y157.237 E11.43152
G1 X161.784 Y157.511 E11.45711
G1 X162.47 Y157.858 E11.48268
G1 X163.117 Y158.274 E11.50827
G1 X163.717 Y158.755 E11.53384
G1 X164.264 Y159.296 E11.55943
G1 X164.752 Y159.891 E11.58503
G1 X165.175 Y160.533 E11.6106
G1 X165.53 Y161.216 E11.6362
G1 X165.811 Y161.931 E11.66175
G1 X166.017 Y162.673 E11.68736
G1 X166.145 Y163.431 E11.71293
G1 X166.194 Y164.281 E11.74125
G1 X166.193 Y171.061 E11.96675
G1 X166.153 Y171.829 E11.99233
G1 X166.033 Y172.589 E12.01792
G1 X165.835 Y173.332 E12.0435
G1 X165.562 Y174.051 E12.06908
G1 X165.215 Y174.737 E12.09465
G1 X164.798 Y175.384 E12.12025
G1 X164.424 Y175.851 E12.14015
G1 X164.222 Y176.38 E12.15898
G1 X163.875 Y177.066 E12.18455
G1 X163.459 Y177.713 E12.21014
G1 X162.978 Y178.313 E12.23571
G1 X162.437 Y178.86 E12.2613
G1 X161.842 Y179.348 E12.2869
G1 X161.2 Y179.771 E12.31247
G1 X160.517 Y180.126 E12.33807
G1 X160.228 Y180.24 E12.3484
G1 X160.098 Y180.639 E12.36236
G1 X159.823 Y181.357 E12.38793
G1 X159.474 Y182.043 E12.41353
G1 X159.056 Y182.689 E12.43912
G1 X158.574 Y183.288 E12.46469
G1 X158.031 Y183.833 E12.49028
G1 X157.417 Y184.333 E12.51662
G1 X156.512 Y184.992 E12.55385
G1 X155.868 Y185.412 E12.57943
G1 X155.183 Y185.763 E12.60503
G1 X154.466 Y186.04 E12.63059
G1 X153.723 Y186.242 E12.6562
G1 X152.964 Y186.366 E12.68178
G1 X152.156 Y186.41 E12.70869
G1 X151.04 Y186.41 E12.74581
G1 X150.272 Y186.37 E12.77139
G1 X149.512 Y186.251 E12.79698
G1 X148.769 Y186.053 E12.82255
G1 X148.05 Y185.779 E12.84814
G1 X147.364 Y185.432 E12.87371
G1 X146.684 Y184.992 E12.90065
G1 X145.779 Y184.333 E12.93789
G1 X145.182 Y183.849 E12.96345
G1 X144.638 Y183.305 E12.98904
G1 X144.153 Y182.707 E13.01464
G1 X143.733 Y182.063 E13.04022
G1 X143.383 Y181.378 E13.0658
G1 X143.156 Y180.79 E13.08677
G1 X142.545 Y180.79 E13.10709
G1 X141.777 Y180.75 E13.13267
G1 X141.017 Y180.631 E13.15825
G1 X140.274 Y180.433 E13.18383
G1 X139.555 Y180.159 E13.20942
G1 X138.869 Y179.812 E13.23499
G1 X138.222 Y179.396 E13.26057
G1 X137.622 Y178.915 E13.28615
G1 X137.075 Y178.374 E13.31174
G1 X136.587 Y177.779 E13.33733
G1 X136.164 Y177.137 E13.3629
G1 X135.809 Y176.454 E13.3885
G1 X135.566 Y175.835 E13.41062
G1 X135.249 Y175.449 E13.42723
G1 X134.826 Y174.807 E13.45281
G1 X134.471 Y174.124 E13.47841
G1 X134.19 Y173.409 E13.50396
G1 X133.984 Y172.667 E13.52957
G1 X133.856 Y171.909 E13.55514
G1 X133.807 Y171.06 E13.58343
G1 X133.807 Y164.28 E13.80893
G1 X133.847 Y163.512 E13.83451
G1 X133.966 Y162.752 E13.86009
G1 X134.164 Y162.009 E13.88567
G1 X134.438 Y161.29 E13.91126
G1 X134.785 Y160.604 E13.93683
G1 X135.201 Y159.957 E13.96241
G1 X135.682 Y159.357 E13.98799
G1 X136.223 Y158.81 E14.01358
G1 X136.818 Y158.322 E14.03917
G1 X137.46 Y157.899 E14.06474
G1 X138.143 Y157.544 E14.09035
G1 X138.858 Y157.263 E14.1159
G1 X139.6 Y157.057 E14.14151
G1 X140.358 Y156.929 E14.16708
G1 X141.341 Y156.872 E14.19983
G1 X141.547 Y156.704 E14.20867
G1 X141.238 Y156.192 E14.22856
G1 X140.912 Y155.496 E14.25412
G1 X140.701 Y154.907 E14.27493
G1 X140.274 Y154.793 E14.28963
G1 X139.555 Y154.519 E14.31522
G1 X138.869 Y154.172 E14.34079
G1 X138.222 Y153.756 E14.36637
G1 X137.622 Y153.275 E14.39195
G1 X137.075 Y152.734 E14.41754
G1 X136.587 Y152.139 E14.44313
G1 X136.164 Y151.497 E14.46871
G1 X135.809 Y150.814 E14.49431
G1 X135.566 Y150.195 E14.51643
G1 X135.249 Y149.809 E14.53304
G1 X134.826 Y149.167 E14.55861
G1 X134.471 Y148.484 E14.58421
G1 X134.19 Y147.769 E14.60976
G1 X133.984 Y147.027 E14.63538
G1 X133.856 Y146.269 E14.66094
G1 X133.807 Y145.42 E14.68923
G1 X133.807 Y138.64 E14.91473
G1 X133.847 Y137.872 E14.94031
G1 X133.966 Y137.112 E14.9659
G1 X134.164 Y136.369 E14.99147
