;FLAVOR:Marlin
;TIME:18968
;Filament used: 12.5786m
;Layer height: 0.2
;MINX:96.5
;MINY:78.88
;MINZ:0.2
;MAXX:203.5
;MAXY:221.121
;MAXZ:19
;Generated with Cura_SteamEngine 5.2.2
M140 S50
M105
M190 S50
M104 S215
M105
M109 S215
M82 ;absolute extrusion mode
; Ender 3 Max Custom Start G-code
G92 E0 ; Reset Extruder
G28 ; Home all axes
G1 Z2.0 F3000 ; Move Z Axis up little to prevent scratching of Heat Bed
G1 X0.1 Y20 Z0.3 F5000.0 ; Move to start position
G1 X0.1 Y200.0 Z0.3 F1500.0 E15 ; Draw the first line
G1 X0.4 Y200.0 Z0.3 F5000.0 ; Move to side a little
G1 X0.4 Y20 Z0.3 F1500.0 E30 ; Draw the second line
G92 E0 ; Reset Extruder
G1 Z2.0 F3000 ; Move Z Axis up little to prevent scratching of Heat Bed
G1 X5 Y20 Z0.3 F5000.0 ; Move over to prevent blob squish
G92 E0
G92 E0
G1 F1500 E-6.5
;LAYER_COUNT:95
;LAYER:0
M107
G0 F6000 X103.383 Y82.745 Z0.2
;TYPE:SKIRT
G1 F1500 E0
G1 F900 X104.032 Y82.068 E0.03182
G1 X104.736 Y81.448 E0.06364
G1 X105.491 Y80.891 E0.09547
G1 X106.29 Y80.4 E0.12729
G1 X107.128 Y79.979 E0.1591
G1 X108.091 Y79.599 E0.19422
G1 X108.425 Y79.485 E0.2062
G1 X109.324 Y79.22 E0.23799
G1 X110.243 Y79.033 E0.26981
G1 X111.175 Y78.924 E0.30164
G1 X111.797 Y78.896 E0.32277
G1 X112.769 Y78.88 E0.35575
G1 X119.164 Y78.893 E0.5727
G1 X181.068 Y78.894 E2.67281
G1 X187.267 Y78.88 E2.88312
G1 X188.095 Y78.889 E2.91121
G1 X189.031 Y78.94 E2.94301
G1 X189.96 Y79.071 E2.97484
G1 X190.874 Y79.28 E3.00665
G1 X191.52 Y79.479 E3.02958
G1 X191.921 Y79.616 E3.04395
G1 X192.795 Y79.957 E3.07578
G1 X193.637 Y80.37 E3.1076
G1 X194.44 Y80.855 E3.13942
G1 X195.199 Y81.405 E3.17122
G1 X195.908 Y82.019 E3.20304
G1 X196.563 Y82.691 E3.23488
G1 X197.192 Y83.461 E3.26861
G1 X197.424 Y83.773 E3.2818
G1 X197.951 Y84.549 E3.31362
G1 X198.41 Y85.367 E3.34544
G1 X198.798 Y86.221 E3.37726
G1 X199.111 Y87.105 E3.40908
G1 X199.349 Y88.012 E3.44089
G1 X199.545 Y89.265 E3.48392
G1 X199.625 Y90.079 E3.51166
G1 X199.91 Y92.596 E3.5976
G1 X200.267 Y95.125 E3.68425
G1 X200.687 Y97.581 E3.76878
G1 X201.18 Y100.056 E3.85439
G1 X201.739 Y102.489 E3.93908
G1 X202.388 Y104.991 E4.02677
G1 X202.954 Y106.972 E4.09667
G1 X203.167 Y107.851 E4.12735
G1 X203.263 Y108.334 E4.14406
G1 X203.406 Y109.26 E4.17585
G1 X203.472 Y110.261 E4.20988
G1 X203.5 Y111.796 E4.26196
G1 X203.494 Y188.852 E6.87612
G1 X203.481 Y189.379 E6.894
G1 X203.445 Y190.128 E6.91944
G1 X203.36 Y191.062 E6.95126
G1 X203.251 Y191.726 E6.97408
G1 X203.173 Y192.122 E6.98778
G1 X202.991 Y192.895 E7.01472
G1 X202.789 Y193.629 E7.04054
G1 X202.385 Y195.023 E7.08978
G1 X201.749 Y197.472 E7.17562
G1 X201.175 Y199.971 E7.26261
G1 X200.69 Y202.392 E7.34637
G1 X200.264 Y204.889 E7.43231
G1 X199.915 Y207.345 E7.51647
G1 X199.567 Y210.504 E7.62429
G1 X199.438 Y211.433 E7.6561
G1 X199.231 Y212.348 E7.68793
G1 X199.024 Y213.022 E7.71185
G1 X198.885 Y213.428 E7.72641
G1 X198.544 Y214.302 E7.75824
G1 X198.129 Y215.143 E7.79005
G1 X197.644 Y215.946 E7.82188
G1 X197.093 Y216.704 E7.85367
G1 X196.479 Y217.414 E7.88551
G1 X195.807 Y218.068 E7.91733
G1 X194.997 Y218.725 E7.95271
G1 X194.664 Y218.97 E7.96673
G1 X193.885 Y219.493 E7.99857
G1 X193.065 Y219.948 E8.03038
G1 X192.209 Y220.332 E8.06221
G1 X191.324 Y220.641 E8.09401
G1 X190.415 Y220.873 E8.12584
G1 X189.49 Y221.027 E8.15765
G1 X188.284 Y221.109 E8.19866
G1 X187.25 Y221.121 E8.23374
G1 X180.838 Y221.107 E8.45127
G1 X118.932 Y221.106 E10.55145
G1 X112.54 Y221.119 E10.7683
G1 X111.683 Y221.106 E10.79738
G1 X110.747 Y221.052 E10.82919
G1 X109.819 Y220.918 E10.861
G1 X108.905 Y220.705 E10.89283
G1 X108.013 Y220.416 E10.92464
G1 X107.149 Y220.052 E10.95645
G1 X106.319 Y219.615 E10.98827
G1 X105.306 Y218.948 E11.02942
G1 X104.975 Y218.703 E11.04339
G1 X104.245 Y218.114 E11.07521
G1 X103.569 Y217.464 E11.10703
G1 X102.95 Y216.759 E11.13886
G1 X102.394 Y216.004 E11.17067
G1 X101.904 Y215.205 E11.20246
G1 X101.484 Y214.366 E11.23429
G1 X101.195 Y213.658 E11.26024
G1 X101.063 Y213.299 E11.27321
G1 X100.777 Y212.406 E11.30502
G1 X100.568 Y211.491 E11.33687
G1 X100.453 Y210.709 E11.36368
G1 X100.335 Y209.631 E11.40047
G1 X100.249 Y208.743 E11.43074
G1 X99.936 Y206.259 E11.51567
G1 X99.552 Y203.773 E11.60101
G1 X99.097 Y201.298 E11.68638
G1 X98.572 Y198.83 E11.77199
G1 X97.982 Y196.398 E11.85689
G1 X97.206 Y193.577 E11.95614
G1 X97.061 Y193.079 E11.97374
G1 X96.829 Y192.127 E12.00698
G1 X96.734 Y191.644 E12.02368
G1 X96.592 Y190.717 E12.0555
G1 X96.529 Y189.742 E12.08864
G1 X96.5 Y188.176 E12.14178
G1 X96.506 Y111.159 E14.75461
G1 X96.519 Y110.629 E14.77259
G1 X96.556 Y109.864 E14.79858
G1 X96.641 Y108.93 E14.83039
G1 X96.757 Y108.238 E14.8542
G1 X96.839 Y107.828 E14.86838
G1 X97.016 Y107.08 E14.89446
G1 X97.222 Y106.332 E14.92078
G1 X97.614 Y104.979 E14.96857
G1 X98.251 Y102.528 E15.05448
G1 X98.825 Y100.029 E15.14147
G1 X99.31 Y97.608 E15.22523
G1 X99.736 Y95.111 E15.31117
G1 X100.085 Y92.658 E15.39523
G1 X100.404 Y89.807 E15.49255
G1 X100.462 Y89.229 E15.51226
G1 X100.596 Y88.3 E15.5441
G1 X100.808 Y87.387 E15.5759
G1 X101.097 Y86.495 E15.60771
G1 X101.461 Y85.63 E15.63955
G1 X101.898 Y84.8 E15.67137
G1 X102.558 Y83.796 E15.71213
G1 X102.795 Y83.475 E15.72567
G1 X103.383 Y82.745 E15.75747
G0 F6000 X103.695 Y82.997
G1 F900 X104.333 Y82.333 E15.78871
G1 X105.027 Y81.728 E15.81994
G1 X105.77 Y81.185 E15.85116
G1 X106.558 Y80.709 E15.8824
G1 X107.384 Y80.302 E15.91363
G1 X108.22 Y79.977 E15.94406
G1 X108.554 Y79.863 E15.95604
G1 X109.437 Y79.604 E15.98726
G1 X110.34 Y79.422 E16.01851
G1 X111.255 Y79.32 E16.04974
G1 X111.804 Y79.296 E16.06838
G1 X112.776 Y79.28 E16.10136
G1 X119.163 Y79.293 E16.31804
G1 X181.069 Y79.294 E18.41823
G1 X187.268 Y79.28 E18.62853
G1 X188.09 Y79.289 E18.65642
G1 X189.009 Y79.34 E18.68764
G1 X189.921 Y79.47 E18.7189
G1 X190.817 Y79.679 E18.75011
G1 X191.391 Y79.857 E18.7705
G1 X191.792 Y79.994 E18.78487
G1 X192.649 Y80.329 E18.81609
G1 X193.475 Y80.738 E18.84736
G1 X194.261 Y81.216 E18.87857
G1 X195.003 Y81.761 E18.9098
G1 X195.695 Y82.368 E18.94103
G1 X196.332 Y83.033 E18.97227
G1 X196.871 Y83.7 E19.00136
G1 X197.103 Y84.012 E19.01455
G1 X197.62 Y84.774 E19.04579
G1 X198.069 Y85.578 E19.07703
G1 X198.446 Y86.418 E19.10827
G1 X198.749 Y87.287 E19.13949
G1 X198.975 Y88.179 E19.17071
G1 X199.147 Y89.304 E19.20932
G1 X199.225 Y90.097 E19.23635
G1 X199.515 Y92.661 E19.32389
G1 X199.871 Y95.177 E19.4101
G1 X200.294 Y97.655 E19.49538
G1 X200.785 Y100.119 E19.58062
G1 X201.357 Y102.607 E19.66722
G1 X201.999 Y105.086 E19.7541
G1 X202.57 Y107.082 E19.82453
G1 X202.775 Y107.929 E19.85409
G1 X202.871 Y108.412 E19.8708
G1 X203.011 Y109.322 E19.90204
G1 X203.072 Y110.269 E19.93423
G1 X203.1 Y111.796 E19.98604
G1 X203.094 Y188.852 E22.60019
G1 X203.082 Y189.36 E22.61743
G1 X203.046 Y190.109 E22.64287
G1 X202.962 Y191.026 E22.67411
G1 X202.858 Y191.649 E22.69554
G1 X202.78 Y192.045 E22.70923
G1 X202.605 Y192.79 E22.73519
G1 X202.405 Y193.518 E22.76081
G1 X201.997 Y194.926 E22.81054
G1 X201.36 Y197.379 E22.89652
G1 X200.786 Y199.875 E22.98341
G1 X200.296 Y202.324 E23.06814
G1 X199.868 Y204.836 E23.15458
G1 X199.516 Y207.31 E23.23936
G1 X199.204 Y210.095 E23.33443
G1 X199.169 Y210.466 E23.34708
G1 X199.042 Y211.378 E23.37832
G1 X198.836 Y212.275 E23.40954
G1 X198.646 Y212.892 E23.43144
G1 X198.507 Y213.298 E23.446
G1 X198.171 Y214.156 E23.47726
G1 X197.762 Y214.981 E23.5085
G1 X197.283 Y215.767 E23.53972
G1 X196.738 Y216.509 E23.57096
G1 X196.13 Y217.2 E23.60218
G1 X195.465 Y217.837 E23.63342
G1 X194.76 Y218.403 E23.6641
G1 X194.427 Y218.648 E23.67812
G1 X193.662 Y219.161 E23.70937
G1 X192.856 Y219.606 E23.7406
G1 X192.014 Y219.979 E23.77185
G1 X191.143 Y220.277 E23.80308
G1 X190.25 Y220.499 E23.83429
G1 X189.34 Y220.642 E23.86554
G1 X188.279 Y220.709 E23.90161
G1 X187.251 Y220.721 E23.93649
G1 X180.839 Y220.707 E24.15402
G1 X118.931 Y220.706 E26.25427
G1 X112.546 Y220.719 E26.47088
G1 X111.689 Y220.706 E26.49996
G1 X110.77 Y220.652 E26.53119
G1 X109.859 Y220.518 E26.56243
G1 X108.963 Y220.306 E26.59367
G1 X108.089 Y220.017 E26.6249
G1 X107.243 Y219.654 E26.65613
G1 X106.432 Y219.218 E26.68736
G1 X105.544 Y218.627 E26.72355
G1 X105.213 Y218.382 E26.73752
G1 X104.497 Y217.803 E26.76876
G1 X103.835 Y217.163 E26.8
G1 X103.23 Y216.469 E26.83123
G1 X102.688 Y215.725 E26.86246
G1 X102.213 Y214.936 E26.89371
G1 X101.807 Y214.11 E26.92493
G1 X101.57 Y213.52 E26.9465
G1 X101.438 Y213.161 E26.95948
G1 X101.158 Y212.284 E26.99071
G1 X100.956 Y211.386 E27.02193
G1 X100.851 Y210.665 E27.04665
G1 X100.748 Y209.731 E27.07853
G1 X100.65 Y208.726 E27.11279
G1 X100.335 Y206.22 E27.19847
G1 X99.942 Y203.677 E27.28577
G1 X99.494 Y201.241 E27.3698
G1 X98.967 Y198.766 E27.45565
G1 X98.367 Y196.295 E27.54191
G1 X97.578 Y193.425 E27.64289
G1 X97.445 Y192.967 E27.65907
G1 X97.221 Y192.05 E27.69109
G1 X97.126 Y191.567 E27.70779
G1 X96.988 Y190.656 E27.73905
G1 X96.929 Y189.734 E27.77039
G1 X96.9 Y188.176 E27.82326
G1 X96.906 Y111.159 E30.43609
G1 X96.918 Y110.648 E30.45343
G1 X96.955 Y109.883 E30.47941
G1 X97.04 Y108.966 E30.51065
G1 X97.149 Y108.316 E30.53301
G1 X97.231 Y107.906 E30.5472
G1 X97.401 Y107.186 E30.5723
G1 X97.562 Y106.598 E30.59298
G1 X98.002 Y105.077 E30.64669
G1 X98.64 Y102.621 E30.73278
G1 X99.214 Y100.125 E30.81967
G1 X99.704 Y97.676 E30.9044
G1 X100.132 Y95.164 E30.99085
G1 X100.483 Y92.697 E31.07538
G1 X100.798 Y89.886 E31.17134
G1 X100.86 Y89.269 E31.19238
G1 X100.992 Y88.358 E31.22361
G1 X101.203 Y87.461 E31.25487
G1 X101.49 Y86.587 E31.28608
G1 X101.852 Y85.74 E31.31733
G1 X102.286 Y84.929 E31.34854
G1 X102.879 Y84.034 E31.38496
G1 X103.116 Y83.713 E31.3985
G1 X103.695 Y82.997 E31.42973
G0 F6000 X104.006 Y83.248
G1 F900 X104.634 Y82.599 E31.46037
G1 X105.317 Y82.008 E31.49101
G1 X106.05 Y81.48 E31.52166
G1 X106.826 Y81.019 E31.55228
G1 X107.64 Y80.628 E31.58292
G1 X108.349 Y80.356 E31.60868
G1 X108.683 Y80.242 E31.62065
G1 X109.55 Y79.988 E31.6513
G1 X110.436 Y79.812 E31.68195
G1 X111.334 Y79.715 E31.71259
G1 X111.81 Y79.696 E31.72875
G1 X112.782 Y79.68 E31.76173
G1 X119.162 Y79.693 E31.97818
G1 X181.07 Y79.694 E34.07842
G1 X187.269 Y79.68 E34.28873
G1 X188.085 Y79.689 E34.31641
G1 X188.987 Y79.739 E34.34706
G1 X189.881 Y79.87 E34.37771
G1 X190.759 Y80.079 E34.40833
G1 X191.262 Y80.236 E34.42621
G1 X191.663 Y80.373 E34.44059
G1 X192.503 Y80.702 E34.47119
G1 X193.312 Y81.105 E34.50185
G1 X194.082 Y81.577 E34.53249
G1 X194.806 Y82.116 E34.56311
G1 X195.481 Y82.717 E34.59377
G1 X196.099 Y83.375 E34.6244
G1 X196.55 Y83.939 E34.6489
G1 X196.782 Y84.251 E34.66209
G1 X197.288 Y84.998 E34.6927
G1 X197.727 Y85.788 E34.72336
G1 X198.093 Y86.614 E34.75401
G1 X198.385 Y87.468 E34.78463
G1 X198.601 Y88.345 E34.81527
G1 X198.748 Y89.343 E34.84949
G1 X198.824 Y90.115 E34.87581
G1 X199.119 Y92.726 E34.96495
G1 X199.468 Y95.195 E35.04955
G1 X199.908 Y97.771 E35.1382
G1 X200.389 Y100.183 E35.22164
G1 X200.973 Y102.726 E35.31016
G1 X201.607 Y105.171 E35.39585
G1 X202.185 Y107.192 E35.46716
G1 X202.382 Y108.007 E35.49561
G1 X202.478 Y108.49 E35.51232
G1 X202.615 Y109.382 E35.54293
G1 X202.672 Y110.277 E35.57336
G1 X202.7 Y111.796 E35.6249
G1 X202.694 Y188.852 E38.23905
G1 X202.682 Y189.341 E38.25564
G1 X202.646 Y190.09 E38.28108
G1 X202.563 Y190.989 E38.31171
G1 X202.466 Y191.571 E38.33173
G1 X202.388 Y191.967 E38.34542
G1 X202.219 Y192.684 E38.37041
G1 X202.021 Y193.407 E38.39584
G1 X201.612 Y194.82 E38.44575
G1 X200.967 Y197.302 E38.53275
G1 X200.398 Y199.779 E38.61897
G1 X199.905 Y202.244 E38.70425
G1 X199.471 Y204.784 E38.79167
G1 X199.121 Y207.243 E38.87593
G1 X198.771 Y210.428 E38.98464
G1 X198.645 Y211.323 E39.0153
G1 X198.441 Y212.202 E39.04591
G1 X198.267 Y212.763 E39.06584
G1 X198.128 Y213.169 E39.0804
G1 X197.798 Y214.009 E39.11101
G1 X197.395 Y214.818 E39.14168
G1 X196.922 Y215.587 E39.1723
G1 X196.383 Y216.311 E39.20293
G1 X195.781 Y216.985 E39.23358
G1 X195.123 Y217.603 E39.26421
G1 X194.523 Y218.081 E39.29023
G1 X194.19 Y218.326 E39.30426
G1 X193.439 Y218.828 E39.3349
G1 X192.647 Y219.263 E39.36556
G1 X191.82 Y219.625 E39.39619
G1 X190.964 Y219.913 E39.42683
G1 X190.086 Y220.124 E39.45746
G1 X189.193 Y220.256 E39.48808
G1 X188.274 Y220.309 E39.51931
G1 X187.252 Y220.321 E39.55399
G1 X180.84 Y220.307 E39.77152
G1 X118.93 Y220.306 E41.87184
G1 X112.552 Y220.319 E42.08821
G1 X111.695 Y220.306 E42.11729
G1 X110.794 Y220.252 E42.14791
G1 X109.901 Y220.119 E42.17854
G1 X109.023 Y219.907 E42.20918
G1 X108.167 Y219.619 E42.23982
G1 X107.34 Y219.256 E42.27046
G1 X106.548 Y218.821 E42.30112
G1 X105.782 Y218.305 E42.33245
G1 X105.451 Y218.06 E42.34642
G1 X104.749 Y217.492 E42.37706
G1 X104.101 Y216.863 E42.40769
G1 X103.511 Y216.179 E42.43834
G1 X102.983 Y215.446 E42.46899
G1 X102.523 Y214.669 E42.49962
G1 X102.133 Y213.855 E42.53024
G1 X101.946 Y213.382 E42.54749
G1 X101.814 Y213.023 E42.56047
G1 X101.54 Y212.162 E42.59112
G1 X101.343 Y211.281 E42.62175
G1 X101.248 Y210.621 E42.64437
G1 X101.145 Y209.687 E42.67625
G1 X101.046 Y208.67 E42.71092
G1 X100.728 Y206.14 E42.79742
G1 X100.343 Y203.649 E42.88293
G1 X99.88 Y201.129 E42.96986
G1 X99.36 Y198.685 E43.05463
G1 X98.756 Y196.199 E43.14142
G1 X97.969 Y193.334 E43.24221
G1 X97.829 Y192.855 E43.25914
G1 X97.614 Y191.972 E43.28998
G1 X97.519 Y191.489 E43.30668
G1 X97.384 Y190.597 E43.33728
G1 X97.329 Y189.726 E43.36689
G1 X97.3 Y188.176 E43.41948
G1 X97.306 Y111.159 E46.03231
G1 X97.318 Y110.667 E46.04901
G1 X97.355 Y109.902 E46.07499
G1 X97.438 Y109.003 E46.10562
G1 X97.541 Y108.395 E46.12654
G1 X97.623 Y107.985 E46.14072
G1 X97.787 Y107.291 E46.16492
G1 X97.948 Y106.703 E46.1856
G1 X98.385 Y105.193 E46.23893
G1 X99.033 Y102.698 E46.32638
G1 X99.602 Y100.221 E46.4126
G1 X100.095 Y97.756 E46.49788
G1 X100.529 Y95.216 E46.5853
G1 X100.878 Y92.76 E46.66946
G1 X101.2 Y89.888 E46.7675
G1 X101.258 Y89.309 E46.78725
G1 X101.388 Y88.415 E46.81789
G1 X101.597 Y87.536 E46.84855
G1 X101.883 Y86.68 E46.87916
G1 X102.243 Y85.852 E46.90979
G1 X102.675 Y85.058 E46.94046
G1 X103.201 Y84.272 E46.97255
G1 X103.438 Y83.951 E46.98608
G1 X104.006 Y83.248 E47.01674
G1 F1500 E40.51674
;MESH:blowerFanMountMK2.stl
G0 F6000 X113.907 Y112.383
G0 X115.214 Y117.127
;TYPE:WALL-INNER
G1 F1500 E47.01674
G1 F900 X114.794 Y117.167 E47.03106
G1 X114.37 Y117.129 E47.0455
G1 X113.972 Y117.023 E47.05947
G1 X113.602 Y116.853 E47.07328
G1 X113.256 Y116.608 E47.08767
G1 X112.969 Y116.323 E47.10139
G1 X112.722 Y115.976 E47.11584
G1 X112.552 Y115.604 E47.12972
G1 X112.445 Y115.205 E47.14373
G1 X112.406 Y114.792 E47.1578
G1 X112.441 Y114.372 E47.1721
G1 X112.549 Y113.976 E47.18603
G1 X112.719 Y113.606 E47.19984
G1 X112.958 Y113.262 E47.21405
G1 X113.252 Y112.968 E47.22816
G1 X113.598 Y112.721 E47.24258
G1 X113.987 Y112.547 E47.25704
G1 X114.366 Y112.446 E47.27034
G1 X114.778 Y112.406 E47.28438
G1 X115.206 Y112.445 E47.29896
G1 X115.596 Y112.548 E47.31265
G1 X115.952 Y112.713 E47.32596
G1 X116.299 Y112.952 E47.34026
G1 X116.347 Y112.995 E47.34244
G1 X116.613 Y113.264 E47.35528
G1 X116.846 Y113.593 E47.36895
G1 X117.017 Y113.964 E47.38281
G1 X117.129 Y114.36 E47.39677
G1 X117.164 Y114.751 E47.41009
G1 X117.125 Y115.221 E47.42609
G1 X117.022 Y115.599 E47.43938
G1 X116.852 Y115.971 E47.45326
G1 X116.622 Y116.296 E47.46676
G1 X116.319 Y116.606 E47.48147
G1 X115.977 Y116.849 E47.4957
G1 X115.622 Y117.012 E47.50896
G1 X115.214 Y117.127 E47.52334
G0 F6000 X114.773 Y116.764
;TYPE:WALL-OUTER
G1 F900 X114.424 Y116.73 E47.53523
G1 X114.126 Y116.65 E47.5457
G1 X113.785 Y116.493 E47.55844
G1 X113.506 Y116.292 E47.5701
G1 X113.265 Y116.049 E47.58171
G1 X113.081 Y115.79 E47.59249
G1 X112.936 Y115.481 E47.60407
G1 X112.839 Y115.136 E47.61623
G1 X112.809 Y114.776 E47.62848
G1 X112.842 Y114.422 E47.64055
G1 X112.922 Y114.126 E47.65095
G1 X113.061 Y113.82 E47.66235
G1 X113.256 Y113.534 E47.67409
G1 X113.501 Y113.285 E47.68594
G1 X113.781 Y113.082 E47.69768
G1 X114.111 Y112.927 E47.71005
G1 X114.436 Y112.84 E47.72146
G1 X114.762 Y112.809 E47.73257
G1 X115.115 Y112.836 E47.74458
G1 X115.447 Y112.922 E47.75622
G1 X115.764 Y113.066 E47.76803
G1 X116.065 Y113.279 E47.78054
G1 X116.295 Y113.508 E47.79155
G1 X116.509 Y113.81 E47.8041
G1 X116.641 Y114.102 E47.81498
