;FLAVOR:Marlin
;TIME:25362
;Filament used: 17.2711m
;Layer height: 0.2
;MINX:76
;MINY:58.072
;MINZ:0.2
;MAXX:223.999
;MAXY:241.93
;MAXZ:20.2
;Generated with Cura_SteamEngine 5.2.2
M140 S50
M105
M190 S50
M104 S215
M105
M109 S215
M82 ;absolute extrusion mode
; Ender 3 Max Custom Start G-code
G92 E0 ; Reset Extruder
G28 ; Home all axes
G1 Z2.0 F3000 ; Move Z Axis up little to prevent scratching of Heat Bed
G1 X0.1 Y20 Z0.3 F5000.0 ; Move to start position
G1 X0.1 Y200.0 Z0.3 F1500.0 E15 ; Draw the first line
G1 X0.4 Y200.0 Z0.3 F5000.0 ; Move to side a little
G1 X0.4 Y20 Z0.3 F1500.0 E30 ; Draw the second line
G92 E0 ; Reset Extruder
G1 Z2.0 F3000 ; Move Z Axis up little to prevent scratching of Heat Bed
G1 X5 Y20 Z0.3 F5000.0 ; Move over to prevent blob squish
G92 E0
G92 E0
G1 F1500 E-6.5
;LAYER_COUNT:101
;LAYER:0
M107
G0 F6000 X93.74 Y63.082 Z0.2
;TYPE:SKIRT
G1 F1500 E0
G1 F1200 X94.297 Y62.327 E0.03183
G1 X94.915 Y61.622 E0.06364
G1 X95.591 Y60.972 E0.09545
G1 X96.321 Y60.382 E0.12729
G1 X97.097 Y59.856 E0.1591
G1 X98.221 Y59.251 E0.2024
G1 X98.5 Y59.121 E0.21284
G1 X99.366 Y58.762 E0.24465
G1 X100.26 Y58.477 E0.27648
G1 X101.175 Y58.27 E0.30831
G1 X102.104 Y58.141 E0.34013
G1 X102.919 Y58.094 E0.36782
G1 X103.987 Y58.072 E0.40406
G1 X196.281 Y58.072 E3.53517
G1 X196.985 Y58.082 E3.55905
G1 X197.922 Y58.135 E3.59089
G1 X198.85 Y58.268 E3.6227
G1 X199.764 Y58.48 E3.65453
G1 X200.656 Y58.768 E3.68633
G1 X201.475 Y59.111 E3.71645
G1 X201.784 Y59.255 E3.72802
G1 X202.617 Y59.687 E3.75985
G1 X203.409 Y60.188 E3.79164
G1 X204.156 Y60.755 E3.82346
G1 X204.852 Y61.384 E3.85528
G1 X205.492 Y62.069 E3.88709
G1 X206.223 Y63.024 E3.92789
G1 X206.509 Y63.443 E3.9451
G1 X206.858 Y63.988 E3.96705
G1 X208.326 Y66.436 E4.06389
G1 X209.691 Y68.568 E4.14977
G1 X211.091 Y70.624 E4.23416
G1 X212.573 Y72.673 E4.31995
G1 X214.12 Y74.689 E4.40616
G1 X215.711 Y76.646 E4.49172
G1 X217.323 Y78.517 E4.57551
G1 X219.091 Y80.457 E4.66455
G1 X219.618 Y81.014 E4.69057
G1 X220.181 Y81.657 E4.71956
G1 X220.642 Y82.227 E4.74443
G1 X221.445 Y83.359 E4.79152
G1 X221.735 Y83.828 E4.81022
G1 X222.357 Y84.983 E4.85473
G1 X222.628 Y85.567 E4.87657
G1 X223.12 Y86.823 E4.92233
G1 X223.294 Y87.363 E4.94158
G1 X223.609 Y88.573 E4.984
G1 X223.727 Y89.161 E5.00434
G1 X223.912 Y90.515 E5.0507
G1 X223.956 Y91.111 E5.07098
G1 X223.985 Y91.743 E5.09244
G1 X223.999 Y92.608 E5.12179
G1 X223.999 Y207.45 E9.01785
G1 X223.977 Y208.471 E9.05249
G1 X223.944 Y209.106 E9.07406
G1 X223.807 Y210.358 E9.11679
G1 X223.709 Y210.941 E9.13685
G1 X223.406 Y212.248 E9.18236
G1 X223.227 Y212.851 E9.2037
G1 X222.761 Y214.127 E9.24979
G1 X222.535 Y214.644 E9.26893
G1 X221.959 Y215.777 E9.31205
G1 X221.632 Y216.338 E9.33408
G1 X220.85 Y217.503 E9.38168
G1 X220.481 Y217.983 E9.40222
G1 X219.791 Y218.796 E9.4384
G1 X218.163 Y220.535 E9.51921
G1 X216.508 Y222.406 E9.60395
G1 X214.892 Y224.339 E9.68943
G1 X213.317 Y226.334 E9.77566
G1 X211.831 Y228.331 E9.86011
G1 X210.376 Y230.41 E9.94619
G1 X209.003 Y232.489 E10.03072
G1 X207.642 Y234.686 E10.11839
G1 X206.979 Y235.813 E10.16275
G1 X206.628 Y236.371 E10.18512
G1 X206.263 Y236.914 E10.20731
G1 X205.707 Y237.669 E10.23912
G1 X205.089 Y238.374 E10.27093
G1 X204.413 Y239.024 E10.30275
G1 X203.684 Y239.614 E10.33456
G1 X202.907 Y240.14 E10.36639
G1 X201.795 Y240.74 E10.40926
G1 X201.515 Y240.871 E10.41975
G1 X200.65 Y241.232 E10.45155
G1 X199.757 Y241.518 E10.48336
G1 X198.842 Y241.727 E10.5152
G1 X197.913 Y241.857 E10.54702
G1 X197.081 Y241.906 E10.5753
G1 X196.013 Y241.928 E10.61154
G1 X103.683 Y241.93 E13.74386
G1 X102.991 Y241.92 E13.76734
G1 X102.055 Y241.866 E13.79915
G1 X101.126 Y241.733 E13.83099
G1 X100.213 Y241.522 E13.86278
G1 X99.32 Y241.233 E13.89462
G1 X98.456 Y240.869 E13.92643
G1 X97.626 Y240.433 E13.95823
G1 X97.048 Y240.074 E13.98132
G1 X96.622 Y239.79 E13.99869
G1 X95.865 Y239.237 E14.03049
G1 X95.157 Y238.621 E14.06233
G1 X94.505 Y237.947 E14.09414
G1 X93.912 Y237.221 E14.12594
G1 X93.238 Y236.207 E14.16725
G1 X92.771 Y235.412 E14.19853
G1 X91.405 Y233.161 E14.28786
G1 X90.057 Y231.075 E14.37211
G1 X88.648 Y229.025 E14.4565
G1 X87.144 Y226.965 E14.54303
G1 X85.595 Y224.963 E14.62891
G1 X84.011 Y223.033 E14.71361
G1 X82.365 Y221.136 E14.79882
G1 X80.287 Y218.885 E14.90275
G1 X79.817 Y218.341 E14.92714
G1 X79.357 Y217.772 E14.95196
G1 X78.553 Y216.638 E14.99912
G1 X78.262 Y216.167 E15.0179
G1 X77.642 Y215.016 E15.06226
G1 X77.37 Y214.43 E15.08417
G1 X76.874 Y213.16 E15.13043
G1 X76.702 Y212.624 E15.14953
G1 X76.39 Y211.42 E15.19172
G1 X76.272 Y210.83 E15.21213
G1 X76.091 Y209.526 E15.2568
G1 X76.049 Y208.986 E15.27517
G1 X76.018 Y208.319 E15.29782
G1 X76 Y207.185 E15.3363
G1 X76.001 Y92.55 E19.22533
G1 X76.023 Y91.529 E19.25998
G1 X76.056 Y90.894 E19.28155
G1 X76.193 Y89.642 E19.32428
G1 X76.291 Y89.059 E19.34433
G1 X76.594 Y87.752 E19.38985
G1 X76.773 Y87.149 E19.41119
G1 X77.24 Y85.871 E19.45735
G1 X77.467 Y85.352 E19.47657
G1 X78.043 Y84.218 E19.51972
G1 X78.369 Y83.659 E19.54167
G1 X79.15 Y82.497 E19.58917
G1 X79.519 Y82.017 E19.60971
G1 X80.209 Y81.204 E19.64588
G1 X81.837 Y79.465 E19.7267
G1 X83.492 Y77.594 E19.81144
G1 X85.108 Y75.661 E19.89692
G1 X86.683 Y73.666 E19.98315
G1 X88.169 Y71.669 E20.06759
G1 X89.624 Y69.59 E20.15368
G1 X90.997 Y67.511 E20.23821
G1 X92.358 Y65.314 E20.32588
G1 X93.021 Y64.187 E20.37024
G1 X93.374 Y63.626 E20.39273
G1 X93.74 Y63.082 E20.41497
G0 F6000 X94.072 Y63.305
G1 F1200 X94.619 Y62.564 E20.44622
G1 X95.228 Y61.874 E20.47744
G1 X95.894 Y61.238 E20.50868
G1 X96.613 Y60.663 E20.53992
G1 X97.379 Y60.153 E20.57113
G1 X98.39 Y59.614 E20.61
G1 X98.669 Y59.484 E20.62045
G1 X99.52 Y59.132 E20.65169
G1 X100.398 Y58.854 E20.68293
G1 X101.296 Y58.655 E20.71414
G1 X102.209 Y58.533 E20.74539
G1 X102.928 Y58.494 E20.76981
G1 X103.996 Y58.472 E20.80605
G1 X196.276 Y58.472 E23.93668
G1 X196.98 Y58.482 E23.96057
G1 X197.899 Y58.535 E23.9918
G1 X198.81 Y58.668 E24.02303
G1 X199.706 Y58.879 E24.05426
G1 X200.58 Y59.167 E24.08548
G1 X201.306 Y59.473 E24.11221
G1 X201.615 Y59.617 E24.12377
G1 X202.432 Y60.042 E24.15502
G1 X203.209 Y60.536 E24.18625
G1 X203.94 Y61.095 E24.21747
G1 X204.62 Y61.716 E24.24871
G1 X205.243 Y62.394 E24.27995
G1 X205.893 Y63.249 E24.31639
G1 X206.179 Y63.668 E24.3336
G1 X206.515 Y64.193 E24.35474
G1 X207.998 Y66.667 E24.4526
G1 X209.34 Y68.763 E24.53703
G1 X210.785 Y70.885 E24.62413
G1 X212.259 Y72.922 E24.70943
G1 X213.793 Y74.922 E24.79494
G1 X215.395 Y76.893 E24.88111
G1 X217.041 Y78.803 E24.96665
G1 X218.788 Y80.72 E25.05464
G1 X219.327 Y81.289 E25.08123
G1 X219.87 Y81.908 E25.10916
G1 X220.331 Y82.478 E25.13403
G1 X221.105 Y83.569 E25.17941
G1 X221.395 Y84.038 E25.19812
G1 X221.994 Y85.151 E25.241
G1 X222.265 Y85.735 E25.26284
G1 X222.739 Y86.946 E25.30696
G1 X222.913 Y87.486 E25.32621
G1 X223.217 Y88.651 E25.36705
G1 X223.335 Y89.239 E25.3874
G1 X223.513 Y90.545 E25.43212
G1 X223.557 Y91.141 E25.45239
G1 X223.585 Y91.749 E25.47304
G1 X223.599 Y92.614 E25.50239
G1 X223.599 Y207.445 E29.39807
G1 X223.578 Y208.45 E29.43217
G1 X223.545 Y209.085 E29.45374
G1 X223.412 Y210.292 E29.49494
G1 X223.314 Y210.875 E29.51499
G1 X223.023 Y212.134 E29.55883
G1 X222.844 Y212.737 E29.58017
G1 X222.395 Y213.967 E29.62459
G1 X222.169 Y214.484 E29.64373
G1 X221.614 Y215.576 E29.68529
G1 X221.287 Y216.137 E29.70732
G1 X220.533 Y217.259 E29.75318
G1 X220.164 Y217.739 E29.77372
G1 X219.499 Y218.522 E29.80857
G1 X217.871 Y220.262 E29.88941
G1 X216.202 Y222.147 E29.97482
G1 X214.586 Y224.079 E30.06027
G1 X212.997 Y226.093 E30.1473
G1 X211.51 Y228.092 E30.23183
G1 X210.047 Y230.182 E30.31838
G1 X208.656 Y232.289 E30.40403
G1 X207.303 Y234.472 E30.49116
G1 X206.634 Y235.61 E30.53594
G1 X206.296 Y236.147 E30.55747
G1 X205.931 Y236.69 E30.57967
G1 X205.385 Y237.431 E30.61089
G1 X204.776 Y238.122 E30.64214
G1 X204.11 Y238.758 E30.67338
G1 X203.391 Y239.333 E30.70461
G1 X202.625 Y239.844 E30.73585
G1 X201.626 Y240.378 E30.77428
G1 X201.346 Y240.509 E30.78477
G1 X200.496 Y240.863 E30.81601
G1 X199.618 Y241.141 E30.84725
G1 X198.72 Y241.342 E30.87847
G1 X197.808 Y241.465 E30.90969
G1 X197.072 Y241.506 E30.9347
G1 X196.004 Y241.528 E30.97094
G1 X103.689 Y241.53 E34.10276
G1 X102.997 Y241.52 E34.12623
G1 X102.078 Y241.467 E34.15746
G1 X101.167 Y241.334 E34.1887
G1 X100.271 Y241.122 E34.21993
G1 X99.396 Y240.834 E34.25118
G1 X98.55 Y240.471 E34.28242
G1 X97.739 Y240.036 E34.31364
G1 X97.27 Y239.741 E34.33243
G1 X96.844 Y239.457 E34.3498
G1 X96.101 Y238.913 E34.38104
G1 X95.408 Y238.307 E34.41227
G1 X94.77 Y237.644 E34.44349
G1 X94.192 Y236.927 E34.47473
G1 X93.583 Y236.004 E34.51225
G1 X93.115 Y235.208 E34.54358
G1 X91.75 Y232.958 E34.63286
G1 X90.406 Y230.878 E34.71687
G1 X88.956 Y228.769 E34.8037
G1 X87.451 Y226.707 E34.8903
G1 X85.919 Y224.727 E34.97523
G1 X84.307 Y222.763 E35.06143
G1 X82.679 Y220.887 E35.1457
G1 X80.581 Y218.614 E35.25064
G1 X80.128 Y218.089 E35.27416
G1 X79.668 Y217.52 E35.29899
G1 X78.893 Y216.427 E35.34444
G1 X78.602 Y215.956 E35.36322
G1 X78.005 Y214.848 E35.40592
G1 X77.733 Y214.262 E35.42784
G1 X77.255 Y213.038 E35.47242
G1 X77.083 Y212.502 E35.49152
G1 X76.782 Y211.342 E35.53217
G1 X76.664 Y210.752 E35.55259
G1 X76.49 Y209.495 E35.59564
G1 X76.448 Y208.955 E35.61401
G1 X76.418 Y208.312 E35.63585
G1 X76.4 Y207.185 E35.67409
G1 X76.401 Y92.555 E39.56295
G1 X76.422 Y91.55 E39.59705
G1 X76.455 Y90.915 E39.61862
G1 X76.588 Y89.708 E39.65982
G1 X76.686 Y89.125 E39.67987
G1 X76.977 Y87.866 E39.72371
G1 X77.156 Y87.263 E39.74505
G1 X77.606 Y86.031 E39.78955
G1 X77.833 Y85.512 E39.80877
G1 X78.388 Y84.42 E39.85032
G1 X78.714 Y83.861 E39.87228
G1 X79.467 Y82.741 E39.91806
G1 X79.836 Y82.261 E39.9386
G1 X80.501 Y81.478 E39.97345
G1 X82.129 Y79.738 E40.05429
G1 X83.798 Y77.853 E40.13971
G1 X85.414 Y75.921 E40.22516
G1 X87.003 Y73.907 E40.31219
G1 X88.49 Y71.908 E40.39671
G1 X89.953 Y69.818 E40.48326
G1 X91.344 Y67.711 E40.56891
G1 X92.697 Y65.528 E40.65604
G1 X93.366 Y64.39 E40.70082
G1 X93.706 Y63.849 E40.7225
G1 X94.072 Y63.305 E40.74475
G0 F6000 X94.404 Y63.528
G1 F1200 X94.941 Y62.802 E40.77538
G1 X95.54 Y62.126 E40.80602
G1 X96.196 Y61.506 E40.83664
G1 X96.905 Y60.946 E40.8673
G1 X97.66 Y60.451 E40.89792
G1 X98.559 Y59.976 E40.93242
G1 X98.838 Y59.846 E40.94286
G1 X99.673 Y59.502 E40.9735
G1 X100.535 Y59.232 E41.00414
G1 X101.417 Y59.04 E41.03476
G1 X102.313 Y58.926 E41.06541
G1 X102.936 Y58.894 E41.08657
G1 X104.214 Y58.87 E41.12993
G1 X196.27 Y58.872 E44.25297
G1 X196.974 Y58.882 E44.27685
G1 X197.875 Y58.935 E44.30747
G1 X198.769 Y59.067 E44.33813
G1 X199.647 Y59.278 E44.36876
G1 X200.503 Y59.566 E44.3994
G1 X201.138 Y59.836 E44.42281
G1 X201.447 Y59.98 E44.43438
G1 X202.247 Y60.397 E44.46498
G1 X203.008 Y60.884 E44.49563
G1 X203.723 Y61.435 E44.52626
G1 X204.386 Y62.048 E44.55689
G1 X204.993 Y62.718 E44.58756
G1 X205.563 Y63.475 E44.61971
G1 X205.849 Y63.894 E44.63692
G1 X206.172 Y64.399 E44.65726
G1 X207.652 Y66.867 E44.75489
G1 X209.016 Y68.998 E44.84072
G1 X210.458 Y71.115 E44.92762
G1 X211.921 Y73.138 E45.01232
G1 X213.481 Y75.172 E45.09928
G1 X215.098 Y77.161 E45.18624
G1 X216.726 Y79.049 E45.27082
G1 X218.486 Y80.981 E45.35948
G1 X219.037 Y81.563 E45.38667
G1 X219.559 Y82.16 E45.41357
G1 X220.02 Y82.73 E45.43844
G1 X220.764 Y83.78 E45.4821
G1 X221.054 Y84.249 E45.50081
G1 X221.631 Y85.32 E45.54208
G1 X221.902 Y85.904 E45.56392
G1 X222.358 Y87.069 E45.60636
G1 X222.532 Y87.609 E45.62561
G1 X222.825 Y88.73 E45.66492
G1 X222.943 Y89.318 E45.68527
G1 X223.114 Y90.574 E45.72827
G1 X223.158 Y91.17 E45.74854
G1 X223.185 Y91.756 E45.76844
G1 X223.199 Y92.621 E45.79779
G1 X223.199 Y207.44 E49.69307
G1 X223.191 Y208.037 E49.71332
G1 X223.145 Y209.064 E49.7482
G1 X223.018 Y210.226 E49.78785
G1 X222.92 Y210.809 E49.80791
G1 X222.639 Y212.021 E49.85012
G1 X222.46 Y212.624 E49.87146
G1 X222.028 Y213.807 E49.91418
G1 X221.802 Y214.324 E49.93333
G1 X221.268 Y215.375 E49.97332
G1 X220.941 Y215.936 E49.99535
G1 X220.216 Y217.016 E50.03948
G1 X219.847 Y217.496 E50.06002
G1 X219.207 Y218.249 E50.09354
G1 X217.58 Y219.987 E50.17431
G1 X215.895 Y221.892 E50.26059
G1 X214.267 Y223.838 E50.34667
G1 X212.691 Y225.835 E50.43297
G1 X211.165 Y227.886 E50.5197
G1 X209.729 Y229.937 E50.60464
G1 X208.315 Y232.079 E50.69171
G1 X206.978 Y234.238 E50.77787
G1 X206.29 Y235.407 E50.82388
G1 X205.964 Y235.924 E50.84462
G1 X205.599 Y236.467 E50.86681
G1 X205.063 Y237.194 E50.89746
G1 X204.464 Y237.87 E50.9281
G1 X203.808 Y238.49 E50.95872
G1 X203.1 Y239.051 E50.98937
G1 X202.344 Y239.546 E51.02002
G1 X201.456 Y240.016 E51.05411
G1 X201.176 Y240.147 E51.06459
G1 X200.342 Y240.493 E51.09523
G1 X199.481 Y240.764 E51.12585
G1 X198.599 Y240.958 E51.15649
G1 X197.703 Y241.073 E51.18713
G1 X197.064 Y241.106 E51.20884
G1 X195.786 Y241.13 E51.2522
G1 X103.695 Y241.13 E54.37642
G1 X103.003 Y241.12 E54.3999
G1 X102.101 Y241.067 E54.43055
G1 X101.208 Y240.934 E54.46118
G1 X100.33 Y240.723 E54.49182
G1 X99.474 Y240.435 E54.52246
G1 X98.646 Y240.073 E54.55312
G1 X97.492 Y239.408 E54.5983
G1 X97.066 Y239.124 E54.61567
G1 X96.338 Y238.59 E54.6463
G1 X95.659 Y237.994 E54.67695
G1 X95.036 Y237.34 E54.70759
G1 X94.473 Y236.634 E54.73823
G1 X93.928 Y235.802 E54.77197
G1 X93.459 Y235.004 E54.80337
G1 X92.1 Y232.764 E54.89226
G1 X90.712 Y230.615 E54.97905
G1 X89.277 Y228.528 E55.06497
G1 X87.792 Y226.495 E55.15038
G1 X86.229 Y224.474 E55.23706
G1 X84.617 Y222.51 E55.32326
G1 X82.976 Y220.619 E55.4082
G1 X80.875 Y218.343 E55.51328
G1 X80.439 Y217.838 E55.53591
G1 X79.979 Y217.269 E55.56074
G1 X79.234 Y216.217 E55.60447
G1 X78.943 Y215.746 E55.62325
G1 X78.368 Y214.679 E55.66437
G1 X78.096 Y214.093 E55.68629
G1 X77.636 Y212.916 E55.72916
G1 X77.464 Y212.38 E55.74826
G1 X77.174 Y211.263 E55.78741
G1 X77.056 Y210.673 E55.80782
G1 X76.889 Y209.464 E55.84923
G1 X76.847 Y208.924 E55.8676
G1 X76.817 Y208.305 E55.88862
G1 X76.801 Y207.357 E55.92079
G1 X76.801 Y92.56 E59.81532
G1 X76.809 Y91.963 E59.83557
G1 X76.855 Y90.936 E59.87045
G1 X76.982 Y89.774 E59.9101
G1 X77.08 Y89.191 E59.93016
G1 X77.361 Y87.979 E59.97237
G1 X77.54 Y87.376 E59.99371
G1 X77.973 Y86.192 E60.03648
G1 X78.2 Y85.673 E60.0557
G1 X78.734 Y84.621 E60.09572
G1 X79.06 Y84.062 E60.11767
G1 X79.784 Y82.984 E60.16173
G1 X80.153 Y82.504 E60.18227
G1 X80.793 Y81.751 E60.21579
G1 X82.42 Y80.013 E60.29656
G1 X84.105 Y78.108 E60.38284
G1 X85.733 Y76.162 E60.46892
G1 X87.309 Y74.165 E60.55522
G1 X88.835 Y72.114 E60.64195
G1 X90.271 Y70.063 E60.72689
G1 X91.685 Y67.921 E60.81396
G1 X93.022 Y65.762 E60.90011
G1 X93.71 Y64.593 E60.94613
G1 X94.038 Y64.072 E60.96702
G1 X94.404 Y63.528 E60.98926
G1 F1500 E54.48926
;MESH:blowerFanMount.stl
G0 F6000 X97.56 Y94.071
G0 X99.145 Y100.306
;TYPE:WALL-INNER
G1 F1500 E60.98926
G1 F900 X98.599 Y100.559 E61.00968
G1 X98.067 Y100.702 E61.02837
G1 X97.506 Y100.751 E61.04747
G1 X96.935 Y100.702 E61.06691
G1 X96.387 Y100.557 E61.08614
G1 X95.87 Y100.317 E61.10548
G1 X95.41 Y99.991 E61.12461
G1 X95.012 Y99.593 E61.1437
G1 X94.681 Y99.126 E61.16312
G1 X94.442 Y98.607 E61.18251
G1 X94.298 Y98.066 E61.2015
G1 X94.247 Y97.512 E61.22037
G1 X94.297 Y96.929 E61.24022
G1 X94.443 Y96.392 E61.2591
G1 X94.681 Y95.875 E61.27841
G1 X95.012 Y95.407 E61.29786
G1 X95.407 Y95.012 E61.31681
G1 X95.874 Y94.681 E61.33623
G1 X96.392 Y94.442 E61.35558
G1 X96.934 Y94.298 E61.37461
G1 X97.44 Y94.252 E61.39185
G1 X97.544 Y94.252 E61.39537
G1 X98.07 Y94.297 E61.41328
G1 X98.609 Y94.443 E61.43223
G1 X99.125 Y94.681 E61.45151
G1 X99.594 Y95.012 E61.47098
G1 X99.991 Y95.414 E61.49015
G1 X100.319 Y95.879 E61.50945
G1 X100.546 Y96.367 E61.52771
G1 X100.703 Y96.941 E61.5479
G1 X100.753 Y97.493 E61.5667
G1 X100.702 Y98.066 E61.58622
G1 X100.555 Y98.61 E61.60534
G1 X100.32 Y99.12 E61.62439
G1 X99.99 Y99.591 E61.6439
G1 X99.59 Y99.991 E61.66309
G1 X99.145 Y100.306 E61.68159
G0 F6000 X99.208 Y100.384
G0 X98.073 Y100.596
G0 X97.997 Y100.308
;TYPE:WALL-OUTER
G1 F900 X97.506 Y100.351 E61.69831
G1 X97.003 Y100.308 E61.71543
G1 X96.526 Y100.179 E61.7322
G1 X96.059 Y99.961 E61.74968
G1 X95.683 Y99.694 E61.76533
G1 X95.306 Y99.317 E61.78341
G1 X95.039 Y98.94 E61.79909
