;FLAVOR:Marlin
;TIME:6136
;Filament used: 3.31018m
;Layer height: 0.16
;MINX:45.525
;MINY:16.736
;MINZ:0.2
;MAXX:254.475
;MAXY:282.221
;MAXZ:4.28
;Generated with Cura_SteamEngine 5.2.2
M140 S60
M105
M190 S60
M104 S200
M105
M109 S200
M82 ;absolute extrusion mode
; Ender 3 Max Custom Start G-code
G92 E0 ; Reset Extruder
G28 ; Home all axes
G1 Z2.0 F3000 ; Move Z Axis up little to prevent scratching of Heat Bed
G1 X0.1 Y20 Z0.3 F5000.0 ; Move to start position
G1 X0.1 Y200.0 Z0.3 F1500.0 E15 ; Draw the first line
G1 X0.4 Y200.0 Z0.3 F5000.0 ; Move to side a little
G1 X0.4 Y20 Z0.3 F1500.0 E30 ; Draw the second line
G92 E0 ; Reset Extruder
G1 Z2.0 F3000 ; Move Z Axis up little to prevent scratching of Heat Bed
G1 X5 Y20 Z0.3 F5000.0 ; Move over to prevent blob squish
G92 E0
G92 E0
G1 F1500 E-6.5
;LAYER_COUNT:27
;LAYER:0
M107
G1 F300 Z0.4
G0 F6000 X83.861 Y62.191 Z0.4
;TYPE:SKIRT
G1 F300 Z0.2
G1 F1500 E0
G1 F1200 X84.607 Y61.202 E0.0412
G1 X85.502 Y60.065 E0.08933
G1 X86.12 Y59.305 E0.12191
G1 X86.895 Y58.372 E0.16225
G1 X89.371 Y55.429 E0.29017
G1 X91.427 Y52.949 E0.39731
G1 X94.665 Y49.004 E0.56706
G1 X98.998 Y43.69 E0.79512
G1 X101.005 Y41.271 E0.89966
G1 X102.693 Y39.284 E0.98638
G1 X103.736 Y38.082 E1.03931
G1 X105.307 Y36.3 E1.11832
G1 X106.092 Y35.422 E1.15749
G1 X108.26 Y33.034 E1.26477
G1 X110.413 Y30.705 E1.37026
G1 X111.493 Y29.587 E1.42196
G1 X112.197 Y28.881 E1.45512
G1 X113.052 Y28.048 E1.49482
G1 X114.005 Y27.137 E1.53867
G1 X115.195 Y26.028 E1.59278
G1 X115.781 Y25.502 E1.61897
G1 X116.277 Y25.11 E1.63999
G1 X117.084 Y24.656 E1.67079
G1 X118.183 Y24.166 E1.71081
G1 X120.658 Y23.02 E1.80153
G1 X123.049 Y21.83 E1.89036
G1 X126.633 Y19.889 E2.02592
G1 X127.207 Y19.624 E2.04695
G1 X127.892 Y19.413 E2.07079
G1 X132.282 Y18.403 E2.22061
G1 X133.155 Y18.209 E2.25036
G1 X135.1 Y17.803 E2.31644
G1 X136.692 Y17.519 E2.37023
G1 X138.072 Y17.321 E2.4166
G1 X139.511 Y17.157 E2.46477
G1 X140.561 Y17.063 E2.49983
G1 X141.54 Y16.991 E2.53248
G1 X143.108 Y16.894 E2.58473
G1 X145.207 Y16.792 E2.65463
G1 X146.025 Y16.762 E2.68185
G1 X147.557 Y16.736 E2.73282
G1 X152.846 Y16.738 E2.90873
G1 X154.146 Y16.771 E2.95198
G1 X155.399 Y16.82 E2.99369
G1 X157.213 Y16.914 E3.0541
G1 X158.402 Y16.988 E3.09373
G1 X159.669 Y17.084 E3.13599
G1 X160.909 Y17.2 E3.17741
G1 X162.106 Y17.344 E3.21751
G1 X163.566 Y17.565 E3.26662
G1 X165.055 Y17.835 E3.31695
G1 X165.752 Y17.978 E3.34062
G1 X167.622 Y18.381 E3.40424
G1 X171.53 Y19.276 E3.53759
G1 X172.223 Y19.449 E3.56135
G1 X172.825 Y19.64 E3.58235
G1 X173.382 Y19.897 E3.60275
G1 X173.976 Y20.218 E3.62521
G1 X175.335 Y20.978 E3.677
G1 X177.703 Y22.217 E3.76589
G1 X180.117 Y23.395 E3.85523
G1 X182.909 Y24.652 E3.95707
G1 X183.468 Y24.947 E3.97809
G1 X184.164 Y25.461 E4.00687
G1 X184.957 Y26.164 E4.04212
G1 X186.557 Y27.667 E4.11513
G1 X187.382 Y28.466 E4.15333
G1 X188.519 Y29.599 E4.20672
G1 X189.52 Y30.631 E4.25453
G1 X190.157 Y31.313 E4.28557
G1 X193.103 Y34.528 E4.43061
G1 X194.82 Y36.44 E4.51608
G1 X196.383 Y38.215 E4.59474
G1 X197.185 Y39.141 E4.63549
G1 X199.05 Y41.335 E4.73126
G1 X200.355 Y42.904 E4.79914
G1 X207.814 Y52.027 E5.19108
G1 X210.731 Y55.551 E5.34323
G1 X213.091 Y58.353 E5.46508
G1 X213.891 Y59.317 E5.50675
G1 X214.547 Y60.126 E5.54139
G1 X215.348 Y61.149 E5.5846
G1 X216.088 Y62.134 E5.62558
G1 X217.083 Y63.527 E5.68252
G1 X218.052 Y64.967 E5.74024
G1 X218.723 Y66.005 E5.78135
G1 X219.477 Y67.213 E5.82872
G1 X220.336 Y68.634 E5.88394
G1 X221.094 Y69.923 E5.93368
G1 X221.905 Y71.344 E5.9881
G1 X222.772 Y72.936 E6.04839
G1 X223.443 Y74.222 E6.09664
G1 X223.727 Y74.786 E6.11764
G1 X224.349 Y76.06 E6.16479
G1 X224.932 Y77.316 E6.21085
G1 X225.239 Y78.011 E6.23612
G1 X225.684 Y79.073 E6.27442
G1 X226.191 Y80.378 E6.32098
G1 X226.489 Y81.18 E6.34944
G1 X226.842 Y82.092 E6.38196
G1 X227.852 Y84.597 E6.4718
G1 X228.928 Y87.059 E6.56116
G1 X230.072 Y89.488 E6.65046
G1 X230.856 Y91.039 E6.70827
G1 X230.898 Y91.138 E6.71184
G1 X231.375 Y92.057 E6.74628
G1 X231.457 Y92.199 E6.75173
G1 X232.163 Y93.54 E6.80214
G1 X233.471 Y95.867 E6.89093
G1 X234.871 Y98.199 E6.98139
G1 X236.296 Y100.427 E7.06936
G1 X237.843 Y102.703 E7.16089
G1 X239.222 Y104.625 E7.23957
G1 X239.612 Y105.193 E7.26248
G1 X240.27 Y106.208 E7.30271
G1 X240.639 Y106.811 E7.32623
G1 X241.342 Y108.027 E7.37294
G1 X241.983 Y109.198 E7.41734
G1 X242.82 Y110.781 E7.4769
G1 X243.767 Y112.624 E7.54582
G1 X244.597 Y114.28 E7.60743
G1 X245.632 Y116.393 E7.68569
G1 X246.554 Y118.328 E7.75698
G1 X247.535 Y120.465 E7.83518
G1 X247.982 Y121.467 E7.87168
G1 X248.569 Y122.833 E7.92113
G1 X249.347 Y124.767 E7.99046
G1 X249.789 Y125.977 E8.03331
G1 X250.206 Y127.239 E8.07751
G1 X250.488 Y128.138 E8.10885
G1 X250.763 Y129.109 E8.14242
G1 X251.313 Y131.254 E8.21607
G1 X251.72 Y133.095 E8.27878
G1 X252.047 Y134.801 E8.33655
G1 X252.416 Y137.078 E8.41328
G1 X252.644 Y138.783 E8.47049
G1 X252.812 Y140.142 E8.51603
G1 X252.965 Y141.559 E8.56344
G1 X253.116 Y143.134 E8.61606
G1 X253.224 Y144.394 E8.65812
G1 X253.344 Y145.974 E8.71083
G1 X253.489 Y148.15 E8.78336
G1 X253.592 Y149.888 E8.84127
G1 X254.057 Y158.854 E9.13988
G1 X254.237 Y162.685 E9.26744
G1 X254.33 Y165.094 E9.34762
G1 X254.396 Y167.24 E9.41903
G1 X254.439 Y169.102 E9.48098
G1 X254.467 Y171.238 E9.55203
G1 X254.475 Y173.571 E9.62963
G1 X254.449 Y176.264 E9.7192
G1 X254.412 Y178.109 E9.78058
G1 X254.321 Y181.019 E9.87741
G1 X254.216 Y183.424 E9.95748
G1 X254.118 Y185.232 E10.0177
G1 X253.966 Y187.582 E10.09602
G1 X253.765 Y190.193 E10.18312
G1 X253.523 Y192.809 E10.2705
G1 X253.259 Y195.268 E10.35276
G1 X252.951 Y197.82 E10.43826
G1 X252.599 Y200.409 E10.52516
G1 X252.227 Y202.86 E10.60761
G1 X252.085 Y203.733 E10.63703
G1 X251.639 Y206.279 E10.723
G1 X251.138 Y208.852 E10.81019
G1 X250.897 Y209.991 E10.84891
G1 X250.625 Y211.217 E10.89068
G1 X250.237 Y212.849 E10.94647
G1 X249.925 Y214.074 E10.98851
G1 X249.614 Y215.235 E11.02849
G1 X249.176 Y216.782 E11.08197
G1 X248.858 Y217.845 E11.11887
G1 X248.397 Y219.31 E11.16995
G1 X247.949 Y220.664 E11.21739
G1 X247.574 Y221.756 E11.25579
G1 X247.042 Y223.224 E11.30772
G1 X246.554 Y224.509 E11.35344
G1 X245.961 Y226.014 E11.40724
G1 X245.481 Y227.187 E11.4494
G1 X244.79 Y228.81 E11.50807
G1 X244.232 Y230.073 E11.55399
G1 X243.464 Y231.752 E11.6154
G1 X242.953 Y232.835 E11.65523
G1 X242.06 Y234.655 E11.72266
G1 X241.562 Y235.633 E11.75916
G1 X240.534 Y237.58 E11.83239
G1 X240.062 Y238.439 E11.86499
G1 X239.737 Y238.998 E11.88649
G1 X239.5 Y239.366 E11.90105
G1 X238.975 Y240.105 E11.9312
G1 X238.527 Y240.717 E11.95643
G1 X237.746 Y241.754 E11.99961
G1 X236.574 Y243.273 E12.06342
G1 X235.73 Y244.338 E12.10862
G1 X234.461 Y245.896 E12.17545
G1 X233.629 Y246.892 E12.21861
G1 X232.272 Y248.476 E12.28799
G1 X231.396 Y249.473 E12.33213
G1 X229.938 Y251.091 E12.40457
G1 X229.062 Y252.038 E12.44748
G1 X227.51 Y253.677 E12.52255
G1 X226.542 Y254.669 E12.56865
G1 X224.896 Y256.312 E12.646
G1 X223.832 Y257.345 E12.69533
G1 X222.205 Y258.883 E12.76979
G1 X221.087 Y259.912 E12.82033
G1 X219.344 Y261.471 E12.89811
G1 X218.287 Y262.388 E12.94465
G1 X217.647 Y262.915 E12.97223
G1 X217.26 Y263.203 E12.98827
G1 X216.757 Y263.539 E13.00839
G1 X215.94 Y264.062 E13.04065
G1 X214.704 Y264.83 E13.08905
G1 X212.959 Y265.882 E13.15682
G1 X211.73 Y266.6 E13.20416
G1 X210.058 Y267.547 E13.26808
G1 X208.787 Y268.244 E13.31629
G1 X207.192 Y269.089 E13.37632
G1 X205.899 Y269.754 E13.42468
G1 X204.301 Y270.549 E13.48405
G1 X203.034 Y271.157 E13.53079
G1 X201.473 Y271.884 E13.58806
G1 X200.183 Y272.463 E13.63509
G1 X198.659 Y273.121 E13.6903
G1 X197.272 Y273.698 E13.74027
G1 X195.854 Y274.264 E13.79105
G1 X194.305 Y274.857 E13.84621
G1 X192.824 Y275.397 E13.89865
G1 X191.447 Y275.876 E13.94714
G1 X189.922 Y276.383 E14.00059
G1 X188.365 Y276.873 E14.05488
G1 X186.782 Y277.345 E14.10982
G1 X185.23 Y277.781 E14.16344
G1 X183.571 Y278.22 E14.22051
G1 X182.014 Y278.605 E14.27386
G1 X180.255 Y279.013 E14.33392
G1 X178.75 Y279.338 E14.38513
G1 X176.782 Y279.733 E14.45189
G1 X175.323 Y280.005 E14.50125
G1 X173.296 Y280.352 E14.56965
G1 X171.798 Y280.589 E14.62009
G1 X169.587 Y280.906 E14.69438
G1 X168.22 Y281.084 E14.74024
G1 X165.933 Y281.352 E14.81682
G1 X164.514 Y281.5 E14.86427
G1 X162.104 Y281.718 E14.94476
G1 X160.836 Y281.817 E14.98706
G1 X158.368 Y281.98 E15.06933
G1 X156.909 Y282.056 E15.11792
G1 X154.556 Y282.149 E15.19624
G1 X153.122 Y282.188 E15.24395
G1 X150.725 Y282.221 E15.32368
G1 X149.263 Y282.221 E15.37231
G1 X146.851 Y282.189 E15.45254
G1 X145.425 Y282.15 E15.49999
G1 X143.021 Y282.054 E15.58001
G1 X141.529 Y281.975 E15.6297
G1 X139.14 Y281.816 E15.70934
G1 X137.9 Y281.719 E15.75071
G1 X135.385 Y281.49 E15.8347
G1 X134.06 Y281.351 E15.87901
G1 X131.668 Y281.069 E15.95912
G1 X130.352 Y280.896 E16.00327
G1 X128.119 Y280.576 E16.0783
G1 X126.679 Y280.348 E16.12679
G1 X124.626 Y279.994 E16.19608
G1 X123.113 Y279.712 E16.24727
G1 X121.22 Y279.331 E16.31149
G1 X119.726 Y279.008 E16.36233
G1 X117.937 Y278.594 E16.42341
G1 X116.32 Y278.191 E16.47883
G1 X114.713 Y277.764 E16.53414
G1 X113.125 Y277.316 E16.58902
G1 X111.576 Y276.853 E16.64279
G1 X110.075 Y276.38 E16.69513
G1 X108.505 Y275.859 E16.75015
G1 X107.097 Y275.369 E16.79973
G1 X105.587 Y274.817 E16.85321
G1 X104.207 Y274.289 E16.90235
G1 X102.596 Y273.644 E16.96007
G1 X101.326 Y273.115 E17.00583
G1 X99.785 Y272.449 E17.06166
G1 X98.415 Y271.833 E17.11162
G1 X96.902 Y271.127 E17.16715
G1 X95.629 Y270.514 E17.21415
G1 X94.046 Y269.723 E17.27301
G1 X92.78 Y269.073 E17.32034
G1 X91.145 Y268.204 E17.38192
G1 X89.903 Y267.523 E17.42903
G1 X88.187 Y266.55 E17.49465
G1 X86.964 Y265.834 E17.54178
G1 X85.251 Y264.799 E17.60835
G1 X84.02 Y264.033 E17.65657
G1 X83.356 Y263.607 E17.68281
G1 X82.754 Y263.209 E17.70681
G1 X82.34 Y262.904 E17.72392
G1 X81.839 Y262.493 E17.74547
G1 X80.592 Y261.412 E17.80036
G1 X78.806 Y259.815 E17.88005
G1 X77.816 Y258.904 E17.92479
G1 X76.084 Y257.267 E18.00406
G1 X75.072 Y256.282 E18.05103
G1 X73.429 Y254.638 E18.12833
G1 X72.468 Y253.65 E18.17418
G1 X70.916 Y252.013 E18.2492
G1 X70.034 Y251.06 E18.29239
G1 X68.564 Y249.429 E18.36542
G1 X67.672 Y248.413 E18.41039
G1 X66.345 Y246.86 E18.47833
G1 X65.482 Y245.825 E18.52315
G1 X64.202 Y244.251 E18.59063
G1 X63.443 Y243.293 E18.63128
G1 X62.221 Y241.71 E18.69779
G1 X61.43 Y240.657 E18.7416
G1 X60.577 Y239.479 E18.78997
G1 X60.31 Y239.069 E18.80624
G1 X59.874 Y238.32 E18.83507
G1 X59.442 Y237.533 E18.86493
G1 X58.446 Y235.647 E18.93587
G1 X57.91 Y234.59 E18.97528
G1 X57.012 Y232.761 E19.04305
G1 X56.511 Y231.692 E19.08232
G1 X55.743 Y230.011 E19.14379
G1 X55.197 Y228.774 E19.18876
G1 X54.52 Y227.181 E19.24633
G1 X54.012 Y225.944 E19.29081
G1 X53.43 Y224.469 E19.34355
G1 X52.953 Y223.212 E19.38827
G1 X52.408 Y221.703 E19.44163
G1 X52.023 Y220.579 E19.48114
G1 X51.57 Y219.205 E19.52926
G1 X51.144 Y217.847 E19.5766
G1 X50.793 Y216.672 E19.61739
G1 X50.372 Y215.176 E19.66908
G1 X50.072 Y214.05 E19.70784
G1 X49.742 Y212.74 E19.75277
G1 X49.431 Y211.439 E19.79726
G1 X49.166 Y210.262 E19.83738
G1 X48.876 Y208.902 E19.88364
G1 X48.643 Y207.753 E19.92263
G1 X48.207 Y205.423 E20.00147
G1 X47.772 Y202.839 E20.08862
G1 X47.391 Y200.329 E20.17306
G1 X47.033 Y197.682 E20.2619
G1 X46.74 Y195.26 E20.34305
G1 X46.465 Y192.678 E20.42941
G1 X46.23 Y190.115 E20.51501
G1 X46.045 Y187.71 E20.59524
G1 X45.889 Y185.334 E20.67444
G1 X45.783 Y183.368 E20.73992
G1 X45.675 Y180.878 E20.82282
G1 X45.599 Y178.488 E20.90235
G1 X45.545 Y175.865 E20.98961
G1 X45.525 Y173.511 E21.06791
G1 X45.533 Y171.278 E21.14218
G1 X45.555 Y169.436 E21.20345
G1 X45.603 Y167.304 E21.27438
G1 X45.671 Y165.042 E21.34964
G1 X45.768 Y162.618 E21.43033
G1 X45.969 Y158.344 E21.57264
G1 X46.407 Y149.925 E21.85304
G1 X46.55 Y147.54 E21.93251
G1 X46.653 Y146.03 E21.98284
G1 X46.792 Y144.24 E22.04256
G1 X46.914 Y142.838 E22.08937
G1 X47.133 Y140.649 E22.16254
G1 X47.31 Y139.13 E22.2134
G1 X47.421 Y138.266 E22.24237
G1 X47.668 Y136.535 E22.30053
G1 X47.951 Y134.827 E22.35811
G1 X48.308 Y132.96 E22.42133
G1 X48.703 Y131.174 E22.48217
G1 X49.223 Y129.163 E22.55126
G1 X49.691 Y127.563 E22.6067
G1 X50.089 Y126.346 E22.64929
G1 X50.408 Y125.423 E22.68177
G1 X50.708 Y124.625 E22.71013
G1 X51.466 Y122.748 E22.77746
G1 X52.096 Y121.296 E22.8301
G1 X52.904 Y119.504 E22.89548
G1 X53.639 Y117.92 E22.95356
G1 X54.091 Y116.967 E22.98864
G1 X55.156 Y114.778 E23.06961
G1 X56.488 Y112.123 E23.1684
G1 X57.283 Y110.584 E23.22602
G1 X58.047 Y109.144 E23.28023
G1 X58.636 Y108.069 E23.321
G1 X59.464 Y106.642 E23.37588
G1 X59.942 Y105.87 E23.40608
G1 X60.34 Y105.262 E23.43025
G1 X60.952 Y104.374 E23.46612
G1 X62.353 Y102.395 E23.54676
G1 X63.849 Y100.148 E23.63655
G1 X65.261 Y97.89 E23.72512
G1 X66.624 Y95.567 E23.8147
G1 X67.926 Y93.199 E23.90458
G1 X69.14 Y90.834 E23.993
G1 X70.311 Y88.386 E24.08326
G1 X71.39 Y85.952 E24.17181
G1 X72.426 Y83.427 E24.26259
G1 X73.013 Y81.9 E24.317
G1 X73.455 Y80.718 E24.35897
G1 X73.556 Y80.469 E24.36791
G1 X73.829 Y79.845 E24.39056
G1 X74.406 Y78.579 E24.43684
G1 X75.098 Y77.117 E24.49064
G1 X75.742 Y75.801 E24.53937
G1 X76.701 Y73.921 E24.60956
G1 X77.114 Y73.139 E24.63897
G1 X78.105 Y71.318 E24.70793
G1 X79.28 Y69.252 E24.78698
G1 X80.314 Y67.505 E24.8545
G1 X81.322 Y65.88 E24.9181
G1 X81.881 Y65.016 E24.95233
G1 X82.38 Y64.274 E24.98207
G1 X83.022 Y63.349 E25.01952
G1 X83.861 Y62.191 E25.06708
G0 F6000 X84.128 Y62.503
G1 F1200 X84.986 Y61.366 E25.11446
G1 X85.813 Y60.317 E25.15889
G1 X86.428 Y59.56 E25.19133
G1 X87.201 Y58.63 E25.23155
G1 X89.677 Y55.687 E25.35947
G1 X91.735 Y53.204 E25.46673
G1 X94.975 Y49.257 E25.63657
G1 X99.306 Y43.946 E25.86451
G1 X101.347 Y41.486 E25.97082
G1 X102.995 Y39.546 E26.05548
G1 X104.036 Y38.346 E26.10832
G1 X105.605 Y36.567 E26.18722
G1 X106.388 Y35.691 E26.22629
G1 X108.553 Y33.305 E26.33345
G1 X110.63 Y31.057 E26.43525
G1 X111.777 Y29.87 E26.49015
G1 X112.526 Y29.119 E26.52543
G1 X113.328 Y28.337 E26.56268
G1 X114.278 Y27.43 E26.60637
G1 X115.532 Y26.262 E26.66337
G1 X116.048 Y25.799 E26.68643
G1 X116.525 Y25.425 E26.70659
G1 X117.247 Y25.022 E26.73409
G1 X118.323 Y24.542 E26.77327
G1 X120.826 Y23.384 E26.865
G1 X123.251 Y22.176 E26.95511
G1 X126.824 Y20.241 E27.09026
G1 X127.375 Y19.988 E27.11042
G1 X127.982 Y19.803 E27.13153
G1 X132.369 Y18.794 E27.28125
G1 X133.237 Y18.601 E27.31083
G1 X135.31 Y18.17 E27.38125
G1 X136.598 Y17.939 E27.42477
G1 X138.118 Y17.718 E27.47586
G1 X139.546 Y17.555 E27.52366
G1 X140.591 Y17.462 E27.55856
G1 X141.621 Y17.387 E27.59291
G1 X143.127 Y17.293 E27.64309
G1 X145.221 Y17.192 E27.71282
G1 X146.039 Y17.162 E27.74005
G1 X147.557 Y17.136 E27.79054
G1 X152.846 Y17.138 E27.96645
G1 X154.131 Y17.17 E28.00921
G1 X155.378 Y17.219 E28.05071
G1 X157.188 Y17.313 E28.111
G1 X158.372 Y17.387 E28.15045
G1 X159.721 Y17.49 E28.19545
G1 X160.872 Y17.598 E28.2339
G1 X162.046 Y17.74 E28.27323
G1 X163.642 Y17.983 E28.32693
G1 X164.878 Y18.208 E28.36871
G1 X165.668 Y18.369 E28.39553
G1 X167.533 Y18.771 E28.45898
G1 X171.433 Y19.664 E28.59206
G1 X172.126 Y19.837 E28.61581
G1 X172.703 Y20.022 E28.63597
G1 X173.192 Y20.25 E28.65391
G1 X173.78 Y20.567 E28.67613
G1 X175.132 Y21.324 E28.72767
G1 X177.535 Y22.581 E28.81786
G1 X179.943 Y23.755 E28.90697
G1 X182.745 Y25.017 E29.00918
G1 X183.28 Y25.301 E29.02932
G1 X183.899 Y25.761 E29.05497
G1 X184.578 Y26.36 E29.08509
G1 X186.279 Y27.954 E29.16262
G1 X187.054 Y28.704 E29.19849
G1 X188.232 Y29.878 E29.25381
G1 X189.228 Y30.905 E29.30139
G1 X189.863 Y31.583 E29.33229
G1 X192.805 Y34.795 E29.47716
G1 X194.52 Y36.705 E29.56254
G1 X196.081 Y38.477 E29.64108
G1 X196.88 Y39.4 E29.68169
G1 X198.743 Y41.591 E29.77734
G1 X200.046 Y43.158 E29.84513
G1 X201.447 Y44.865 E29.91857
G1 X207.504 Y52.281 E30.23705
G1 X210.425 Y55.809 E30.38939
G1 X212.783 Y58.609 E30.51114
G1 X213.58 Y59.569 E30.55264
G1 X214.284 Y60.438 E30.58984
G1 X215.028 Y61.389 E30.63
G1 X215.832 Y62.461 E30.67457
G1 X216.678 Y63.644 E30.72294
G1 X217.716 Y65.184 E30.78471
G1 X218.383 Y66.216 E30.82558
G1 X219.171 Y67.48 E30.87512
G1 X219.991 Y68.836 E30.92782
G1 X220.746 Y70.121 E30.97739
G1 X221.602 Y71.622 E31.03487
