;FLAVOR:Marlin
;TIME:15499
;Filament used: 10.6382m
;Layer height: 0.2
;MINX:102.253
;MINY:102.254
;MINZ:0.2
;MAXX:197.751
;MAXY:197.75
;MAXZ:48
;Generated with Cura_SteamEngine 5.2.2
M140 S60
M105
M190 S60
M104 S200
M105
M109 S200
M82 ;absolute extrusion mode
; Ender 3 Max Custom Start G-code
G92 E0 ; Reset Extruder
G28 ; Home all axes
G1 Z2.0 F3000 ; Move Z Axis up little to prevent scratching of Heat Bed
G1 X0.1 Y20 Z0.3 F5000.0 ; Move to start position
G1 X0.1 Y200.0 Z0.3 F1500.0 E15 ; Draw the first line
G1 X0.4 Y200.0 Z0.3 F5000.0 ; Move to side a little
G1 X0.4 Y20 Z0.3 F1500.0 E30 ; Draw the second line
G92 E0 ; Reset Extruder
G1 Z2.0 F3000 ; Move Z Axis up little to prevent scratching of Heat Bed
G1 X5 Y20 Z0.3 F5000.0 ; Move over to prevent blob squish
G92 E0
G92 E0
G1 F1500 E-6.5
;LAYER_COUNT:240
;LAYER:0
M107
G0 F6000 X120.01 Y118.454 Z0.2
;TYPE:SKIRT
G1 F1500 E0
G1 F1200 X120.686 Y117.804 E0.03119
G1 X121.415 Y117.214 E0.06238
G1 X122.192 Y116.689 E0.09357
G1 X123.011 Y116.232 E0.12477
G1 X123.736 Y115.899 E0.1513
G1 X124.436 Y115.609 E0.1765
G1 X144.007 Y107.862 E0.87658
G1 X146.283 Y106.943 E0.95822
G1 X147.139 Y106.614 E0.98872
G1 X148.028 Y106.317 E1.01989
G1 X148.94 Y106.097 E1.0511
G1 X149.867 Y105.955 E1.08229
G1 X150.803 Y105.892 E1.11349
G1 X151.741 Y105.91 E1.1447
G1 X152.673 Y106.007 E1.17586
G1 X153.595 Y106.183 E1.20708
G1 X154.497 Y106.438 E1.23826
G1 X155.375 Y106.768 E1.26945
G1 X155.846 Y106.981 E1.28665
G1 X156.392 Y107.245 E1.30682
G1 X158.707 Y108.325 E1.39178
G1 X177.472 Y116.778 E2.07631
G1 X178.091 Y117.067 E2.09903
G1 X178.923 Y117.499 E2.13021
G1 X179.715 Y118.001 E2.1614
G1 X180.461 Y118.569 E2.19258
G1 X181.157 Y119.198 E2.22379
G1 X181.796 Y119.884 E2.25497
G1 X182.375 Y120.622 E2.28617
G1 X182.889 Y121.407 E2.31738
G1 X183.334 Y122.233 E2.34858
G1 X183.792 Y123.323 E2.38791
G1 X184.307 Y124.762 E2.43874
G1 X184.929 Y126.557 E2.50192
G1 X192.23 Y146.321 E3.2027
G1 X192.462 Y146.979 E3.2259
G1 X192.736 Y147.876 E3.2571
G1 X192.932 Y148.793 E3.28829
G1 X193.05 Y149.724 E3.3195
G1 X193.088 Y150.661 E3.35069
G1 X193.046 Y151.598 E3.38188
G1 X192.924 Y152.528 E3.41308
G1 X192.724 Y153.444 E3.44427
G1 X192.482 Y154.243 E3.47203
G1 X192.184 Y155.048 E3.50058
G1 X191.834 Y155.889 E3.53088
G1 X182.456 Y177.592 E4.31723
G1 X182.08 Y178.434 E4.3479
G1 X181.661 Y179.273 E4.37909
G1 X181.172 Y180.074 E4.41031
G1 X180.616 Y180.829 E4.44149
G1 X179.998 Y181.535 E4.4727
G1 X179.323 Y182.185 E4.50387
G1 X178.594 Y182.776 E4.53508
G1 X177.818 Y183.302 E4.56626
G1 X176.999 Y183.76 E4.59747
G1 X176.298 Y184.084 E4.62316
G1 X175.607 Y184.372 E4.64806
G1 X155.935 Y192.159 E5.35175
G1 X153.586 Y193.107 E5.436
G1 X152.91 Y193.369 E5.46011
G1 X152.022 Y193.67 E5.4913
G1 X151.111 Y193.895 E5.52251
G1 X150.185 Y194.041 E5.55369
G1 X149.25 Y194.108 E5.58486
G1 X148.312 Y194.094 E5.61607
G1 X147.379 Y194.001 E5.64725
G1 X146.457 Y193.829 E5.67845
G1 X145.553 Y193.579 E5.70964
G1 X144.673 Y193.253 E5.74085
G1 X144.165 Y193.024 E5.75939
G1 X143.475 Y192.692 E5.78486
G1 X141.236 Y191.649 E5.86701
G1 X122.704 Y183.303 E6.54301
G1 X121.894 Y182.925 E6.57274
G1 X121.062 Y182.491 E6.60395
G1 X120.271 Y181.988 E6.63513
G1 X119.525 Y181.42 E6.66631
G1 X118.83 Y180.79 E6.69751
G1 X118.191 Y180.103 E6.72872
G1 X117.614 Y179.364 E6.7599
G1 X117.101 Y178.579 E6.79109
G1 X116.657 Y177.753 E6.82228
G1 X116.198 Y176.658 E6.86177
G1 X115.698 Y175.253 E6.91137
G1 X115.089 Y173.496 E6.97322
G1 X107.817 Y153.81 E7.67123
G1 X107.535 Y153.011 E7.69941
G1 X107.262 Y152.114 E7.73059
G1 X107.066 Y151.197 E7.76178
G1 X106.949 Y150.266 E7.79299
G1 X106.912 Y149.329 E7.82418
G1 X106.955 Y148.392 E7.85538
G1 X107.077 Y147.462 E7.88657
G1 X107.279 Y146.546 E7.91777
G1 X107.492 Y145.838 E7.94236
G1 X107.585 Y145.563 E7.95202
G1 X107.861 Y144.832 E7.97801
G1 X108.118 Y144.221 E8.00005
G1 X117.579 Y122.325 E8.79339
G1 X117.925 Y121.552 E8.82156
G1 X118.345 Y120.714 E8.85274
G1 X118.835 Y119.914 E8.88394
G1 X119.391 Y119.159 E8.91513
G1 X120.01 Y118.454 E8.94633
G0 F6000 X120.346 Y118.682
G1 F1200 X121.014 Y118.049 E8.97694
G1 X121.735 Y117.476 E9.00757
G1 X122.503 Y116.968 E9.0382
G1 X123.312 Y116.529 E9.06881
G1 X123.889 Y116.268 E9.08987
G1 X124.583 Y115.981 E9.11485
G1 X144.181 Y108.223 E9.8159
G1 X146.433 Y107.314 E9.89667
G1 X147.282 Y106.988 E9.92692
G1 X148.155 Y106.697 E9.95753
G1 X149.051 Y106.483 E9.98817
G1 X149.961 Y106.347 E10.01877
G1 X150.88 Y106.291 E10.04939
G1 X151.8 Y106.314 E10.08
G1 X152.715 Y106.418 E10.11063
G1 X153.618 Y106.6 E10.14127
G1 X154.501 Y106.861 E10.17189
G1 X155.672 Y107.341 E10.21398
G1 X156.261 Y107.625 E10.23573
G1 X158.488 Y108.665 E10.31748
G1 X177.302 Y117.14 E11.0038
G1 X177.921 Y117.429 E11.02652
G1 X178.738 Y117.855 E11.05716
G1 X179.514 Y118.349 E11.08776
G1 X180.245 Y118.909 E11.11839
G1 X180.924 Y119.531 E11.14901
G1 X181.547 Y120.209 E11.17964
G1 X182.109 Y120.938 E11.21025
G1 X182.605 Y121.714 E11.24089
G1 X183.032 Y122.529 E11.27149
G1 X183.416 Y123.458 E11.30492
G1 X183.893 Y124.789 E11.35195
G1 X184.551 Y126.686 E11.41873
G1 X191.853 Y146.454 E12.11964
G1 X192.085 Y147.112 E12.14284
G1 X192.353 Y147.993 E12.17347
G1 X192.544 Y148.894 E12.20411
G1 X192.655 Y149.808 E12.23473
G1 X192.688 Y150.728 E12.26535
G1 X192.64 Y151.647 E12.29596
G1 X192.512 Y152.559 E12.32659
G1 X192.306 Y153.456 E12.3572
G1 X192.102 Y154.119 E12.38027
G1 X191.815 Y154.895 E12.40779
G1 X191.526 Y155.591 E12.43285
G1 X182.034 Y177.558 E13.22877
G1 X181.715 Y178.271 E13.25475
G1 X181.303 Y179.094 E13.28536
G1 X180.821 Y179.879 E13.316
G1 X180.272 Y180.618 E13.34662
G1 X179.662 Y181.307 E13.37722
G1 X178.994 Y181.941 E13.40786
G1 X178.274 Y182.514 E13.43846
G1 X177.506 Y183.023 E13.46911
G1 X176.698 Y183.463 E13.49971
G1 X176.143 Y183.715 E13.51998
G1 X175.459 Y184 E13.54463
G1 X155.787 Y191.787 E14.24832
G1 X153.442 Y192.734 E14.33243
G1 X152.766 Y192.996 E14.35654
G1 X151.894 Y193.291 E14.38716
G1 X150.999 Y193.509 E14.4178
G1 X150.089 Y193.649 E14.44842
G1 X149.171 Y193.709 E14.47902
G1 X148.25 Y193.69 E14.50966
G1 X147.335 Y193.591 E14.54027
G1 X146.432 Y193.412 E14.57089
G1 X145.547 Y193.156 E14.60153
G1 X144.338 Y192.663 E14.64496
G1 X143.639 Y192.327 E14.67075
G1 X141.422 Y191.294 E14.7521
G1 X122.726 Y182.873 E15.4341
G1 X122.064 Y182.563 E15.45841
G1 X121.248 Y182.136 E15.48904
G1 X120.472 Y181.641 E15.51966
G1 X119.742 Y181.08 E15.55028
G1 X119.063 Y180.458 E15.58091
G1 X118.441 Y179.779 E15.61153
G1 X117.88 Y179.049 E15.64215
G1 X117.385 Y178.273 E15.67277
G1 X116.959 Y177.457 E15.70338
G1 X116.575 Y176.524 E15.73694
G1 X116.075 Y175.122 E15.78645
G1 X115.441 Y173.295 E15.85077
G1 X108.136 Y153.515 E16.55209
G1 X107.912 Y152.878 E16.57454
G1 X107.645 Y151.997 E16.60516
G1 X107.455 Y151.097 E16.63576
G1 X107.344 Y150.183 E16.66638
G1 X107.312 Y149.263 E16.697
G1 X107.361 Y148.343 E16.72764
G1 X107.489 Y147.431 E16.75827
G1 X107.696 Y146.534 E16.78889
G1 X107.871 Y145.966 E16.80866
G1 X107.964 Y145.691 E16.81831
G1 X108.23 Y144.987 E16.84334
G1 X108.485 Y144.38 E16.86524
G1 X117.946 Y122.484 E17.65858
G1 X118.29 Y121.716 E17.68657
G1 X118.703 Y120.893 E17.7172
G1 X119.186 Y120.109 E17.74782
G1 X119.735 Y119.37 E17.77844
G1 X120.346 Y118.682 E17.80905
G0 F6000 X120.681 Y118.911
G1 F1200 X121.342 Y118.295 E17.8391
G1 X122.054 Y117.74 E17.86913
G1 X122.813 Y117.25 E17.89917
G1 X123.612 Y116.829 E17.92921
G1 X124.043 Y116.637 E17.94491
G1 X124.567 Y116.419 E17.96378
G1 X144.304 Y108.605 E18.66981
G1 X146.583 Y107.685 E18.75155
G1 X147.425 Y107.362 E18.78155
G1 X148.282 Y107.077 E18.81159
G1 X149.16 Y106.869 E18.8416
G1 X150.054 Y106.739 E18.87165
G1 X150.956 Y106.69 E18.90169
G1 X151.859 Y106.72 E18.93174
G1 X152.755 Y106.83 E18.96177
G1 X153.638 Y107.018 E18.99179
G1 X154.501 Y107.284 E19.02183
G1 X155.498 Y107.702 E19.05779
G1 X156.002 Y107.945 E19.0764
G1 X158.365 Y109.048 E19.16313
G1 X177.007 Y117.445 E19.84316
G1 X177.752 Y117.792 E19.8705
G1 X178.553 Y118.21 E19.90055
G1 X179.313 Y118.697 E19.93057
G1 X180.028 Y119.249 E19.96061
G1 X180.69 Y119.863 E19.99065
G1 X181.296 Y120.532 E20.02067
G1 X181.841 Y121.253 E20.05073
G1 X182.319 Y122.019 E20.08076
G1 X182.728 Y122.824 E20.11079
G1 X183.039 Y123.593 E20.13838
G1 X183.551 Y125.024 E20.18893
G1 X184.166 Y126.798 E20.25138
G1 X191.476 Y146.587 E20.95303
G1 X191.708 Y147.245 E20.97624
G1 X191.97 Y148.109 E21.00627
G1 X192.155 Y148.993 E21.03631
G1 X192.261 Y149.89 E21.06635
G1 X192.287 Y150.793 E21.0964
G1 X192.233 Y151.695 E21.12645
G1 X192.1 Y152.588 E21.15648
G1 X191.764 Y153.878 E21.20082
G1 X191.445 Y154.742 E21.23145
G1 X191.156 Y155.438 E21.25651
G1 X181.669 Y177.395 E22.05206
G1 X181.35 Y178.108 E22.07804
G1 X180.945 Y178.915 E22.10807
G1 X180.47 Y179.683 E22.13811
G1 X179.929 Y180.406 E22.16814
G1 X179.326 Y181.079 E22.19819
G1 X178.666 Y181.695 E22.22822
G1 X177.955 Y182.251 E22.25824
G1 X177.197 Y182.742 E22.28828
G1 X175.988 Y183.346 E22.33323
G1 X175.312 Y183.628 E22.35759
G1 X155.706 Y191.389 E23.05892
G1 X153.297 Y192.361 E23.14532
G1 X152.621 Y192.623 E23.16944
G1 X151.765 Y192.911 E23.19948
G1 X150.888 Y193.123 E23.22948
G1 X149.994 Y193.257 E23.25955
G1 X149.093 Y193.311 E23.28957
G1 X148.19 Y193.285 E23.31962
G1 X147.293 Y193.179 E23.34966
G1 X146.409 Y192.994 E23.3797
G1 X145.545 Y192.732 E23.40973
G1 X144.512 Y192.303 E23.44693
G1 X143.834 Y191.977 E23.47195
G1 X141.542 Y190.909 E23.55606
G1 X123.032 Y182.573 E24.23125
G1 X122.233 Y182.2 E24.26058
G1 X121.433 Y181.782 E24.2906
G1 X120.673 Y181.294 E24.32064
G1 X119.96 Y180.74 E24.35067
G1 X119.297 Y180.126 E24.38073
G1 X118.692 Y179.456 E24.41075
G1 X118.149 Y178.734 E24.4408
G1 X117.671 Y177.968 E24.47083
G1 X117.263 Y177.162 E24.50088
G1 X116.952 Y176.389 E24.52859
G1 X116.453 Y174.991 E24.57796
G1 X115.82 Y173.166 E24.64221
G1 X108.568 Y153.533 E25.33833
G1 X108.29 Y152.746 E25.36609
G1 X108.028 Y151.881 E25.39615
G1 X107.844 Y150.997 E25.42618
G1 X107.739 Y150.1 E25.45622
G1 X107.713 Y149.197 E25.48627
G1 X107.768 Y148.296 E25.51629
G1 X107.902 Y147.403 E25.54632
G1 X108.25 Y146.094 E25.59137
G1 X108.343 Y145.819 E25.60103
G1 X108.599 Y145.141 E25.62513
G1 X108.853 Y144.538 E25.6469
G1 X118.314 Y122.642 E26.44024
G1 X118.655 Y121.88 E26.468
G1 X119.061 Y121.073 E26.49805
G1 X119.536 Y120.305 E26.52808
G1 X120.078 Y119.582 E26.55814
G1 X120.681 Y118.911 E26.58814
G1 F1500 E20.08814
;MESH:Low_Poly_Planter.stl
G0 F6000 X127.274 Y125.945
G0 X149.028 Y182.437
;TYPE:WALL-INNER
G1 F1500 E26.58814
G1 F1200 X151.276 Y181.526 E26.66882
G1 X171.594 Y173.484 E27.39561
G1 X181.403 Y150.782 E28.21814
G1 X181.393 Y150.702 E28.22083
G1 X181.442 Y150.59 E28.22489
G1 X172.891 Y127.436 E29.04584
G1 X153.166 Y118.551 E29.76538
G1 X150.972 Y117.561 E29.84544
G1 X148.734 Y118.466 E29.92573
G1 X128.406 Y126.513 E30.65289
G1 X118.597 Y149.216 E31.47546
G1 X118.607 Y149.296 E31.47814
G1 X118.558 Y149.409 E31.48224
G1 X127.108 Y172.563 E32.30317
G1 X149.028 Y182.437 E33.10278
G0 F6000 X148.975 Y182.891
;TYPE:WALL-OUTER
G1 F1200 X151.423 Y181.898 E33.19065
G1 X171.896 Y173.795 E33.92298
G1 X181.81 Y150.85 E34.75432
G1 X181.791 Y150.741 E34.758
G1 X181.871 Y150.594 E34.76357
G1 X173.27 Y127.315 E35.58899
G1 X173.253 Y127.161 E35.59414
G1 X153.33 Y118.186 E36.32092
G1 X151.143 Y117.201 E36.40069
G1 X151.025 Y117.108 E36.40569
G1 X148.587 Y118.094 E36.49316
G1 X128.104 Y126.202 E37.22586
G1 X118.19 Y149.149 E38.05726
G1 X118.209 Y149.258 E38.06094
G1 X118.129 Y149.405 E38.06651
G1 X126.728 Y172.685 E38.89194
G1 X126.745 Y172.839 E38.89709
G1 X148.857 Y182.797 E39.70368
G1 X148.975 Y182.891 E39.7087
G0 F6000 X149.039 Y182.044
;TYPE:SKIN
G1 F1200 X151.113 Y181.204 E39.78312
G1 X171.324 Y173.205 E40.50607
G1 X181.055 Y150.67 E41.32249
G1 X181.066 Y150.615 E41.32435
G1 X172.603 Y127.701 E42.13679
G1 X150.961 Y117.954 E42.92624
G1 X148.897 Y118.789 E43.0003
G1 X128.676 Y126.792 E43.72361
G1 X118.926 Y149.362 E44.54134
G1 X127.396 Y172.299 E45.35458
G1 X149.039 Y182.044 E46.14403
G0 F6000 X149.136 Y182.285
G0 X127.241 Y172.444
G0 X126.847 Y171.558
G0 X127.277 Y171.401
G1 F1200 X128.414 Y172.537 E46.19749
G0 F6000 X128.225 Y172.956
G0 X129.253 Y173.419
G0 X129.442 Y173
G1 F1200 X126.946 Y170.504 E46.3149
G0 F6000 X126.615 Y169.607
G1 F1200 X130.471 Y173.463 E46.49627
G0 F6000 X130.281 Y173.882
G0 X131.311 Y174.346
G0 X131.5 Y173.927
G1 F1200 X126.283 Y168.71 E46.74166
G0 F6000 X125.952 Y167.813
G1 F1200 X132.53 Y174.39 E47.05105
G0 F6000 X132.34 Y174.809
G0 X133.369 Y175.273
G0 X133.559 Y174.854
G1 F1200 X125.621 Y166.916 E47.42443
G0 F6000 X125.29 Y166.019
G1 F1200 X134.587 Y175.317 E47.86175
G0 F6000 X134.397 Y175.736
G0 X135.426 Y176.199
G0 X135.616 Y175.78
G1 F1200 X124.958 Y165.122 E48.36307
G0 F6000 X124.627 Y164.225
G1 F1200 X136.646 Y176.244 E48.92841
G0 F6000 X136.456 Y176.663
G0 X137.485 Y177.127
G0 X137.675 Y176.707
G1 F1200 X124.295 Y163.328 E49.55774
G0 F6000 X123.964 Y162.43
G1 F1200 X138.703 Y177.17 E50.25104
G0 F6000 X138.513 Y177.59
G0 X139.541 Y178.053
G0 X139.732 Y177.633
G1 F1200 X123.633 Y161.534 E51.00829
G0 F6000 X123.301 Y160.636
G1 F1200 X140.761 Y178.096 E51.82955
G0 F6000 X140.571 Y178.517
G0 X141.601 Y178.98
G0 X141.791 Y178.56
G1 F1200 X122.97 Y159.74 E52.71481
G0 F6000 X122.639 Y158.843
G1 F1200 X142.82 Y179.023 E53.66404
G0 F6000 X142.63 Y179.444
G0 X143.658 Y179.907
G0 X143.848 Y179.487
G1 F1200 X122.307 Y157.945 E54.67729
G0 F6000 X121.976 Y157.049
G1 F1200 X144.877 Y179.95 E55.75448
G0 F6000 X144.686 Y180.37
G0 X145.716 Y180.834
G0 X145.907 Y180.414
G1 F1200 X121.644 Y156.151 E56.89574
G0 F6000 X121.314 Y155.255
G1 F1200 X146.936 Y180.877 E58.10092
G0 F6000 X146.746 Y181.298
G0 X147.774 Y181.761
G0 X147.964 Y181.34
G1 F1200 X120.982 Y154.357 E59.37009
G0 F6000 X120.65 Y153.46
G1 F1200 X148.993 Y181.803 E60.70326
G0 F6000 X149.426 Y181.67
G1 F1200 X120.319 Y152.563 E62.07236
G0 F6000 X119.988 Y151.666
G1 F1200 X149.828 Y181.507 E63.47597
G0 F6000 X150.231 Y181.343
G1 F1200 X119.657 Y150.77 E64.91405
G0 F6000 X119.325 Y149.872
G1 F1200 X150.634 Y181.181 E66.38673
G0 F6000 X151.036 Y181.017
G1 F1200 X119.213 Y149.195 E67.88356
G0 F6000 X119.384 Y148.8
G1 F1200 X151.441 Y180.857 E69.39143
G0 F6000 X151.846 Y180.696
G1 F1200 X119.555 Y148.405 E70.9103
G0 F6000 X119.725 Y148.01
G1 F1200 X152.252 Y180.536 E72.44024
G0 F6000 X152.657 Y180.376
G1 F1200 X119.896 Y147.614 E73.98124
G0 F6000 X120.067 Y147.22
G1 F1200 X153.063 Y180.216 E75.53327
G0 F6000 X153.468 Y180.055
G1 F1200 X120.237 Y146.825 E77.09634
G0 F6000 X120.408 Y146.43
G1 F1200 X153.873 Y179.895 E78.67043
G0 F6000 X154.278 Y179.734
G1 F1200 X120.579 Y146.035 E80.25552
G0 F6000 X120.749 Y145.639
G1 F1200 X154.683 Y179.574 E81.8517
G0 F6000 X155.089 Y179.414
G1 F1200 X120.92 Y145.245 E83.4589
G0 F6000 X121.091 Y144.85
G1 F1200 X155.494 Y179.253 E85.07712
G0 F6000 X155.9 Y179.093
G1 F1200 X121.261 Y144.454 E86.70643
G0 F6000 X121.432 Y144.06
G1 F1200 X156.305 Y178.932 E88.34672
G0 F6000 X156.71 Y178.772
G1 F1200 X121.603 Y143.665 E89.99805
G0 F6000 X121.773 Y143.269
G1 F1200 X157.115 Y178.611 E91.66043
G0 F6000 X157.521 Y178.451
G1 F1200 X121.944 Y142.875 E93.33384
G0 F6000 X122.115 Y142.479
G1 F1200 X157.926 Y178.291 E95.0183
G0 F6000 X158.331 Y178.13
G1 F1200 X122.285 Y142.084 E96.71379
G0 F6000 X122.456 Y141.69
G1 F1200 X158.736 Y177.97 E98.42029
G0 F6000 X159.142 Y177.809
G1 F1200 X122.627 Y141.294 E100.13785
G0 F6000 X122.797 Y140.899
G1 F1200 X159.548 Y177.649 E101.86648
G0 F6000 X159.953 Y177.489
G1 F1200 X122.968 Y140.504 E103.60614
G0 F6000 X123.139 Y140.109
G1 F1200 X160.358 Y177.328 E105.35681
G0 F6000 X160.763 Y177.168
G1 F1200 X123.309 Y139.714 E107.11853
G0 F6000 X123.48 Y139.319
G1 F1200 X161.168 Y177.007 E108.89126
G0 F6000 X161.573 Y176.847
G1 F1200 X123.651 Y138.924 E110.67502
G0 F6000 X123.822 Y138.529
G1 F1200 X161.979 Y176.687 E112.46983
G0 F6000 X162.384 Y176.527
G1 F1200 X123.992 Y138.134 E114.27569
G0 F6000 X124.163 Y137.739
G1 F1200 X162.79 Y176.366 E116.09259
G0 F6000 X163.195 Y176.206
G1 F1200 X124.334 Y137.344 E117.92051
G0 F6000 X124.504 Y136.949
G1 F1200 X163.6 Y176.045 E119.75947
