;FLAVOR:Marlin
;TIME:12447
;Filament used: 6.52475m
;Layer height: 0.16
;MINX:107.865
;MINY:72.275
;MINZ:0.2
;MAXX:192.66
;MAXY:228.197
;MAXZ:9.48
;Generated with Cura_SteamEngine 5.2.2
M140 S60
M105
M190 S60
M104 S200
M105
M109 S200
M82 ;absolute extrusion mode
; Ender 3 Max Custom Start G-code
G92 E0 ; Reset Extruder
G28 ; Home all axes
G1 Z2.0 F3000 ; Move Z Axis up little to prevent scratching of Heat Bed
G1 X0.1 Y20 Z0.3 F5000.0 ; Move to start position
G1 X0.1 Y200.0 Z0.3 F1500.0 E15 ; Draw the first line
G1 X0.4 Y200.0 Z0.3 F5000.0 ; Move to side a little
G1 X0.4 Y20 Z0.3 F1500.0 E30 ; Draw the second line
G92 E0 ; Reset Extruder
G1 Z2.0 F3000 ; Move Z Axis up little to prevent scratching of Heat Bed
G1 X5 Y20 Z0.3 F5000.0 ; Move over to prevent blob squish
G92 E0
G92 E0
G1 F1500 E-6.5
;LAYER_COUNT:56
;LAYER:0
M107
G1 F300 Z0.4
G0 F6000 X111.417 Y79.872 Z0.4
;TYPE:SKIRT
G1 F300 Z0.2
G1 F1500 E0
G1 F1200 X111.705 Y79.486 E0.01602
G1 X112.162 Y78.914 E0.04037
G1 X112.446 Y78.582 E0.0549
G1 X112.886 Y78.098 E0.07666
G1 X113.154 Y77.82 E0.0895
G1 X113.675 Y77.313 E0.11368
G1 X114.19 Y76.845 E0.13682
G1 X114.786 Y76.338 E0.16285
G1 X115.41 Y75.863 E0.18893
G1 X115.881 Y75.53 E0.20812
G1 X116.492 Y75.128 E0.23244
G1 X116.891 Y74.884 E0.248
G1 X117.487 Y74.544 E0.27082
G1 X117.954 Y74.297 E0.28839
G1 X118.54 Y74.009 E0.31011
G1 X118.852 Y73.867 E0.32151
G1 X119.516 Y73.591 E0.34543
G1 X119.997 Y73.409 E0.36253
G1 X120.636 Y73.189 E0.38501
G1 X121.143 Y73.032 E0.40266
G1 X121.853 Y72.838 E0.42714
G1 X122.282 Y72.736 E0.44181
G1 X122.921 Y72.604 E0.46351
G1 X123.319 Y72.534 E0.47695
G1 X123.982 Y72.438 E0.49923
G1 X124.519 Y72.377 E0.51721
G1 X125.226 Y72.32 E0.5408
G1 X125.961 Y72.29 E0.56527
G1 X126.931 Y72.275 E0.59753
G1 X173.074 Y72.275 E2.13226
G1 X174.141 Y72.292 E2.16775
G1 X174.783 Y72.321 E2.18912
G1 X175.28 Y72.358 E2.2057
G1 X176.01 Y72.437 E2.23012
G1 X176.524 Y72.51 E2.24739
G1 X177.179 Y72.624 E2.2695
G1 X177.546 Y72.699 E2.28196
G1 X178.254 Y72.868 E2.30617
G1 X178.841 Y73.029 E2.32641
G1 X179.477 Y73.224 E2.34854
G1 X179.8 Y73.334 E2.35989
G1 X180.462 Y73.584 E2.38342
G1 X181.003 Y73.808 E2.4029
G1 X181.594 Y74.073 E2.42444
G1 X181.891 Y74.217 E2.43542
G1 X182.512 Y74.543 E2.45875
G1 X182.95 Y74.791 E2.47549
G1 X183.544 Y75.152 E2.49861
G1 X183.956 Y75.421 E2.51497
G1 X184.532 Y75.825 E2.53837
G1 X184.977 Y76.158 E2.55686
G1 X185.54 Y76.609 E2.58085
G1 X185.804 Y76.835 E2.59241
G1 X186.276 Y77.262 E2.61358
G1 X186.589 Y77.563 E2.62802
G1 X187.103 Y78.093 E2.65258
G1 X187.563 Y78.599 E2.67532
G1 X188.072 Y79.196 E2.70142
G1 X188.548 Y79.822 E2.72757
G1 X188.878 Y80.289 E2.74659
G1 X189.274 Y80.889 E2.7705
G1 X189.532 Y81.31 E2.78693
G1 X189.868 Y81.899 E2.80948
G1 X190.065 Y82.27 E2.82345
G1 X190.369 Y82.888 E2.84636
G1 X190.592 Y83.38 E2.86433
G1 X190.815 Y83.909 E2.88342
G1 X191.108 Y84.69 E2.91116
G1 X191.229 Y85.048 E2.92373
G1 X191.473 Y85.877 E2.95247
G1 X191.624 Y86.475 E2.97299
G1 X191.794 Y87.271 E3.00006
G1 X191.881 Y87.768 E3.01684
G1 X191.982 Y88.48 E3.04076
G1 X192.044 Y89.052 E3.0599
G1 X192.106 Y90.011 E3.09186
G1 X192.134 Y91.376 E3.13727
G1 X192.137 Y198.418 E6.6975
G1 X192.174 Y201.026 E6.78425
G1 X192.281 Y203.547 E6.86818
G1 X192.456 Y206.014 E6.95044
G1 X192.543 Y206.914 E6.98051
G1 X192.601 Y207.635 E7.00457
G1 X192.649 Y208.527 E7.03428
G1 X192.66 Y209.224 E7.05746
G1 X192.651 Y209.779 E7.07592
G1 X192.618 Y210.461 E7.09863
G1 X192.585 Y210.882 E7.11268
G1 X192.511 Y211.562 E7.13543
G1 X192.427 Y212.156 E7.15538
G1 X192.313 Y212.816 E7.17766
G1 X192.244 Y213.154 E7.18913
G1 X192.075 Y213.861 E7.21331
G1 X191.898 Y214.507 E7.23559
G1 X191.696 Y215.164 E7.25845
G1 X191.559 Y215.564 E7.27251
G1 X191.315 Y216.208 E7.29542
G1 X191.132 Y216.65 E7.31133
G1 X190.858 Y217.259 E7.33354
G1 X190.612 Y217.764 E7.35222
G1 X190.269 Y218.413 E7.37664
G1 X190.064 Y218.771 E7.39036
G1 X189.725 Y219.325 E7.41196
G1 X189.436 Y219.767 E7.42953
G1 X189.153 Y220.178 E7.44612
G1 X188.761 Y220.722 E7.46843
G1 X188.181 Y221.459 E7.49962
G1 X187.784 Y221.896 E7.51926
G1 X187.184 Y222.523 E7.54812
G1 X186.644 Y223.05 E7.57322
G1 X185.979 Y223.643 E7.60285
G1 X185.436 Y224.097 E7.62639
G1 X184.691 Y224.667 E7.65759
G1 X184.152 Y225.022 E7.67906
G1 X183.31 Y225.541 E7.71196
G1 X182.705 Y225.888 E7.73515
G1 X182.44 Y226.029 E7.74514
G1 X181.802 Y226.342 E7.76877
G1 X181.2 Y226.614 E7.79074
G1 X180.58 Y226.872 E7.81308
G1 X180.217 Y227.01 E7.826
G1 X179.553 Y227.238 E7.84935
G1 X179.038 Y227.397 E7.86727
G1 X178.356 Y227.584 E7.89079
G1 X177.851 Y227.705 E7.90807
G1 X177.19 Y227.842 E7.93052
G1 X176.723 Y227.924 E7.94629
G1 X176.038 Y228.022 E7.9693
G1 X175.177 Y228.111 E7.99809
G1 X174.638 Y228.151 E8.01607
G1 X174.015 Y228.179 E8.03681
G1 X172.886 Y228.197 E8.07437
G1 X165.7 Y228.185 E8.31337
G1 X159.464 Y228.185 E8.52078
G1 X158.135 Y228.164 E8.56499
G1 X157.469 Y228.133 E8.58717
G1 X155.982 Y228.017 E8.63678
G1 X154.964 Y227.923 E8.67078
G1 X152.471 Y227.762 E8.75387
G1 X149.907 Y227.669 E8.8392
G1 X147.963 Y227.648 E8.90387
G1 X126.927 Y227.646 E9.60353
G1 X125.865 Y227.629 E9.63885
G1 X125.174 Y227.596 E9.66186
G1 X124.63 Y227.553 E9.68001
G1 X123.948 Y227.477 E9.70284
G1 X123.491 Y227.412 E9.71819
G1 X122.793 Y227.29 E9.74176
G1 X122.309 Y227.189 E9.7582
G1 X121.677 Y227.038 E9.77981
G1 X121.334 Y226.945 E9.79163
G1 X120.668 Y226.741 E9.8148
G1 X120.104 Y226.549 E9.83462
G1 X119.448 Y226.302 E9.85793
G1 X119.085 Y226.152 E9.87099
G1 X118.485 Y225.883 E9.89286
G1 X118.048 Y225.671 E9.90902
G1 X117.425 Y225.344 E9.93242
G1 X117.058 Y225.136 E9.94645
G1 X116.462 Y224.773 E9.96966
G1 X116.02 Y224.484 E9.98723
G1 X115.458 Y224.091 E10.01003
G1 X115.071 Y223.802 E10.0261
G1 X114.503 Y223.347 E10.05031
G1 X114.171 Y223.063 E10.06484
G1 X113.683 Y222.62 E10.08676
G1 X113.398 Y222.345 E10.09993
G1 X112.902 Y221.834 E10.12362
G1 X112.475 Y221.365 E10.14471
G1 X112.032 Y220.848 E10.16736
G1 X111.824 Y220.589 E10.1784
G1 X111.426 Y220.062 E10.20037
G1 X111.134 Y219.65 E10.21717
G1 X110.729 Y219.035 E10.24166
G1 X110.465 Y218.604 E10.25847
G1 X110.131 Y218.019 E10.28087
G1 X109.936 Y217.652 E10.2947
G1 X109.631 Y217.032 E10.31768
G1 X109.403 Y216.529 E10.33605
G1 X109.171 Y215.978 E10.35593
G1 X108.886 Y215.212 E10.38311
G1 X108.762 Y214.843 E10.39606
G1 X108.503 Y213.949 E10.42702
G1 X108.332 Y213.249 E10.45099
G1 X108.182 Y212.53 E10.47541
G1 X108.13 Y212.232 E10.48548
G1 X108.032 Y211.547 E10.50849
G1 X107.958 Y210.876 E10.53094
G1 X107.894 Y209.892 E10.56374
G1 X107.866 Y208.505 E10.60988
G1 X107.865 Y91.336 E14.50694
G1 X107.882 Y90.269 E14.54243
G1 X107.912 Y89.621 E14.56401
G1 X107.948 Y89.141 E14.58002
G1 X108.025 Y88.428 E14.60387
G1 X108.103 Y87.875 E14.62244
G1 X108.22 Y87.199 E14.64526
G1 X108.298 Y86.819 E14.65816
G1 X108.459 Y86.143 E14.68128
G1 X108.582 Y85.691 E14.69686
G1 X108.778 Y85.049 E14.71918
G1 X108.943 Y84.562 E14.73629
G1 X109.207 Y83.861 E14.7612
G1 X109.387 Y83.429 E14.77677
G1 X109.649 Y82.849 E14.79793
G1 X109.844 Y82.448 E14.81276
G1 X110.166 Y81.835 E14.83579
G1 X110.374 Y81.468 E14.84982
G1 X110.737 Y80.872 E14.87303
G1 X111.026 Y80.43 E14.8906
G1 X111.417 Y79.872 E14.91326
G0 F6000 X111.737 Y80.111
G1 F1200 X112.025 Y79.725 E14.92928
G1 X112.466 Y79.174 E14.95275
G1 X112.75 Y78.842 E14.96728
G1 X113.174 Y78.375 E14.98826
G1 X113.442 Y78.097 E15.00111
G1 X113.944 Y77.609 E15.02439
G1 X114.459 Y77.141 E15.04754
G1 X115.04 Y76.647 E15.0729
G1 X115.641 Y76.19 E15.09801
G1 X116.112 Y75.857 E15.1172
G1 X116.701 Y75.469 E15.14066
G1 X117.1 Y75.225 E15.15621
G1 X117.674 Y74.898 E15.17819
G1 X118.141 Y74.651 E15.19576
G1 X118.706 Y74.373 E15.2167
G1 X119.018 Y74.231 E15.2281
G1 X119.658 Y73.965 E15.25115
G1 X120.139 Y73.783 E15.26826
G1 X120.754 Y73.571 E15.2899
G1 X121.261 Y73.414 E15.30755
G1 X121.945 Y73.227 E15.33113
G1 X122.374 Y73.125 E15.3458
G1 X122.99 Y72.998 E15.36672
G1 X123.388 Y72.928 E15.38016
G1 X124.028 Y72.836 E15.40166
G1 X124.565 Y72.775 E15.41964
G1 X125.246 Y72.72 E15.44236
G1 X125.967 Y72.69 E15.46637
G1 X126.937 Y72.675 E15.49863
G1 X173.068 Y72.675 E17.03295
G1 X174.135 Y72.692 E17.06845
G1 X174.753 Y72.72 E17.08902
G1 X175.25 Y72.757 E17.1056
G1 X175.953 Y72.833 E17.12912
G1 X176.467 Y72.906 E17.14639
G1 X177.099 Y73.016 E17.16772
G1 X177.466 Y73.091 E17.18018
G1 X178.148 Y73.254 E17.2035
G1 X178.735 Y73.415 E17.22375
G1 X179.348 Y73.603 E17.24507
G1 X179.671 Y73.713 E17.25642
G1 X180.309 Y73.953 E17.27909
G1 X180.85 Y74.177 E17.29857
G1 X181.419 Y74.433 E17.31932
G1 X181.716 Y74.577 E17.3303
G1 X182.315 Y74.891 E17.35279
G1 X182.753 Y75.139 E17.36953
G1 X183.325 Y75.487 E17.3918
G1 X183.737 Y75.756 E17.40817
G1 X184.293 Y76.145 E17.43074
G1 X184.738 Y76.478 E17.44922
G1 X185.28 Y76.913 E17.47234
G1 X185.544 Y77.139 E17.4839
G1 X185.998 Y77.551 E17.50429
G1 X186.311 Y77.852 E17.51873
G1 X186.807 Y78.362 E17.54239
G1 X187.267 Y78.868 E17.56514
G1 X187.763 Y79.45 E17.59057
G1 X188.222 Y80.053 E17.61578
G1 X188.552 Y80.52 E17.6348
G1 X188.933 Y81.098 E17.65782
G1 X189.191 Y81.519 E17.67424
G1 X189.515 Y82.087 E17.69599
G1 X189.712 Y82.458 E17.70996
G1 X190.005 Y83.053 E17.73202
G1 X190.228 Y83.545 E17.74999
G1 X190.443 Y84.055 E17.7684
G1 X190.729 Y84.818 E17.7955
G1 X190.85 Y85.176 E17.80807
G1 X191.085 Y85.975 E17.83577
G1 X191.236 Y86.573 E17.85628
G1 X191.4 Y87.34 E17.88237
G1 X191.487 Y87.837 E17.89915
G1 X191.584 Y88.523 E17.9222
G1 X191.646 Y89.095 E17.94133
G1 X191.706 Y90.02 E17.97216
G1 X191.734 Y91.385 E18.01757
G1 X191.737 Y198.424 E21.5777
G1 X191.774 Y201.049 E21.66502
G1 X191.881 Y203.557 E21.74851
G1 X192.057 Y206.049 E21.8316
G1 X192.127 Y206.753 E21.85513
G1 X192.202 Y207.667 E21.88564
G1 X192.249 Y208.546 E21.91491
G1 X192.26 Y209.218 E21.93727
G1 X192.251 Y209.773 E21.95573
G1 X192.22 Y210.429 E21.97757
G1 X192.187 Y210.85 E21.99162
G1 X192.115 Y211.506 E22.01357
G1 X192.031 Y212.1 E22.03352
G1 X191.921 Y212.736 E22.05499
G1 X191.852 Y213.074 E22.06646
G1 X191.689 Y213.755 E22.08975
G1 X191.512 Y214.401 E22.11203
G1 X191.317 Y215.035 E22.13409
G1 X191.18 Y215.435 E22.14815
G1 X190.946 Y216.055 E22.17019
G1 X190.763 Y216.497 E22.18611
G1 X190.498 Y217.084 E22.20753
G1 X190.252 Y217.589 E22.22621
G1 X189.922 Y218.214 E22.24972
G1 X189.717 Y218.572 E22.26344
G1 X189.39 Y219.106 E22.28426
G1 X189.101 Y219.548 E22.30183
G1 X188.829 Y219.944 E22.31781
G1 X188.437 Y220.488 E22.34011
G1 X187.867 Y221.211 E22.37073
G1 X187.495 Y221.62 E22.38912
G1 X186.895 Y222.247 E22.41798
G1 X186.375 Y222.755 E22.44216
G1 X185.722 Y223.336 E22.47123
G1 X185.179 Y223.79 E22.49477
G1 X184.448 Y224.349 E22.52538
G1 X183.942 Y224.682 E22.54553
G1 X183.1 Y225.201 E22.57843
G1 X182.517 Y225.535 E22.60077
G1 X182.252 Y225.676 E22.61076
G1 X181.638 Y225.978 E22.63352
G1 X181.036 Y226.25 E22.65549
G1 X180.438 Y226.498 E22.67702
G1 X180.075 Y226.636 E22.68994
G1 X179.435 Y226.856 E22.71245
G1 X178.92 Y227.015 E22.73037
G1 X178.263 Y227.195 E22.75303
G1 X177.758 Y227.316 E22.7703
G1 X177.121 Y227.448 E22.79194
G1 X176.654 Y227.53 E22.80771
G1 X175.994 Y227.625 E22.82989
G1 X175.147 Y227.712 E22.85821
G1 X174.608 Y227.752 E22.87618
G1 X174.008 Y227.779 E22.89616
G1 X172.886 Y227.797 E22.93348
G1 X165.7 Y227.785 E23.17249
G1 X159.288 Y227.784 E23.38575
G1 X158.141 Y227.765 E23.42391
G1 X157.5 Y227.734 E23.44525
G1 X156.019 Y227.619 E23.49466
G1 X154.991 Y227.524 E23.529
G1 X152.477 Y227.361 E23.61279
G1 X149.925 Y227.269 E23.69772
G1 X147.967 Y227.248 E23.76285
G1 X126.933 Y227.246 E24.46244
G1 X125.871 Y227.229 E24.49777
G1 X125.206 Y227.197 E24.51991
G1 X124.662 Y227.154 E24.53806
G1 X124.004 Y227.081 E24.56008
G1 X123.547 Y227.016 E24.57544
G1 X122.875 Y226.898 E24.59813
G1 X122.391 Y226.797 E24.61457
G1 X121.782 Y226.652 E24.63539
G1 X121.439 Y226.559 E24.64721
G1 X120.797 Y226.362 E24.66955
G1 X120.233 Y226.17 E24.68937
G1 X119.601 Y225.933 E24.71182
G1 X119.238 Y225.783 E24.72488
G1 X118.659 Y225.523 E24.74599
G1 X118.222 Y225.311 E24.76214
G1 X117.622 Y224.996 E24.78468
G1 X117.255 Y224.788 E24.79871
G1 X116.681 Y224.438 E24.82107
G1 X116.239 Y224.149 E24.83864
G1 X115.698 Y223.77 E24.86061
G1 X115.311 Y223.481 E24.87667
G1 X114.763 Y223.043 E24.90001
G1 X114.431 Y222.759 E24.91454
G1 X113.961 Y222.332 E24.93566
G1 X113.676 Y222.057 E24.94883
G1 X113.198 Y221.565 E24.97165
G1 X112.771 Y221.096 E24.99274
G1 X112.344 Y220.597 E25.01459
G1 X112.136 Y220.338 E25.02563
G1 X111.753 Y219.83 E25.04679
G1 X111.461 Y219.418 E25.06359
G1 X111.07 Y218.826 E25.08719
G1 X110.806 Y218.395 E25.104
G1 X110.484 Y217.832 E25.12557
G1 X110.289 Y217.465 E25.13939
G1 X109.996 Y216.867 E25.16154
G1 X109.768 Y216.364 E25.17991
G1 X109.544 Y215.833 E25.19908
G1 X109.265 Y215.085 E25.22563
G1 X109.141 Y214.716 E25.23858
G1 X108.892 Y213.854 E25.26842
G1 X108.721 Y213.154 E25.29239
G1 X108.576 Y212.461 E25.31594
G1 X108.524 Y212.163 E25.326
G1 X108.43 Y211.503 E25.34817
G1 X108.356 Y210.832 E25.37062
G1 X108.294 Y209.884 E25.40222
G1 X108.266 Y208.497 E25.44836
G1 X108.265 Y91.342 E29.34495
G1 X108.282 Y90.275 E29.38045
G1 X108.311 Y89.651 E29.40122
G1 X108.347 Y89.171 E29.41723
G1 X108.421 Y88.484 E29.44021
G1 X108.499 Y87.931 E29.45879
G1 X108.611 Y87.28 E29.48076
G1 X108.689 Y86.9 E29.49366
G1 X108.845 Y86.248 E29.51596
G1 X108.968 Y85.796 E29.53154
G1 X109.157 Y85.178 E29.55303
G1 X109.322 Y84.691 E29.57014
G1 X109.576 Y84.015 E29.59416
G1 X109.756 Y83.583 E29.60972
G1 X110.008 Y83.024 E29.63012
G1 X110.203 Y82.623 E29.64495
G1 X110.514 Y82.032 E29.66716
G1 X110.722 Y81.665 E29.68119
G1 X111.072 Y81.091 E29.70355
G1 X111.361 Y80.649 E29.72111
G1 X111.737 Y80.111 E29.74294
G0 F6000 X112.058 Y80.35
G1 F1200 X112.346 Y79.964 E29.75896
G1 X112.77 Y79.434 E29.78154
G1 X113.054 Y79.102 E29.79607
G1 X113.462 Y78.653 E29.81625
G1 X113.73 Y78.375 E29.82909
G1 X114.213 Y77.905 E29.85151
G1 X114.728 Y77.437 E29.87465
G1 X115.293 Y76.957 E29.89931
G1 X115.872 Y76.516 E29.92352
G1 X116.343 Y76.183 E29.9427
G1 X116.91 Y75.81 E29.96527
G1 X117.309 Y75.566 E29.98083
G1 X117.861 Y75.251 E30.00197
G1 X118.328 Y75.004 E30.01954
G1 X118.872 Y74.737 E30.0397
G1 X119.184 Y74.595 E30.0511
G1 X119.799 Y74.339 E30.07325
G1 X120.28 Y74.157 E30.09036
G1 X120.873 Y73.953 E30.11122
G1 X121.38 Y73.796 E30.12887
G1 X122.038 Y73.617 E30.15155
G1 X122.467 Y73.515 E30.16622
G1 X123.059 Y73.392 E30.18633
G1 X123.457 Y73.322 E30.19977
G1 X124.073 Y73.233 E30.22047
G1 X124.61 Y73.172 E30.23844
G1 X125.265 Y73.119 E30.2603
G1 X125.973 Y73.09 E30.28387
G1 X126.943 Y73.075 E30.31613
G1 X173.061 Y73.075 E31.85002
G1 X174.128 Y73.092 E31.88552
G1 X174.723 Y73.119 E31.90533
G1 X175.22 Y73.156 E31.9219
G1 X175.897 Y73.229 E31.94455
G1 X176.411 Y73.302 E31.96182
G1 X177.019 Y73.408 E31.98235
G1 X177.386 Y73.483 E31.99481
G1 X178.042 Y73.639 E32.01723
G1 X178.629 Y73.8 E32.03748
G1 X179.219 Y73.982 E32.05801
G1 X179.542 Y74.092 E32.06936
G1 X180.156 Y74.323 E32.09118
G1 X180.697 Y74.547 E32.11066
G1 X181.245 Y74.793 E32.13063
G1 X181.542 Y74.937 E32.14161
G1 X182.118 Y75.239 E32.16324
G1 X182.556 Y75.487 E32.17999
G1 X183.106 Y75.822 E32.2014
G1 X183.518 Y76.091 E32.21777
G1 X184.053 Y76.465 E32.23948
G1 X184.498 Y76.798 E32.25797
G1 X185.02 Y77.216 E32.28021
G1 X185.284 Y77.442 E32.29177
G1 X185.721 Y77.839 E32.3114
G1 X186.034 Y78.14 E32.32585
G1 X186.511 Y78.631 E32.34862
G1 X186.971 Y79.137 E32.37136
G1 X187.453 Y79.703 E32.39609
G1 X187.895 Y80.284 E32.42037
G1 X188.225 Y80.751 E32.43939
G1 X188.592 Y81.307 E32.46154
G1 X188.85 Y81.728 E32.47797
G1 X189.162 Y82.274 E32.49888
G1 X189.359 Y82.645 E32.51285
G1 X189.64 Y83.218 E32.53408
G1 X189.863 Y83.71 E32.55205
G1 X190.07 Y84.2 E32.56974
G1 X190.35 Y84.946 E32.59624
G1 X190.471 Y85.304 E32.60881
G1 X190.698 Y86.073 E32.63548
G1 X190.849 Y86.671 E32.65599
G1 X191.006 Y87.409 E32.68109
G1 X191.093 Y87.906 E32.69787
G1 X191.187 Y88.566 E32.72004
G1 X191.249 Y89.138 E32.73918
G1 X191.306 Y90.028 E32.76884
G1 X191.336 Y91.602 E32.8212
G1 X191.337 Y198.43 E36.37432
G1 X191.374 Y201.036 E36.461
G1 X191.483 Y203.601 E36.54639
G1 X191.661 Y206.116 E36.63025
