;FLAVOR:Marlin
;TIME:18632
;Filament used: 12.3988m
;Layer height: 0.2
;MINX:96.5
;MINY:78.88
;MINZ:0.2
;MAXX:203.5
;MAXY:221.121
;MAXZ:19
;Generated with Cura_SteamEngine 5.2.2
M140 S60
M105
M190 S60
M104 S215
M105
M109 S215
M82 ;absolute extrusion mode
; Ender 3 Max Custom Start G-code
G92 E0 ; Reset Extruder
G28 ; Home all axes
G1 Z2.0 F3000 ; Move Z Axis up little to prevent scratching of Heat Bed
G1 X0.1 Y20 Z0.3 F5000.0 ; Move to start position
G1 X0.1 Y200.0 Z0.3 F1500.0 E15 ; Draw the first line
G1 X0.4 Y200.0 Z0.3 F5000.0 ; Move to side a little
G1 X0.4 Y20 Z0.3 F1500.0 E30 ; Draw the second line
G92 E0 ; Reset Extruder
G1 Z2.0 F3000 ; Move Z Axis up little to prevent scratching of Heat Bed
G1 X5 Y20 Z0.3 F5000.0 ; Move over to prevent blob squish
G92 E0
G92 E0
G1 F1500 E-6.5
;LAYER_COUNT:95
;LAYER:0
M107
G0 F6000 X102.799 Y83.47 Z0.2
;TYPE:SKIRT
G1 F1500 E0
G1 F900 X103.388 Y82.74 E0.03182
G1 X104.037 Y82.063 E0.06364
G1 X104.741 Y81.444 E0.09544
G1 X105.496 Y80.887 E0.12727
G1 X106.295 Y80.397 E0.15907
G1 X107.134 Y79.976 E0.19091
G1 X108.091 Y79.599 E0.22581
G1 X108.425 Y79.485 E0.23778
G1 X109.324 Y79.22 E0.26958
G1 X110.243 Y79.033 E0.30139
G1 X111.175 Y78.924 E0.33323
G1 X111.797 Y78.896 E0.35435
G1 X112.769 Y78.88 E0.38733
G1 X119.164 Y78.893 E0.60428
G1 X181.068 Y78.894 E2.7044
G1 X187.267 Y78.88 E2.9147
G1 X188.095 Y78.889 E2.94279
G1 X189.031 Y78.94 E2.97459
G1 X189.96 Y79.071 E3.00642
G1 X190.874 Y79.28 E3.03823
G1 X191.52 Y79.479 E3.06116
G1 X191.921 Y79.616 E3.07554
G1 X192.795 Y79.957 E3.10737
G1 X193.637 Y80.37 E3.13918
G1 X194.44 Y80.855 E3.17101
G1 X195.199 Y81.405 E3.20281
G1 X195.908 Y82.019 E3.23463
G1 X196.563 Y82.691 E3.26646
G1 X197.192 Y83.461 E3.30019
G1 X197.424 Y83.773 E3.31338
G1 X197.951 Y84.549 E3.34521
G1 X198.41 Y85.367 E3.37703
G1 X198.798 Y86.221 E3.40885
G1 X199.111 Y87.105 E3.44066
G1 X199.349 Y88.012 E3.47248
G1 X199.545 Y89.265 E3.5155
G1 X199.625 Y90.079 E3.54325
G1 X199.91 Y92.596 E3.62919
G1 X200.267 Y95.125 E3.71583
G1 X200.687 Y97.581 E3.80036
G1 X201.18 Y100.056 E3.88598
G1 X201.739 Y102.489 E3.97067
G1 X202.388 Y104.991 E4.05836
G1 X202.954 Y106.972 E4.12826
G1 X203.169 Y107.859 E4.15922
G1 X203.265 Y108.344 E4.17599
G1 X203.407 Y109.271 E4.20781
G1 X203.472 Y110.262 E4.2415
G1 X203.5 Y111.795 E4.29352
G1 X203.494 Y188.853 E6.90773
G1 X203.481 Y189.38 E6.92562
G1 X203.445 Y190.129 E6.95106
G1 X203.36 Y191.063 E6.98287
G1 X203.248 Y191.743 E7.00625
G1 X203.169 Y192.141 E7.02002
G1 X202.989 Y192.903 E7.04658
G1 X202.76 Y193.734 E7.07583
G1 X202.388 Y195.015 E7.12108
G1 X201.754 Y197.451 E7.20647
G1 X201.179 Y199.955 E7.29363
G1 X200.699 Y202.347 E7.3764
G1 X200.266 Y204.883 E7.46368
G1 X199.917 Y207.334 E7.54767
G1 X199.605 Y210.106 E7.64231
G1 X199.565 Y210.521 E7.65645
G1 X199.435 Y211.45 E7.68827
G1 X199.226 Y212.364 E7.72008
G1 X199.028 Y213.008 E7.74294
G1 X198.89 Y213.413 E7.75745
G1 X198.55 Y214.287 E7.78927
G1 X198.137 Y215.129 E7.82109
G1 X197.653 Y215.932 E7.85289
G1 X197.103 Y216.692 E7.88472
G1 X196.49 Y217.402 E7.91654
G1 X195.819 Y218.057 E7.94836
G1 X194.997 Y218.725 E7.98429
G1 X194.664 Y218.97 E7.99831
G1 X193.885 Y219.493 E8.03015
G1 X193.065 Y219.948 E8.06196
G1 X192.209 Y220.332 E8.09379
G1 X191.324 Y220.641 E8.12559
G1 X190.415 Y220.873 E8.15742
G1 X189.49 Y221.027 E8.18923
G1 X188.284 Y221.109 E8.23024
G1 X187.25 Y221.121 E8.26532
G1 X180.838 Y221.107 E8.48285
G1 X118.932 Y221.106 E10.58303
G1 X112.54 Y221.119 E10.79988
G1 X111.683 Y221.106 E10.82896
G1 X110.747 Y221.052 E10.86077
G1 X109.819 Y220.918 E10.89258
G1 X108.905 Y220.705 E10.92441
G1 X108.013 Y220.416 E10.95622
G1 X107.149 Y220.052 E10.98803
G1 X106.319 Y219.615 E11.01985
G1 X105.306 Y218.948 E11.061
G1 X104.975 Y218.703 E11.07497
G1 X104.245 Y218.114 E11.10679
G1 X103.569 Y217.464 E11.13861
G1 X102.95 Y216.759 E11.17044
G1 X102.394 Y216.004 E11.20225
G1 X101.904 Y215.205 E11.23404
G1 X101.484 Y214.366 E11.26587
G1 X101.195 Y213.658 E11.29182
G1 X101.063 Y213.299 E11.30479
G1 X100.777 Y212.406 E11.3366
G1 X100.568 Y211.491 E11.36845
G1 X100.453 Y210.709 E11.39526
G1 X100.335 Y209.631 E11.43205
G1 X100.249 Y208.743 E11.46232
G1 X99.936 Y206.259 E11.54725
G1 X99.552 Y203.773 E11.63259
G1 X99.097 Y201.298 E11.71796
G1 X98.572 Y198.83 E11.80357
G1 X97.982 Y196.398 E11.88847
G1 X97.206 Y193.577 E11.98772
G1 X97.061 Y193.079 E12.00532
G1 X96.829 Y192.127 E12.03856
G1 X96.734 Y191.644 E12.05526
G1 X96.592 Y190.717 E12.08708
G1 X96.529 Y189.742 E12.12022
G1 X96.5 Y188.177 E12.17333
G1 X96.506 Y111.157 E14.78626
G1 X96.519 Y110.626 E14.80428
G1 X96.556 Y109.862 E14.83022
G1 X96.641 Y108.928 E14.86204
G1 X96.759 Y108.227 E14.88616
G1 X96.841 Y107.819 E14.90028
G1 X97.018 Y107.073 E14.92629
G1 X97.247 Y106.243 E14.9555
G1 X97.603 Y105.019 E14.99874
G1 X98.236 Y102.59 E15.0839
G1 X98.806 Y100.11 E15.17023
G1 X99.302 Y97.643 E15.2556
G1 X99.725 Y95.182 E15.34031
G1 X100.079 Y92.693 E15.4256
G1 X100.402 Y89.828 E15.52341
G1 X100.453 Y89.291 E15.54171
G1 X100.581 Y88.362 E15.57353
G1 X100.789 Y87.447 E15.60536
G1 X101.074 Y86.553 E15.63719
G1 X101.433 Y85.687 E15.669
G1 X101.865 Y84.855 E15.7008
G1 X102.558 Y83.796 E15.74374
G1 X102.799 Y83.47 E15.75749
G0 F6000 X103.12 Y83.708
G1 F900 X103.699 Y82.992 E15.78873
G1 X104.338 Y82.329 E15.81997
G1 X105.032 Y81.724 E15.8512
G1 X105.776 Y81.181 E15.88245
G1 X106.564 Y80.706 E15.91367
G1 X107.39 Y80.3 E15.94489
G1 X108.22 Y79.977 E15.97511
G1 X108.554 Y79.863 E15.98708
G1 X109.437 Y79.604 E16.0183
G1 X110.34 Y79.422 E16.04955
G1 X111.255 Y79.32 E16.08078
G1 X111.804 Y79.296 E16.09942
G1 X112.776 Y79.28 E16.1324
G1 X119.163 Y79.293 E16.34909
G1 X181.069 Y79.294 E18.44927
G1 X187.268 Y79.28 E18.65957
G1 X188.09 Y79.289 E18.68746
G1 X189.009 Y79.34 E18.71868
G1 X189.921 Y79.47 E18.74994
G1 X190.817 Y79.679 E18.78115
G1 X191.391 Y79.857 E18.80154
G1 X191.792 Y79.994 E18.81591
G1 X192.649 Y80.329 E18.84713
G1 X193.475 Y80.738 E18.8784
G1 X194.261 Y81.216 E18.90961
G1 X195.003 Y81.761 E18.94084
G1 X195.695 Y82.368 E18.97207
G1 X196.332 Y83.033 E19.00331
G1 X196.871 Y83.7 E19.0324
G1 X197.103 Y84.012 E19.04559
G1 X197.62 Y84.774 E19.07683
G1 X198.069 Y85.578 E19.10808
G1 X198.446 Y86.418 E19.13931
G1 X198.749 Y87.287 E19.17053
G1 X198.975 Y88.179 E19.20175
G1 X199.147 Y89.304 E19.24036
G1 X199.225 Y90.097 E19.26739
G1 X199.515 Y92.661 E19.35493
G1 X199.871 Y95.177 E19.44114
G1 X200.294 Y97.655 E19.52642
G1 X200.785 Y100.119 E19.61166
G1 X201.357 Y102.607 E19.69826
G1 X201.999 Y105.086 E19.78514
G1 X202.57 Y107.082 E19.85557
G1 X202.776 Y107.937 E19.88541
G1 X202.872 Y108.422 E19.90218
G1 X203.012 Y109.332 E19.93342
G1 X203.072 Y110.27 E19.9653
G1 X203.1 Y111.795 E20.01705
G1 X203.094 Y188.853 E22.63127
G1 X203.082 Y189.361 E22.64851
G1 X203.046 Y190.11 E22.67395
G1 X202.962 Y191.027 E22.70518
G1 X202.855 Y191.665 E22.72713
G1 X202.776 Y192.063 E22.7409
G1 X202.603 Y192.797 E22.76648
G1 X202.376 Y193.622 E22.79551
G1 X202.005 Y194.899 E22.84062
G1 X201.363 Y197.366 E22.9271
G1 X200.789 Y199.866 E23.01412
G1 X200.301 Y202.3 E23.09834
G1 X199.873 Y204.801 E23.18442
G1 X199.523 Y207.265 E23.26885
G1 X199.204 Y210.1 E23.36564
G1 X199.167 Y210.483 E23.37869
G1 X199.038 Y211.394 E23.40991
G1 X198.831 Y212.291 E23.44114
G1 X198.65 Y212.879 E23.46201
G1 X198.512 Y213.284 E23.47653
G1 X198.177 Y214.142 E23.50777
G1 X197.769 Y214.967 E23.539
G1 X197.292 Y215.754 E23.57022
G1 X196.747 Y216.497 E23.60148
G1 X196.141 Y217.189 E23.63268
G1 X195.476 Y217.826 E23.66393
G1 X194.76 Y218.403 E23.69512
G1 X194.427 Y218.648 E23.70915
G1 X193.662 Y219.161 E23.74039
G1 X192.856 Y219.606 E23.77163
G1 X192.014 Y219.979 E23.80287
G1 X191.143 Y220.277 E23.8341
G1 X190.25 Y220.499 E23.86532
G1 X189.34 Y220.642 E23.89657
G1 X188.279 Y220.709 E23.93264
G1 X187.251 Y220.721 E23.96751
G1 X180.839 Y220.707 E24.18504
G1 X118.931 Y220.706 E26.28529
G1 X112.546 Y220.719 E26.50191
G1 X111.689 Y220.706 E26.53099
G1 X110.77 Y220.652 E26.56222
G1 X109.859 Y220.518 E26.59346
G1 X108.963 Y220.306 E26.62469
G1 X108.089 Y220.017 E26.65592
G1 X107.243 Y219.654 E26.68715
G1 X106.432 Y219.218 E26.71839
G1 X105.544 Y218.627 E26.75458
G1 X105.213 Y218.382 E26.76855
G1 X104.497 Y217.803 E26.79979
G1 X103.835 Y217.163 E26.83103
G1 X103.23 Y216.469 E26.86226
G1 X102.688 Y215.725 E26.89349
G1 X102.213 Y214.936 E26.92473
G1 X101.807 Y214.11 E26.95596
G1 X101.57 Y213.52 E26.97753
G1 X101.438 Y213.161 E26.9905
G1 X101.158 Y212.284 E27.02173
G1 X100.956 Y211.386 E27.05296
G1 X100.851 Y210.665 E27.07768
G1 X100.748 Y209.731 E27.10956
G1 X100.65 Y208.726 E27.14381
G1 X100.335 Y206.22 E27.2295
G1 X99.942 Y203.677 E27.3168
G1 X99.494 Y201.241 E27.40082
G1 X98.967 Y198.766 E27.48667
G1 X98.367 Y196.295 E27.57294
G1 X97.578 Y193.425 E27.67392
G1 X97.445 Y192.967 E27.6901
G1 X97.221 Y192.05 E27.72212
G1 X97.126 Y191.567 E27.73882
G1 X96.988 Y190.656 E27.77008
G1 X96.929 Y189.734 E27.80142
G1 X96.9 Y188.177 E27.85425
G1 X96.906 Y111.157 E30.46718
G1 X96.918 Y110.645 E30.48456
G1 X96.955 Y109.881 E30.51051
G1 X97.04 Y108.964 E30.54175
G1 X97.151 Y108.305 E30.56442
G1 X97.233 Y107.897 E30.57854
G1 X97.403 Y107.179 E30.60357
G1 X97.587 Y106.509 E30.62714
G1 X97.989 Y105.123 E30.6761
G1 X98.627 Y102.675 E30.76192
G1 X99.195 Y100.208 E30.84781
G1 X99.694 Y97.718 E30.93396
G1 X100.12 Y95.24 E31.01926
G1 X100.474 Y92.757 E31.10435
G1 X100.8 Y89.86 E31.20325
G1 X100.851 Y89.328 E31.22138
G1 X100.978 Y88.417 E31.25259
G1 X101.184 Y87.519 E31.28384
G1 X101.467 Y86.643 E31.31507
G1 X101.825 Y85.795 E31.3463
G1 X102.255 Y84.981 E31.37753
G1 X102.879 Y84.034 E31.41601
G1 X103.12 Y83.708 E31.42976
G0 F6000 X103.442 Y83.946
G1 F900 X104.01 Y83.244 E31.4604
G1 X104.639 Y82.595 E31.49106
G1 X105.322 Y82.004 E31.5217
G1 X106.055 Y81.477 E31.55233
G1 X106.831 Y81.016 E31.58295
G1 X107.646 Y80.625 E31.61361
G1 X108.349 Y80.356 E31.63915
G1 X108.683 Y80.242 E31.65112
G1 X109.55 Y79.988 E31.68177
G1 X110.436 Y79.812 E31.71242
G1 X111.334 Y79.715 E31.74306
G1 X111.81 Y79.696 E31.75922
G1 X112.782 Y79.68 E31.7922
G1 X119.162 Y79.693 E32.00865
G1 X181.07 Y79.694 E34.10889
G1 X187.269 Y79.68 E34.3192
G1 X188.085 Y79.689 E34.34688
G1 X188.987 Y79.739 E34.37753
G1 X189.881 Y79.87 E34.40818
G1 X190.759 Y80.079 E34.4388
G1 X191.262 Y80.236 E34.45668
G1 X191.663 Y80.373 E34.47106
G1 X192.503 Y80.702 E34.50166
G1 X193.312 Y81.105 E34.53232
G1 X194.082 Y81.577 E34.56296
G1 X194.806 Y82.116 E34.59358
G1 X195.481 Y82.717 E34.62424
G1 X196.099 Y83.375 E34.65487
G1 X196.55 Y83.939 E34.67937
G1 X196.782 Y84.251 E34.69256
G1 X197.288 Y84.998 E34.72317
G1 X197.727 Y85.788 E34.75383
G1 X198.093 Y86.614 E34.78448
G1 X198.385 Y87.468 E34.8151
G1 X198.601 Y88.345 E34.84574
G1 X198.748 Y89.343 E34.87996
G1 X198.824 Y90.115 E34.90628
G1 X199.119 Y92.726 E34.99542
G1 X199.468 Y95.195 E35.08002
G1 X199.908 Y97.771 E35.16867
G1 X200.389 Y100.183 E35.25211
G1 X200.973 Y102.726 E35.34063
G1 X201.607 Y105.171 E35.42632
G1 X202.185 Y107.192 E35.49763
G1 X202.384 Y108.014 E35.52633
G1 X202.48 Y108.499 E35.5431
G1 X202.616 Y109.392 E35.57374
G1 X202.672 Y110.278 E35.60386
G1 X202.7 Y111.795 E35.65533
G1 X202.694 Y188.853 E38.26955
G1 X202.682 Y189.342 E38.28615
G1 X202.646 Y190.091 E38.31159
G1 X202.563 Y190.99 E38.34222
G1 X202.463 Y191.587 E38.36275
G1 X202.384 Y191.985 E38.37652
G1 X202.217 Y192.692 E38.40116
G1 X201.992 Y193.51 E38.42994
G1 X201.61 Y194.824 E38.47637
G1 X200.98 Y197.248 E38.56133
G1 X200.402 Y199.762 E38.64885
G1 X199.908 Y202.226 E38.7341
G1 X199.479 Y204.732 E38.82036
G1 X199.123 Y207.235 E38.90613
G1 X198.803 Y210.082 E39.00332
G1 X198.768 Y210.444 E39.01566
G1 X198.642 Y211.338 E39.04629
G1 X198.436 Y212.218 E39.07695
G1 X198.271 Y212.75 E39.09585
G1 X198.133 Y213.155 E39.11036
G1 X197.804 Y213.996 E39.141
G1 X197.402 Y214.805 E39.17165
G1 X196.93 Y215.575 E39.20228
G1 X196.392 Y216.3 E39.23291
G1 X195.792 Y216.975 E39.26355
G1 X195.134 Y217.594 E39.2942
G1 X194.523 Y218.081 E39.32071
G1 X194.19 Y218.326 E39.33473
G1 X193.439 Y218.828 E39.36538
G1 X192.647 Y219.263 E39.39603
G1 X191.82 Y219.625 E39.42666
G1 X190.964 Y219.913 E39.4573
G1 X190.086 Y220.124 E39.48793
G1 X189.193 Y220.256 E39.51856
G1 X188.274 Y220.309 E39.54979
G1 X187.252 Y220.321 E39.58446
G1 X180.84 Y220.307 E39.80199
G1 X118.93 Y220.306 E41.90231
G1 X112.552 Y220.319 E42.11868
G1 X111.695 Y220.306 E42.14776
G1 X110.794 Y220.252 E42.17838
G1 X109.901 Y220.119 E42.20901
G1 X109.023 Y219.907 E42.23966
G1 X108.167 Y219.619 E42.2703
G1 X107.34 Y219.256 E42.30094
G1 X106.548 Y218.821 E42.33159
G1 X105.782 Y218.305 E42.36292
G1 X105.451 Y218.06 E42.37689
G1 X104.749 Y217.492 E42.40753
G1 X104.101 Y216.863 E42.43817
G1 X103.511 Y216.179 E42.46881
G1 X102.983 Y215.446 E42.49946
G1 X102.523 Y214.669 E42.53009
G1 X102.133 Y213.855 E42.56071
G1 X101.946 Y213.382 E42.57797
G1 X101.814 Y213.023 E42.59094
G1 X101.54 Y212.162 E42.6216
G1 X101.343 Y211.281 E42.65222
G1 X101.248 Y210.621 E42.67484
G1 X101.145 Y209.687 E42.70672
G1 X101.046 Y208.67 E42.74139
G1 X100.728 Y206.14 E42.82789
G1 X100.343 Y203.649 E42.91341
G1 X99.88 Y201.129 E43.00033
G1 X99.36 Y198.685 E43.0851
G1 X98.756 Y196.199 E43.17189
G1 X97.969 Y193.334 E43.27269
G1 X97.829 Y192.855 E43.28962
G1 X97.614 Y191.972 E43.32045
G1 X97.519 Y191.489 E43.33715
G1 X97.384 Y190.597 E43.36775
G1 X97.329 Y189.726 E43.39736
G1 X97.3 Y188.177 E43.44992
G1 X97.306 Y111.157 E46.06285
G1 X97.318 Y110.665 E46.07955
G1 X97.355 Y109.901 E46.1055
G1 X97.439 Y109.001 E46.13616
G1 X97.543 Y108.384 E46.15739
G1 X97.625 Y107.976 E46.17151
G1 X97.789 Y107.285 E46.1956
G1 X97.973 Y106.615 E46.21917
G1 X98.374 Y105.234 E46.26796
G1 X99.016 Y102.769 E46.35437
G1 X99.592 Y100.263 E46.44161
G1 X100.081 Y97.828 E46.52587
G1 X100.517 Y95.293 E46.61313
G1 X100.873 Y92.796 E46.6987
G1 X101.199 Y89.893 E46.7978
G1 X101.249 Y89.366 E46.81576
G1 X101.375 Y88.472 E46.84639
G1 X101.579 Y87.592 E46.87704
G1 X101.86 Y86.734 E46.90766
G1 X102.216 Y85.904 E46.9383
G1 X102.644 Y85.109 E46.96893
G1 X103.201 Y84.272 E47.00304
G1 X103.442 Y83.946 E47.0168
G1 F1500 E40.5168
;MESH:blowerFanMountMk3.stl
G0 F6000 X112.892 Y112.295
G0 X114.317 Y117.702
;TYPE:WALL-INNER
G1 F1500 E47.0168
G1 F900 X113.876 Y117.594 E47.0322
G1 X113.44 Y117.416 E47.04818
G1 X113.092 Y117.199 E47.06209
G1 X112.702 Y116.878 E47.07923
G1 X112.402 Y116.527 E47.09489
G1 X112.16 Y116.139 E47.1104
G1 X111.981 Y115.704 E47.12636
G1 X111.874 Y115.266 E47.14166
G1 X111.833 Y114.799 E47.15756
G1 X111.87 Y114.319 E47.17389
G1 X111.978 Y113.877 E47.18933
G1 X112.156 Y113.44 E47.20534
G1 X112.373 Y113.092 E47.21925
G1 X112.692 Y112.703 E47.23632
G1 X113.046 Y112.401 E47.25211
G1 X113.452 Y112.153 E47.26825
G1 X113.867 Y111.983 E47.28346
G1 X114.315 Y111.873 E47.29911
G1 X114.776 Y111.833 E47.31481
G1 X115.25 Y111.87 E47.33094
G1 X115.717 Y111.987 E47.34727
G1 X116.11 Y112.148 E47.36168
G1 X116.513 Y112.395 E47.37771
G1 X116.878 Y112.703 E47.39392
G1 X117.165 Y113.043 E47.40901
G1 X117.411 Y113.433 E47.42465
G1 X117.59 Y113.863 E47.44046
G1 X117.693 Y114.281 E47.45506
G1 X117.705 Y114.361 E47.4578
G1 X117.736 Y114.754 E47.47118
G1 X117.703 Y115.25 E47.48804
G1 X117.594 Y115.696 E47.50362
G1 X117.42 Y116.119 E47.51914
G1 X117.199 Y116.48 E47.5335
G1 X116.877 Y116.87 E47.55065
G1 X116.515 Y117.176 E47.56673
G1 X116.134 Y117.414 E47.58197
G1 X115.663 Y117.601 E47.59917
G1 X115.238 Y117.702 E47.61399
G1 X114.794 Y117.739 E47.6291
G1 X114.317 Y117.702 E47.64533
G0 F6000 X115.188 Y117.305
;TYPE:WALL-OUTER
G1 F900 X114.809 Y117.336 E47.65823
G1 X114.398 Y117.307 E47.67221
G1 X113.984 Y117.206 E47.68667
G1 X113.639 Y117.065 E47.69931
G1 X113.304 Y116.859 E47.71265
G1 X112.97 Y116.577 E47.72748
G1 X112.736 Y116.302 E47.73973
G1 X112.511 Y115.939 E47.75422
G1 X112.358 Y115.564 E47.76796
G1 X112.268 Y115.197 E47.78078
G1 X112.236 Y114.811 E47.79392
G1 X112.27 Y114.368 E47.809
G1 X112.365 Y113.986 E47.82235
G1 X112.507 Y113.639 E47.83507
G1 X112.713 Y113.304 E47.84841
G1 X112.983 Y112.981 E47.86269
G1 X113.269 Y112.737 E47.87545
G1 X113.624 Y112.515 E47.88965
G1 X113.991 Y112.363 E47.90313
