;FLAVOR:Marlin
;TIME:2997
;Filament used: 2.32495m
;Layer height: 0.2
;MINX:218.462
;MINY:98.616
;MINZ:0.2
;MAXX:249.062
;MAXY:141.056
;MAXZ:9.2
;Generated with Cura_SteamEngine 5.2.2
M140 S60
M105
M190 S60
M104 S215
M105
M109 S215
M82 ;absolute extrusion mode
; Ender 3 Max Custom Start G-code
G92 E0 ; Reset Extruder
G28 ; Home all axes
G1 Z2.0 F3000 ; Move Z Axis up little to prevent scratching of Heat Bed
G1 X0.1 Y20 Z0.3 F5000.0 ; Move to start position
G1 X0.1 Y200.0 Z0.3 F1500.0 E15 ; Draw the first line
G1 X0.4 Y200.0 Z0.3 F5000.0 ; Move to side a little
G1 X0.4 Y20 Z0.3 F1500.0 E30 ; Draw the second line
G92 E0 ; Reset Extruder
G1 Z2.0 F3000 ; Move Z Axis up little to prevent scratching of Heat Bed
G1 X5 Y20 Z0.3 F5000.0 ; Move over to prevent blob squish
G92 E0
G92 E0
G1 F1500 E-6.5
;LAYER_COUNT:46
;LAYER:0
M107
;MESH:holdFanTogetherThing.stl
G0 F6000 X219.262 Y140.256 Z0.2
;TYPE:WALL-INNER
G1 F1500 E0
G1 F900 X248.262 Y140.256 E0.98383
G1 X248.262 Y113.916 E1.87743
G1 X248.262 Y99.416 E2.36935
G1 X219.262 Y99.416 E3.35318
G1 X219.262 Y140.256 E4.73869
G0 F6000 X218.862 Y140.656
G1 F900 X248.662 Y140.656 E5.74967
G1 X248.662 Y113.916 E6.65683
G1 X248.662 Y99.016 E7.16232
G1 X218.862 Y99.016 E8.17329
G1 X218.862 Y140.656 E9.58594
G0 F6000 X218.462 Y141.056
;TYPE:WALL-OUTER
G1 F900 X249.062 Y141.056 E10.62406
G1 X249.062 Y113.916 E11.54479
G1 X249.062 Y98.616 E12.06385
G1 X218.462 Y98.616 E13.10197
G1 X218.462 Y141.056 E14.54176
G0 F6000 X218.732 Y140.786
G0 X219.362 Y139.896
G0 X219.622 Y139.896
;TYPE:SKIN
G1 F900 X247.902 Y139.896 E15.50117
G1 X247.902 Y113.916 E16.38255
G1 X247.902 Y99.776 E16.86225
G1 X219.622 Y99.776 E17.82166
G1 X219.622 Y139.896 E19.18274
G0 F6000 X220.023 Y139.696
G1 F900 X219.821 Y139.493 E19.19246
G0 F6000 X219.821 Y138.928
G1 F900 X220.589 Y139.696 E19.22931
G0 F6000 X221.154 Y139.696
G1 F900 X219.821 Y138.362 E19.29328
G0 F6000 X219.821 Y137.796
G1 F900 X221.72 Y139.696 E19.38442
G0 F6000 X222.286 Y139.696
G1 F900 X219.821 Y137.231 E19.50268
G0 F6000 X219.821 Y136.665
G1 F900 X222.851 Y139.696 E19.64808
G0 F6000 X223.417 Y139.696
G1 F900 X219.821 Y136.099 E19.82063
G0 F6000 X219.821 Y135.533
G1 F900 X223.983 Y139.696 E20.02034
G0 F6000 X224.548 Y139.696
G1 F900 X219.821 Y134.968 E20.24715
G0 F6000 X219.821 Y134.402
G1 F900 X225.114 Y139.696 E20.50112
G0 F6000 X225.68 Y139.696
G1 F900 X219.821 Y133.836 E20.78225
G0 F6000 X219.821 Y133.271
G1 F900 X226.245 Y139.696 E21.09048
G0 F6000 X226.811 Y139.696
G1 F900 X219.821 Y132.705 E21.42587
G0 F6000 X219.821 Y132.139
G1 F900 X227.377 Y139.696 E21.78841
G0 F6000 X227.942 Y139.696
G1 F900 X219.821 Y131.574 E22.17806
G0 F6000 X219.821 Y131.008
G1 F900 X228.508 Y139.696 E22.59487
G0 F6000 X229.074 Y139.696
G1 F900 X219.821 Y130.442 E23.03883
G0 F6000 X219.821 Y129.877
G1 F900 X229.639 Y139.696 E23.5099
G0 F6000 X230.205 Y139.696
G1 F900 X219.821 Y129.311 E24.00812
G0 F6000 X219.821 Y128.745
G1 F900 X230.771 Y139.696 E24.5335
G0 F6000 X231.337 Y139.696
G1 F900 X219.821 Y128.18 E25.08601
G0 F6000 X219.821 Y127.614
G1 F900 X231.902 Y139.696 E25.66565
G0 F6000 X232.468 Y139.696
G1 F900 X219.821 Y127.048 E26.27245
G0 F6000 X219.821 Y126.483
G1 F900 X233.034 Y139.696 E26.90638
G0 F6000 X233.599 Y139.696
G1 F900 X219.821 Y125.917 E27.56744
G0 F6000 X219.821 Y125.351
G1 F900 X234.165 Y139.696 E28.25566
G0 F6000 X234.731 Y139.696
G1 F900 X219.821 Y124.785 E28.97103
G0 F6000 X219.821 Y124.22
G1 F900 X235.296 Y139.696 E29.71351
G0 F6000 X235.862 Y139.696
G1 F900 X219.821 Y123.654 E30.48314
G0 F6000 X219.821 Y123.088
G1 F900 X236.428 Y139.696 E31.27993
G0 F6000 X236.993 Y139.696
G1 F900 X219.821 Y122.523 E32.10383
G0 F6000 X219.821 Y121.957
G1 F900 X237.559 Y139.696 E32.95488
G0 F6000 X238.125 Y139.696
G1 F900 X219.821 Y121.391 E33.83309
G0 F6000 X219.821 Y120.826
G1 F900 X238.69 Y139.696 E34.7384
G0 F6000 X239.256 Y139.696
G1 F900 X219.821 Y120.26 E35.67087
G0 F6000 X219.821 Y119.694
G1 F900 X239.822 Y139.696 E36.6305
G0 F6000 X240.388 Y139.696
G1 F900 X219.821 Y119.129 E37.61725
G0 F6000 X219.821 Y118.563
G1 F900 X240.953 Y139.696 E38.63114
G0 F6000 X241.519 Y139.696
G1 F900 X219.821 Y117.997 E39.67218
G0 F6000 X219.821 Y117.432
G1 F900 X242.085 Y139.696 E40.74036
G0 F6000 X242.65 Y139.696
G1 F900 X219.821 Y116.866 E41.83567
G0 F6000 X219.821 Y116.3
G1 F900 X243.216 Y139.696 E42.95813
G0 F6000 X243.782 Y139.696
G1 F900 X219.821 Y115.734 E44.10774
G0 F6000 X219.821 Y115.169
G1 F900 X244.347 Y139.696 E45.28447
G0 F6000 X244.913 Y139.696
G1 F900 X219.821 Y114.603 E46.48835
G0 F6000 X219.821 Y114.037
G1 F900 X245.479 Y139.696 E47.71938
G0 F6000 X246.044 Y139.696
G1 F900 X219.821 Y113.472 E48.97753
G0 F6000 X219.821 Y112.906
G1 F900 X246.61 Y139.696 E50.26282
G0 F6000 X247.176 Y139.696
G1 F900 X219.821 Y112.34 E51.57528
G0 F6000 X219.821 Y111.775
G1 F900 X247.701 Y139.655 E52.91289
G0 F6000 X247.701 Y139.09
G1 F900 X219.821 Y111.209 E54.25054
G0 F6000 X219.821 Y110.643
G1 F900 X247.701 Y138.524 E55.58818
G0 F6000 X247.701 Y137.958
G1 F900 X219.821 Y110.078 E56.92579
G0 F6000 X219.821 Y109.512
G1 F900 X247.701 Y137.392 E58.26341
G0 F6000 X247.701 Y136.827
G1 F900 X219.821 Y108.946 E59.60105
G0 F6000 X219.821 Y108.381
G1 F900 X247.701 Y136.261 E60.93867
G0 F6000 X247.701 Y135.695
G1 F900 X219.821 Y107.815 E62.27629
G0 F6000 X219.821 Y107.249
G1 F900 X247.701 Y135.13 E63.61393
G0 F6000 X247.701 Y134.564
G1 F900 X219.821 Y106.684 E64.95155
G0 F6000 X219.821 Y106.118
G1 F900 X247.701 Y133.998 E66.28917
G0 F6000 X247.701 Y133.433
G1 F900 X219.821 Y105.552 E67.62681
G0 F6000 X219.821 Y104.986
G1 F900 X247.701 Y132.867 E68.96445
G0 F6000 X247.701 Y132.301
G1 F900 X219.821 Y104.421 E70.30207
G0 F6000 X219.821 Y103.855
G1 F900 X247.701 Y131.736 E71.63971
G0 F6000 X247.701 Y131.17
G1 F900 X219.821 Y103.289 E72.97735
G0 F6000 X219.821 Y102.724
G1 F900 X247.701 Y130.604 E74.31497
G0 F6000 X247.701 Y130.039
G1 F900 X219.821 Y102.158 E75.65261
G0 F6000 X219.821 Y101.592
G1 F900 X247.701 Y129.473 E76.99025
G0 F6000 X247.701 Y128.907
G1 F900 X219.821 Y101.027 E78.32787
G0 F6000 X219.821 Y100.461
G1 F900 X247.701 Y128.342 E79.66551
G0 F6000 X247.701 Y127.776
G1 F900 X219.901 Y99.976 E80.99929
G0 F6000 X220.467 Y99.976
G1 F900 X247.701 Y127.21 E82.30591
G0 F6000 X247.701 Y126.644
G1 F900 X221.033 Y99.976 E83.58538
G0 F6000 X221.598 Y99.976
G1 F900 X247.701 Y126.079 E84.83774
G0 F6000 X247.701 Y125.513
G1 F900 X222.164 Y99.976 E86.06295
G0 F6000 X222.73 Y99.976
G1 F900 X247.701 Y124.947 E87.261
G0 F6000 X247.701 Y124.382
G1 F900 X223.295 Y99.976 E88.43194
G0 F6000 X223.861 Y99.976
G1 F900 X247.701 Y123.816 E89.57573
G0 F6000 X247.701 Y123.25
G1 F900 X224.427 Y99.976 E90.69236
G0 F6000 X224.992 Y99.976
G1 F900 X247.701 Y122.685 E91.78189
G0 F6000 X247.701 Y122.119
G1 F900 X225.558 Y99.976 E92.84426
G0 F6000 X226.124 Y99.976
G1 F900 X247.701 Y121.553 E93.87947
G0 F6000 X247.701 Y120.988
G1 F900 X226.689 Y99.976 E94.88758
G0 F6000 X227.255 Y99.976
G1 F900 X247.701 Y120.422 E95.86853
G0 F6000 X247.701 Y119.856
G1 F900 X227.821 Y99.976 E96.82232
G0 F6000 X228.387 Y99.976
G1 F900 X247.701 Y119.291 E97.74899
G0 F6000 X247.701 Y118.725
G1 F900 X228.952 Y99.976 E98.64852
G0 F6000 X229.518 Y99.976
G1 F900 X247.701 Y118.159 E99.5209
G0 F6000 X247.701 Y117.593
G1 F900 X230.084 Y99.976 E100.36612
G0 F6000 X230.649 Y99.976
G1 F900 X247.701 Y117.028 E101.18424
G0 F6000 X247.701 Y116.462
G1 F900 X231.215 Y99.976 E101.9752
G0 F6000 X231.781 Y99.976
G1 F900 X247.701 Y115.896 E102.739
G0 F6000 X247.701 Y115.331
G1 F900 X232.346 Y99.976 E103.4757
G0 F6000 X232.912 Y99.976
G1 F900 X247.701 Y114.765 E104.18524
G0 F6000 X247.701 Y114.199
G1 F900 X233.478 Y99.976 E104.86763
G0 F6000 X234.043 Y99.976
G1 F900 X247.701 Y113.634 E105.52291
G0 F6000 X247.701 Y113.068
G1 F900 X234.609 Y99.976 E106.15103
G0 F6000 X235.175 Y99.976
G1 F900 X247.701 Y112.502 E106.752
G0 F6000 X247.701 Y111.937
G1 F900 X235.74 Y99.976 E107.32586
G0 F6000 X236.306 Y99.976
G1 F900 X247.701 Y111.371 E107.87257
G0 F6000 X247.701 Y110.805
G1 F900 X236.872 Y99.976 E108.39212
G0 F6000 X237.437 Y99.976
G1 F900 X247.701 Y110.24 E108.88456
G0 F6000 X247.701 Y109.674
G1 F900 X238.003 Y99.976 E109.34985
G0 F6000 X238.569 Y99.976
G1 F900 X247.701 Y109.108 E109.78798
G0 F6000 X247.701 Y108.543
G1 F900 X239.135 Y99.976 E110.19898
G0 F6000 X239.7 Y99.976
G1 F900 X247.701 Y107.977 E110.58285
G0 F6000 X247.701 Y107.411
G1 F900 X240.266 Y99.976 E110.93956
G0 F6000 X240.832 Y99.976
G1 F900 X247.701 Y106.845 E111.26912
G0 F6000 X247.701 Y106.28
G1 F900 X241.397 Y99.976 E111.57157
G0 F6000 X241.963 Y99.976
G1 F900 X247.701 Y105.714 E111.84687
G0 F6000 X247.701 Y105.148
G1 F900 X242.529 Y99.976 E112.09501
G0 F6000 X243.094 Y99.976
G1 F900 X247.701 Y104.583 E112.31604
G0 F6000 X247.701 Y104.017
G1 F900 X243.66 Y99.976 E112.50992
G0 F6000 X244.226 Y99.976
G1 F900 X247.701 Y103.451 E112.67664
G0 F6000 X247.701 Y102.886
G1 F900 X244.791 Y99.976 E112.81626
G0 F6000 X245.357 Y99.976
G1 F900 X247.701 Y102.32 E112.92872
G0 F6000 X247.701 Y101.754
G1 F900 X245.923 Y99.976 E113.01402
G0 F6000 X246.488 Y99.976
G1 F900 X247.701 Y101.189 E113.07222
G0 F6000 X247.701 Y100.623
G1 F900 X247.054 Y99.976 E113.10326
G0 F6000 X247.62 Y99.976
G1 F900 X247.701 Y100.057 E113.10715
G1 F1500 E106.60715
;MESH:NONMESH
G0 F300 X247.701 Y100.057 Z0.4
G0 F6000 X248.162 Y100.057
G0 X248.09 Y140.084
G0 X219.262 Y140.256
;TIME_ELAPSED:240.161649
;LAYER:1
M140 S50
M106 S85
;TYPE:WALL-INNER
;MESH:holdFanTogetherThing.stl
G1 F1500 E113.10715
G1 F1200 X248.262 Y140.256 E114.07169
G1 X248.262 Y113.916 E114.94776
G1 X248.262 Y99.416 E115.43003
G1 X219.262 Y99.416 E116.39458
G1 X219.262 Y140.256 E117.75292
G0 F7500 X218.862 Y140.656
G1 F1200 X248.662 Y140.656 E118.74407
G1 X248.662 Y113.916 E119.63345
G1 X248.662 Y99.016 E120.12903
G1 X218.862 Y99.016 E121.12018
G1 X218.862 Y140.656 E122.50513
G0 F7500 X218.462 Y141.056
;TYPE:WALL-OUTER
G1 F1200 X249.062 Y141.056 E123.52289
G1 X249.062 Y113.916 E124.42557
G1 X249.062 Y98.616 E124.93445
G1 X218.462 Y98.616 E125.95221
G1 X218.462 Y141.056 E127.36377
G0 F7500 X218.732 Y140.786
G0 X219.362 Y139.896
G0 X219.622 Y139.896
;TYPE:SKIN
G1 F1200 X247.902 Y139.896 E128.30437
G1 X247.902 Y113.916 E129.16846
G1 X247.902 Y99.776 E129.63876
G1 X219.622 Y99.776 E130.57936
G1 X219.622 Y139.896 E131.91376
G1 F1500 E125.41376
G0 F7500 X219.362 Y139.896
G0 X248.09 Y140.084
G0 X248.162 Y139.227
G1 F1500 E131.91376
G0 F7500 X247.7 Y139.227
G1 F1200 X247.232 Y139.696 E131.93579
G0 F7500 X246.667 Y139.696
G1 F1200 X247.7 Y138.662 E131.98441
G0 F7500 X247.7 Y138.096
G1 F1200 X246.101 Y139.696 E132.05964
G0 F7500 X245.535 Y139.696
G1 F1200 X247.7 Y137.53 E132.1615
G0 F7500 X247.7 Y136.965
G1 F1200 X244.97 Y139.696 E132.28993
G0 F7500 X244.404 Y139.696
G1 F1200 X247.7 Y136.399 E132.44499
G0 F7500 X247.7 Y135.833
G1 F1200 X243.838 Y139.696 E132.62667
G0 F7500 X243.273 Y139.696
G1 F1200 X247.7 Y135.268 E132.83493
G0 F7500 X247.7 Y134.702
G1 F1200 X242.707 Y139.696 E133.06981
G0 F7500 X242.141 Y139.696
G1 F1200 X247.7 Y134.136 E133.33131
G0 F7500 X247.7 Y133.571
G1 F1200 X241.575 Y139.696 E133.61941
G0 F7500 X241.01 Y139.696
G1 F1200 X247.7 Y133.005 E133.93411
G0 F7500 X247.7 Y132.439
G1 F1200 X240.444 Y139.696 E134.27543
G0 F7500 X239.878 Y139.696
G1 F1200 X247.7 Y131.874 E134.64336
G0 F7500 X247.7 Y131.308
G1 F1200 X239.313 Y139.696 E135.03788
G0 F7500 X238.747 Y139.696
G1 F1200 X247.7 Y130.742 E135.45902
G0 F7500 X247.7 Y130.176
G1 F1200 X238.181 Y139.696 E135.90679
G0 F7500 X237.616 Y139.696
G1 F1200 X247.7 Y129.611 E136.38114
G0 F7500 X247.7 Y129.045
G1 F1200 X237.05 Y139.696 E136.8821
G0 F7500 X236.484 Y139.696
G1 F1200 X247.7 Y128.479 E137.40969
G0 F7500 X247.7 Y127.914
G1 F1200 X235.919 Y139.696 E137.96386
G0 F7500 X235.353 Y139.696
G1 F1200 X247.7 Y127.348 E138.54465
G0 F7500 X247.7 Y126.782
G1 F1200 X234.787 Y139.696 E139.15206
G0 F7500 X234.222 Y139.696
G1 F1200 X247.7 Y126.217 E139.78605
G0 F7500 X247.7 Y125.651
G1 F1200 X233.656 Y139.696 E140.44666
G0 F7500 X233.09 Y139.696
G1 F1200 X247.7 Y125.085 E141.13389
G0 F7500 X247.7 Y124.52
G1 F1200 X232.524 Y139.696 E141.84772
G0 F7500 X231.959 Y139.696
G1 F1200 X247.7 Y123.954 E142.58815
G0 F7500 X247.7 Y123.388
G1 F1200 X231.393 Y139.696 E143.35521
G0 F7500 X230.827 Y139.696
G1 F1200 X247.7 Y122.823 E144.14886
G0 F7500 X247.7 Y122.257
G1 F1200 X230.262 Y139.696 E144.96912
G0 F7500 X229.696 Y139.696
G1 F1200 X247.7 Y121.691 E145.81599
G0 F7500 X247.7 Y121.125
G1 F1200 X229.13 Y139.696 E146.68949
G0 F7500 X228.565 Y139.696
G1 F1200 X247.7 Y120.56 E147.58957
G0 F7500 X247.7 Y119.994
G1 F1200 X227.999 Y139.696 E148.51627
G0 F7500 X227.433 Y139.696
G1 F1200 X247.7 Y119.428 E149.46959
G0 F7500 X247.7 Y118.863
G1 F1200 X226.868 Y139.696 E150.44948
G0 F7500 X226.302 Y139.696
G1 F1200 X247.7 Y118.297 E151.456
G0 F7500 X247.7 Y117.731
G1 F1200 X225.736 Y139.696 E152.48915
G0 F7500 X225.171 Y139.696
G1 F1200 X247.7 Y117.166 E153.54886
G0 F7500 X247.7 Y116.6
G1 F1200 X224.605 Y139.696 E154.63521
G0 F7500 X224.039 Y139.696
G1 F1200 X247.7 Y116.034 E155.74817
G0 F7500 X247.7 Y115.469
G1 F1200 X223.474 Y139.696 E156.88771
G0 F7500 X222.908 Y139.696
G1 F1200 X247.7 Y114.903 E158.05387
G0 F7500 X247.7 Y114.337
G1 F1200 X222.342 Y139.696 E159.24666
G0 F7500 X221.776 Y139.696
G1 F1200 X247.7 Y113.772 E160.46605
G0 F7500 X247.7 Y113.206
G1 F1200 X221.211 Y139.696 E161.71203
G0 F7500 X220.645 Y139.696
G1 F1200 X247.7 Y112.64 E162.98464
G0 F7500 X247.7 Y112.075
G1 F1200 X220.079 Y139.696 E164.28385
G0 F7500 X219.821 Y139.389
G1 F1200 X247.7 Y111.509 E165.59521
G0 F7500 X247.7 Y110.943
G1 F1200 X219.821 Y138.823 E166.90658
G0 F7500 X219.821 Y138.257
G1 F1200 X247.7 Y110.377 E168.21794
G0 F7500 X247.7 Y109.812
G1 F1200 X219.821 Y137.692 E169.52931
G0 F7500 X219.821 Y137.126
G1 F1200 X247.7 Y109.246 E170.84068
G0 F7500 X247.7 Y108.68
G1 F1200 X219.821 Y136.56 E172.15204
G0 F7500 X219.821 Y135.995
G1 F1200 X247.7 Y108.115 E173.46341
G0 F7500 X247.7 Y107.549
G1 F1200 X219.821 Y135.429 E174.77478
G0 F7500 X219.821 Y134.863
G1 F1200 X247.7 Y106.983 E176.08614
G0 F7500 X247.7 Y106.418
G1 F1200 X219.821 Y134.297 E177.39748
G0 F7500 X219.821 Y133.732
G1 F1200 X247.7 Y105.852 E178.70885
G0 F7500 X247.7 Y105.286
G1 F1200 X219.821 Y133.166 E180.02022
G0 F7500 X219.821 Y132.6
G1 F1200 X247.7 Y104.721 E181.33156
G0 F7500 X247.7 Y104.155
G1 F1200 X219.821 Y132.035 E182.64293
G0 F7500 X219.821 Y131.469
G1 F1200 X247.7 Y103.589 E183.95429
G0 F7500 X247.7 Y103.024
G1 F1200 X219.821 Y130.903 E185.26563
G0 F7500 X219.821 Y130.338
G1 F1200 X247.7 Y102.458 E186.577
G0 F7500 X247.7 Y101.892
G1 F1200 X219.821 Y129.772 E187.88837
G0 F7500 X219.821 Y129.206
G1 F1200 X247.7 Y101.326 E189.19973
G0 F7500 X247.7 Y100.761
G1 F1200 X219.821 Y128.641 E190.5111
G0 F7500 X219.821 Y128.075
G1 F1200 X247.7 Y100.195 E191.82247
G0 F7500 X247.355 Y99.975
G1 F1200 X219.821 Y127.509 E193.11758
G0 F7500 X219.821 Y126.944
G1 F1200 X246.789 Y99.975 E194.3861
G0 F7500 X246.223 Y99.975
G1 F1200 X219.821 Y126.378 E195.62799
G0 F7500 X219.821 Y125.812
G1 F1200 X245.658 Y99.975 E196.84328
G0 F7500 X245.092 Y99.975
G1 F1200 X219.821 Y125.246 E198.03195
G0 F7500 X219.821 Y124.681
G1 F1200 X244.526 Y99.975 E199.19402
G0 F7500 X243.961 Y99.975
G1 F1200 X219.821 Y124.115 E200.32949
G0 F7500 X219.821 Y123.549
G1 F1200 X243.395 Y99.975 E201.43834
G0 F7500 X242.829 Y99.975
G1 F1200 X219.821 Y122.984 E202.52059
G0 F7500 X219.821 Y122.418
G1 F1200 X242.263 Y99.975 E203.57622
G0 F7500 X241.698 Y99.975
G1 F1200 X219.821 Y121.852 E204.60525
G0 F7500 X219.821 Y121.287
G1 F1200 X241.132 Y99.975 E205.60767
G0 F7500 X240.566 Y99.975
G1 F1200 X219.821 Y120.721 E206.58348
G0 F7500 X219.821 Y120.155
G1 F1200 X240.001 Y99.975 E207.53268
G0 F7500 X239.435 Y99.975
G1 F1200 X219.821 Y119.59 E208.45529
G0 F7500 X219.821 Y119.024
G1 F1200 X238.869 Y99.975 E209.35127
G0 F7500 X238.304 Y99.975
G1 F1200 X219.821 Y118.458 E210.22066
G0 F7500 X219.821 Y117.893
G1 F1200 X237.738 Y99.975 E211.06344
G0 F7500 X237.172 Y99.975
G1 F1200 X219.821 Y117.327 E211.8796
G0 F7500 X219.821 Y116.761
