;FLAVOR:Marlin
;TIME:3197
;Filament used: 1.88482m
;Layer height: 0.2
;MINX:85.55
;MINY:119.75
;MINZ:0.2
;MAXX:174.428
;MAXY:180.25
;MAXZ:8.4
;Generated with Cura_SteamEngine 5.2.2
M140 S60
M105
M190 S60
M104 S210
M105
M109 S210
M82 ;absolute extrusion mode
; Ender 3 Max Custom Start G-code
G92 E0 ; Reset Extruder
G28 ; Home all axes
G1 Z2.0 F3000 ; Move Z Axis up little to prevent scratching of Heat Bed
G1 X0.1 Y20 Z0.3 F5000.0 ; Move to start position
G1 X0.1 Y200.0 Z0.3 F1500.0 E15 ; Draw the first line
G1 X0.4 Y200.0 Z0.3 F5000.0 ; Move to side a little
G1 X0.4 Y20 Z0.3 F1500.0 E30 ; Draw the second line
G92 E0 ; Reset Extruder
G1 Z2.0 F3000 ; Move Z Axis up little to prevent scratching of Heat Bed
G1 X5 Y20 Z0.3 F5000.0 ; Move over to prevent blob squish
G92 E0
G92 E0
G1 F2100 E-6.5
;LAYER_COUNT:42
;LAYER:0
M107
G0 F6000 X97.974 Y125.506 Z0.2
;TYPE:SKIRT
G1 F2100 E0
G1 F1200 X98.551 Y125.094 E0.02358
G1 X98.859 Y124.885 E0.03596
G1 X99.506 Y124.478 E0.06138
G1 X101.124 Y123.537 E0.12364
G1 X101.802 Y123.153 E0.14955
G1 X102.382 Y122.846 E0.17138
G1 X102.921 Y122.582 E0.19134
G1 X103.477 Y122.326 E0.2117
G1 X104.229 Y122.021 E0.23869
G1 X105.436 Y121.582 E0.28141
G1 X106.896 Y121.065 E0.33292
G1 X107.618 Y120.833 E0.35815
G1 X108.244 Y120.661 E0.37974
G1 X108.606 Y120.573 E0.39213
G1 X109.3 Y120.428 E0.41571
G1 X111.809 Y119.987 E0.50044
G1 X112.438 Y119.895 E0.52158
G1 X113.226 Y119.813 E0.54793
G1 X113.69 Y119.779 E0.56341
G1 X114.494 Y119.75 E0.59017
G1 X117.097 Y119.75 E0.67674
G1 X117.75 Y119.769 E0.69847
G1 X118.507 Y119.825 E0.72372
G1 X119.025 Y119.879 E0.74104
G1 X119.793 Y119.987 E0.76684
G1 X122.347 Y120.437 E0.85309
G1 X123.106 Y120.598 E0.8789
G1 X123.709 Y120.755 E0.89962
G1 X124.428 Y120.963 E0.92452
G1 X126.112 Y121.499 E0.98329
G1 X128.481 Y122.207 E1.06553
G1 X130.962 Y122.873 E1.15097
G1 X133.412 Y123.457 E1.23474
G1 X135.868 Y123.968 E1.31818
G1 X138.331 Y124.41 E1.40141
G1 X140.809 Y124.782 E1.48475
G1 X143.337 Y125.089 E1.56945
G1 X145.841 Y125.321 E1.65309
G1 X148.369 Y125.483 E1.73734
G1 X151.234 Y125.603 E1.83272
G1 X151.619 Y125.626 E1.84554
G1 X152.525 Y125.701 E1.87578
G1 X153.323 Y125.796 E1.90251
G1 X154.042 Y125.907 E1.92671
G1 X154.589 Y126.005 E1.94519
G1 X155.393 Y126.172 E1.9725
G1 X155.789 Y126.265 E1.98603
G1 X156.441 Y126.436 E2.00845
G1 X157.414 Y126.723 E2.04219
G1 X158.117 Y126.959 E2.06685
G1 X158.91 Y127.254 E2.095
G1 X159.733 Y127.593 E2.1246
G1 X160.382 Y127.886 E2.14828
G1 X161.183 Y128.28 E2.17797
G1 X161.927 Y128.679 E2.20605
G1 X162.291 Y128.887 E2.22
G1 X162.997 Y129.316 E2.24747
G1 X163.719 Y129.787 E2.27615
G1 X164.357 Y130.235 E2.30207
G1 X164.676 Y130.471 E2.31527
G1 X165.36 Y131.004 E2.34411
G1 X165.722 Y131.302 E2.35971
G1 X166.253 Y131.761 E2.38305
G1 X166.882 Y132.343 E2.41156
G1 X167.574 Y133.032 E2.44404
G1 X168.093 Y133.583 E2.46921
G1 X168.362 Y133.883 E2.48261
G1 X168.761 Y134.354 E2.50314
G1 X169.227 Y134.93 E2.52779
G1 X169.475 Y135.249 E2.54123
G1 X169.816 Y135.713 E2.56038
G1 X170.188 Y136.245 E2.58197
G1 X170.558 Y136.803 E2.60424
G1 X170.76 Y137.124 E2.61685
G1 X171.231 Y137.915 E2.64747
G1 X171.445 Y138.299 E2.66209
G1 X171.82 Y139.016 E2.68901
G1 X172.19 Y139.784 E2.71736
G1 X172.346 Y140.129 E2.72995
G1 X172.638 Y140.82 E2.7549
G1 X172.93 Y141.581 E2.78201
G1 X173.26 Y142.533 E2.81552
G1 X173.458 Y143.183 E2.83812
G1 X173.685 Y144.025 E2.86713
G1 X173.817 Y144.572 E2.88585
G1 X173.925 Y145.068 E2.90273
G1 X174.05 Y145.716 E2.92468
G1 X174.149 Y146.318 E2.94497
G1 X174.25 Y147.061 E2.96991
G1 X174.326 Y147.755 E2.99313
G1 X174.389 Y148.598 E3.02125
G1 X174.421 Y149.365 E3.04678
G1 X174.428 Y150.304 E3.07801
G1 X174.411 Y150.974 E3.1003
G1 X174.348 Y151.985 E3.13399
G1 X174.289 Y152.622 E3.15527
G1 X174.163 Y153.591 E3.18777
G1 X174.032 Y154.388 E3.21464
G1 X173.96 Y154.77 E3.22757
G1 X173.802 Y155.502 E3.25247
G1 X173.587 Y156.363 E3.28199
G1 X173.354 Y157.17 E3.30993
G1 X173.138 Y157.834 E3.33315
G1 X172.931 Y158.42 E3.35382
G1 X172.654 Y159.142 E3.37954
G1 X172.504 Y159.505 E3.3926
G1 X172.208 Y160.176 E3.417
G1 X171.834 Y160.958 E3.44583
G1 X171.467 Y161.658 E3.47212
G1 X170.992 Y162.495 E3.50413
G1 X170.742 Y162.906 E3.52013
G1 X170.413 Y163.421 E3.54045
G1 X170.18 Y163.766 E3.5543
G1 X169.615 Y164.561 E3.58674
G1 X169.175 Y165.136 E3.61082
G1 X168.565 Y165.88 E3.64282
G1 X168.109 Y166.397 E3.66575
G1 X167.524 Y167.02 E3.69417
G1 X166.888 Y167.652 E3.72399
G1 X166.263 Y168.231 E3.75233
G1 X165.711 Y168.708 E3.77659
G1 X165.13 Y169.179 E3.80147
G1 X164.329 Y169.785 E3.83488
G1 X163.651 Y170.26 E3.86241
G1 X163.32 Y170.479 E3.87561
G1 X162.637 Y170.906 E3.9024
G1 X162.301 Y171.105 E3.91539
G1 X161.548 Y171.528 E3.94412
G1 X161.226 Y171.698 E3.95623
G1 X160.4 Y172.104 E3.98684
G1 X159.593 Y172.467 E4.01627
G1 X158.951 Y172.731 E4.03936
G1 X158.109 Y173.043 E4.06922
G1 X157.341 Y173.3 E4.09616
G1 X156.5 Y173.548 E4.12532
G1 X155.663 Y173.764 E4.15407
G1 X155.037 Y173.905 E4.17542
G1 X154.027 Y174.094 E4.20959
G1 X153.259 Y174.212 E4.23544
G1 X152.625 Y174.289 E4.25668
G1 X152.213 Y174.328 E4.27044
G1 X151.131 Y174.403 E4.30652
G1 X149.539 Y174.468 E4.35951
G1 X149.339 Y174.484 E4.36618
G1 X147.904 Y174.543 E4.41395
G1 X145.37 Y174.718 E4.49843
G1 X142.896 Y174.958 E4.58111
G1 X140.375 Y175.277 E4.66562
G1 X137.899 Y175.661 E4.74896
G1 X135.424 Y176.116 E4.83266
G1 X132.977 Y176.639 E4.91588
G1 X130.532 Y177.234 E4.99958
G1 X128.104 Y177.898 E5.0833
G1 X125.284 Y178.761 E5.18139
G1 X124.346 Y179.056 E5.21409
G1 X123.397 Y179.323 E5.24688
G1 X122.317 Y179.569 E5.28372
G1 X119.755 Y180.018 E5.37023
G1 X119.117 Y180.11 E5.39167
G1 X118.362 Y180.187 E5.41691
G1 X117.891 Y180.221 E5.43262
G1 X117.049 Y180.25 E5.46064
G1 X114.413 Y180.238 E5.54832
G1 X113.623 Y180.206 E5.57461
G1 X112.892 Y180.15 E5.599
G1 X111.924 Y180.032 E5.63143
G1 X111.298 Y179.927 E5.65254
G1 X110.058 Y179.7 E5.69447
G1 X109.333 Y179.578 E5.71892
G1 X108.468 Y179.396 E5.74832
G1 X107.85 Y179.234 E5.76957
G1 X107.384 Y179.1 E5.7857
G1 X106.616 Y178.848 E5.81258
G1 X104.158 Y177.941 E5.89973
G1 X103.463 Y177.657 E5.9247
G1 X102.81 Y177.364 E5.9485
G1 X101.814 Y176.855 E5.9857
G1 X99.543 Y175.544 E6.07292
G1 X98.857 Y175.113 E6.09987
G1 X98.281 Y174.716 E6.12313
G1 X97.931 Y174.462 E6.13752
G1 X97.29 Y173.959 E6.16462
G1 X96.047 Y172.908 E6.21876
G1 X95.433 Y172.399 E6.24528
G1 X94.917 Y171.943 E6.26819
G1 X94.324 Y171.37 E6.29561
G1 X93.995 Y171.031 E6.31133
G1 X93.458 Y170.436 E6.33798
G1 X91.786 Y168.441 E6.42456
G1 X91.33 Y167.857 E6.4492
G1 X91.109 Y167.554 E6.46168
G1 X90.672 Y166.92 E6.48729
G1 X90.272 Y166.285 E6.51225
G1 X89.265 Y164.552 E6.57891
G1 X88.949 Y163.993 E6.60027
G1 X88.643 Y163.411 E6.62214
G1 X88.379 Y162.871 E6.64213
G1 X88.119 Y162.308 E6.66276
G1 X87.82 Y161.569 E6.68927
G1 X87.382 Y160.364 E6.73192
G1 X86.865 Y158.904 E6.78343
G1 X86.633 Y158.182 E6.80866
G1 X86.461 Y157.556 E6.83025
G1 X86.373 Y157.194 E6.84264
G1 X86.228 Y156.5 E6.86622
G1 X85.787 Y153.991 E6.95095
G1 X85.695 Y153.362 E6.97209
G1 X85.613 Y152.565 E6.99874
G1 X85.579 Y152.096 E7.01438
G1 X85.55 Y151.251 E7.0425
G1 X85.562 Y148.613 E7.13024
G1 X85.594 Y147.823 E7.15654
G1 X85.65 Y147.092 E7.18092
G1 X85.768 Y146.124 E7.21336
G1 X85.873 Y145.498 E7.23447
G1 X86.113 Y144.185 E7.27886
G1 X86.225 Y143.522 E7.30123
G1 X86.401 Y142.684 E7.32971
G1 X86.559 Y142.074 E7.35067
G1 X86.689 Y141.618 E7.36644
G1 X86.949 Y140.823 E7.39426
G1 X87.86 Y138.356 E7.48173
G1 X88.153 Y137.641 E7.50743
G1 X88.46 Y136.961 E7.53224
G1 X88.961 Y135.984 E7.56876
G1 X90.258 Y133.739 E7.65499
G1 X90.687 Y133.057 E7.68179
G1 X91.09 Y132.474 E7.70536
G1 X91.343 Y132.126 E7.71967
G1 X91.835 Y131.498 E7.74621
G1 X92.863 Y130.28 E7.79922
G1 X93.461 Y129.558 E7.8304
G1 X94.243 Y128.71 E7.86877
G1 X94.736 Y128.228 E7.8917
G1 X95.358 Y127.664 E7.91963
G1 X97.365 Y125.981 E8.00674
G1 X97.974 Y125.506 E8.03243
G0 F6000 X98.209 Y125.83
G1 F1200 X98.776 Y125.425 E8.05561
G1 X99.084 Y125.216 E8.06799
G1 X99.707 Y124.824 E8.09247
G1 X101.432 Y123.822 E8.15882
G1 X101.999 Y123.501 E8.18049
G1 X102.558 Y123.206 E8.20151
G1 X103.097 Y122.942 E8.22147
G1 X103.641 Y122.691 E8.2414
G1 X104.366 Y122.396 E8.26743
G1 X105.57 Y121.959 E8.31004
G1 X107.03 Y121.442 E8.36155
G1 X107.735 Y121.216 E8.38617
G1 X108.338 Y121.05 E8.40698
G1 X108.7 Y120.962 E8.41937
G1 X109.369 Y120.822 E8.4421
G1 X111.878 Y120.381 E8.52683
G1 X112.484 Y120.292 E8.5472
G1 X113.255 Y120.212 E8.57298
G1 X113.719 Y120.178 E8.58846
G1 X114.494 Y120.15 E8.61425
G1 X117.097 Y120.15 E8.70083
G1 X117.726 Y120.169 E8.72176
G1 X118.465 Y120.223 E8.7464
G1 X118.983 Y120.277 E8.76372
G1 X119.723 Y120.381 E8.78858
G1 X122.277 Y120.831 E8.87483
G1 X123.009 Y120.986 E8.89972
G1 X123.6 Y121.139 E8.92002
G1 X124.02 Y121.258 E8.93454
G1 X125.978 Y121.876 E9.00283
G1 X128.409 Y122.603 E9.08723
G1 X130.829 Y123.252 E9.17056
G1 X133.31 Y123.844 E9.25539
G1 X135.794 Y124.36 E9.33978
G1 X138.267 Y124.804 E9.42334
G1 X140.778 Y125.181 E9.5078
G1 X143.284 Y125.485 E9.59176
G1 X145.814 Y125.72 E9.67627
G1 X148.324 Y125.881 E9.75992
G1 X151.218 Y126.002 E9.85626
G1 X152.133 Y126.066 E9.88677
G1 X152.889 Y126.144 E9.91205
G1 X153.265 Y126.192 E9.92465
G1 X153.971 Y126.301 E9.94841
G1 X154.518 Y126.399 E9.9669
G1 X155.309 Y126.563 E9.99376
G1 X155.69 Y126.652 E10.00678
G1 X156.331 Y126.82 E10.02882
G1 X157.29 Y127.103 E10.06207
G1 X157.981 Y127.335 E10.08632
G1 X158.76 Y127.625 E10.11396
G1 X159.571 Y127.958 E10.14312
G1 X159.894 Y128.101 E10.15487
G1 X160.662 Y128.466 E10.18315
G1 X160.997 Y128.634 E10.19562
G1 X161.728 Y129.027 E10.22322
G1 X162.39 Y129.411 E10.24868
G1 X163.096 Y129.853 E10.27638
G1 X163.498 Y130.12 E10.29243
G1 X164.125 Y130.56 E10.31791
G1 X164.432 Y130.788 E10.33063
G1 X165.106 Y131.313 E10.35904
G1 X165.468 Y131.611 E10.37464
G1 X165.989 Y132.062 E10.39756
G1 X166.608 Y132.635 E10.42561
G1 X166.903 Y132.922 E10.4393
G1 X167.513 Y133.546 E10.46832
G1 X168.059 Y134.145 E10.49528
G1 X168.45 Y134.606 E10.51539
G1 X169.155 Y135.489 E10.55297
G1 X169.488 Y135.943 E10.5717
G1 X169.86 Y136.475 E10.59329
G1 X170.223 Y137.022 E10.61512
G1 X170.692 Y137.784 E10.64488
G1 X171.095 Y138.494 E10.67203
G1 X171.464 Y139.199 E10.6985
G1 X171.828 Y139.955 E10.72641
G1 X171.978 Y140.287 E10.73853
G1 X172.266 Y140.967 E10.76309
G1 X172.553 Y141.714 E10.7897
G1 X172.879 Y142.653 E10.82276
G1 X173.073 Y143.29 E10.84491
G1 X173.206 Y143.769 E10.86145
G1 X173.428 Y144.665 E10.89215
G1 X173.532 Y145.144 E10.90845
G1 X173.657 Y145.792 E10.9304
G1 X173.752 Y146.372 E10.94995
G1 X173.896 Y147.478 E10.98704
G1 X173.958 Y148.149 E11.00946
G1 X174.008 Y148.972 E11.03688
G1 X174.028 Y149.743 E11.06253
G1 X174.028 Y150.304 E11.08119
G1 X174.012 Y150.96 E11.10302
G1 X173.949 Y151.958 E11.13628
G1 X173.891 Y152.582 E11.15712
G1 X173.767 Y153.536 E11.18912
G1 X173.638 Y154.32 E11.21554
G1 X173.568 Y154.689 E11.22804
G1 X173.413 Y155.408 E11.2525
G1 X173.201 Y156.256 E11.28157
G1 X172.973 Y157.049 E11.30902
G1 X172.761 Y157.701 E11.33182
G1 X172.554 Y158.287 E11.35249
G1 X172.282 Y158.996 E11.37775
G1 X172.137 Y159.346 E11.39035
G1 X171.846 Y160.007 E11.41437
G1 X171.478 Y160.776 E11.44272
G1 X171.118 Y161.464 E11.46855
G1 X170.852 Y161.941 E11.48671
G1 X170.4 Y162.698 E11.51604
G1 X170.078 Y163.203 E11.53596
G1 X169.493 Y164.048 E11.57014
G1 X169.077 Y164.61 E11.5934
G1 X168.534 Y165.294 E11.62245
G1 X168.005 Y165.914 E11.64955
G1 X167.524 Y166.441 E11.67328
G1 X167.241 Y166.738 E11.68693
G1 X166.853 Y167.128 E11.70523
G1 X166.293 Y167.663 E11.73099
G1 X165.695 Y168.197 E11.75765
G1 X165.172 Y168.634 E11.78032
G1 X164.407 Y169.23 E11.81257
G1 X164.097 Y169.459 E11.82539
G1 X163.43 Y169.926 E11.85247
G1 X162.813 Y170.328 E11.87697
G1 X162.103 Y170.758 E11.90457
G1 X161.651 Y171.015 E11.92187
G1 X161.039 Y171.344 E11.94498
G1 X160.226 Y171.744 E11.97511
G1 X159.872 Y171.907 E11.98808
G1 X159.136 Y172.225 E12.01474
G1 X158.46 Y172.49 E12.03889
G1 X157.622 Y172.788 E12.06848
G1 X156.879 Y173.023 E12.09439
G1 X156.389 Y173.164 E12.11135
G1 X155.567 Y173.376 E12.13959
G1 X154.952 Y173.514 E12.16055
G1 X153.956 Y173.7 E12.19425
G1 X153.202 Y173.816 E12.21962
G1 X152.58 Y173.891 E12.24046
G1 X152.183 Y173.929 E12.25373
G1 X151.114 Y174.003 E12.28937
G1 X149.621 Y174.064 E12.33907
G1 X149.323 Y174.084 E12.349
G1 X147.894 Y174.142 E12.39657
G1 X145.343 Y174.319 E12.48162
G1 X142.836 Y174.563 E12.56539
G1 X140.34 Y174.878 E12.64907
G1 X137.837 Y175.266 E12.73331
G1 X135.34 Y175.726 E12.81776
G1 X132.863 Y176.255 E12.90201
G1 X130.445 Y176.843 E12.98477
G1 X127.999 Y177.512 E13.06912
G1 X125.148 Y178.385 E13.16829
G1 X124.238 Y178.671 E13.20001
G1 X123.289 Y178.938 E13.2328
G1 X122.248 Y179.175 E13.26831
G1 X119.686 Y179.624 E13.35482
G1 X119.071 Y179.713 E13.37549
G1 X118.333 Y179.788 E13.40016
G1 X117.862 Y179.822 E13.41587
G1 X117.051 Y179.85 E13.44286
G1 X114.415 Y179.838 E13.53053
G1 X113.653 Y179.807 E13.5559
G1 X112.922 Y179.751 E13.58028
G1 X111.989 Y179.638 E13.61154
G1 X111.533 Y179.562 E13.62692
G1 X110.131 Y179.307 E13.67431
G1 X109.399 Y179.183 E13.69901
G1 X108.566 Y179.008 E13.72732
G1 X107.961 Y178.849 E13.74812
G1 X107.495 Y178.715 E13.76425
G1 X106.754 Y178.473 E13.79018
G1 X104.296 Y177.566 E13.87732
G1 X103.627 Y177.292 E13.90136
G1 X102.974 Y176.999 E13.92517
G1 X102.013 Y176.508 E13.96106
G1 X99.742 Y175.197 E14.04828
G1 X99.082 Y174.782 E14.07421
G1 X98.516 Y174.392 E14.09707
G1 X98.166 Y174.138 E14.11145
G1 X97.548 Y173.654 E14.13756
G1 X96.254 Y172.56 E14.19392
G1 X95.688 Y172.091 E14.21837
G1 X95.191 Y171.652 E14.24042
G1 X94.611 Y171.091 E14.26726
G1 X94.282 Y170.752 E14.28297
G1 X93.765 Y170.179 E14.30864
G1 X92.093 Y168.184 E14.39522
G1 X91.653 Y167.621 E14.41899
G1 X91.219 Y167.015 E14.44378
G1 X91.003 Y166.696 E14.45659
G1 X90.618 Y166.083 E14.48067
G1 X89.613 Y164.355 E14.54715
G1 X89.297 Y163.796 E14.56851
G1 X89.002 Y163.236 E14.58956
G1 X88.738 Y162.696 E14.60955
G1 X88.484 Y162.144 E14.62977
G1 X88.196 Y161.432 E14.65531
G1 X87.759 Y160.23 E14.69785
G1 X87.242 Y158.77 E14.74936
G1 X87.016 Y158.065 E14.77399
G1 X86.85 Y157.462 E14.79479
G1 X86.762 Y157.1 E14.80718
G1 X86.622 Y156.431 E14.82991
G1 X86.181 Y153.922 E14.91464
G1 X86.092 Y153.316 E14.93501
G1 X86.012 Y152.536 E14.96109
G1 X85.978 Y152.067 E14.97673
G1 X85.95 Y151.253 E15.00382
G1 X85.962 Y148.615 E15.09156
G1 X85.993 Y147.853 E15.11693
G1 X86.049 Y147.122 E15.14131
G1 X86.162 Y146.189 E15.17257
G1 X86.238 Y145.733 E15.18795
G1 X86.489 Y144.354 E15.23457
G1 X86.619 Y143.589 E15.26038
G1 X86.789 Y142.781 E15.28784
G1 X86.944 Y142.184 E15.30835
G1 X87.074 Y141.728 E15.32412
G1 X87.324 Y140.962 E15.35092
G1 X88.235 Y138.495 E15.43839
G1 X88.518 Y137.805 E15.4632
G1 X88.825 Y137.125 E15.48801
G1 X89.308 Y136.184 E15.52319
G1 X90.605 Y133.939 E15.60943
G1 X91.018 Y133.282 E15.63524
G1 X91.413 Y132.709 E15.65838
G1 X91.666 Y132.361 E15.67269
G1 X92.141 Y131.756 E15.69828
G1 X93.236 Y130.459 E15.75473
G1 X93.77 Y129.814 E15.78259
G1 X94.523 Y128.996 E15.81956
G1 X95.016 Y128.514 E15.8425
G1 X95.615 Y127.971 E15.86939
G1 X97.622 Y126.288 E15.9565
G1 X98.209 Y125.83 E15.98127
G0 F6000 X98.444 Y126.154
G1 F1200 X99.001 Y125.756 E16.00404
G1 X99.309 Y125.547 E16.01642
G1 X99.908 Y125.17 E16.03996
G1 X101.629 Y124.17 E16.10616
G1 X102.196 Y123.849 E16.12783
G1 X102.734 Y123.565 E16.14806
G1 X103.273 Y123.301 E16.16803
G1 X103.805 Y123.056 E16.18751
G1 X104.503 Y122.772 E16.21257
G1 X105.703 Y122.336 E16.25504
G1 X107.163 Y121.819 E16.30655
G1 X107.852 Y121.598 E16.33062
G1 X108.433 Y121.439 E16.35065
G1 X108.795 Y121.351 E16.36304
G1 X109.438 Y121.216 E16.38489
G1 X111.947 Y120.775 E16.46962
G1 X112.53 Y120.69 E16.48922
G1 X113.285 Y120.611 E16.51447
G1 X113.749 Y120.577 E16.52994
G1 X114.494 Y120.55 E16.55474
G1 X117.097 Y120.55 E16.64131
G1 X117.703 Y120.568 E16.66148
G1 X118.424 Y120.621 E16.68552
G1 X118.942 Y120.675 E16.70284
G1 X119.654 Y120.775 E16.72676
G1 X122.208 Y121.225 E16.81301
G1 X122.912 Y121.375 E16.83695
G1 X123.491 Y121.524 E16.85684
G1 X124.188 Y121.726 E16.88097
