;FLAVOR:Marlin
;TIME:1605
;Filament used: 1.02999m
;Layer height: 0.16
;MINX:104.223
;MINY:105.583
;MINZ:0.2
;MAXX:195.349
;MAXY:193.974
;MAXZ:3.88
;Generated with Cura_SteamEngine 5.2.2
M140 S60
M105
M190 S60
M104 S210
M105
M109 S210
M82 ;absolute extrusion mode
; Ender 3 Max Custom Start G-code
G92 E0 ; Reset Extruder
G28 ; Home all axes
G1 Z2.0 F3000 ; Move Z Axis up little to prevent scratching of Heat Bed
G1 X0.1 Y20 Z0.3 F5000.0 ; Move to start position
G1 X0.1 Y200.0 Z0.3 F1500.0 E15 ; Draw the first line
G1 X0.4 Y200.0 Z0.3 F5000.0 ; Move to side a little
G1 X0.4 Y20 Z0.3 F1500.0 E30 ; Draw the second line
G92 E0 ; Reset Extruder
G1 Z2.0 F3000 ; Move Z Axis up little to prevent scratching of Heat Bed
G1 X5 Y20 Z0.3 F5000.0 ; Move over to prevent blob squish
G92 E0
G92 E0
G1 F2100 E-6.5
;LAYER_COUNT:23
;LAYER:0
M107
G0 F6000 X125.424 Y109.385 Z0.2
;TYPE:SKIRT
G1 F2100 E0
G1 F1200 X126.068 Y108.702 E0.03122
G1 X126.767 Y108.077 E0.06241
G1 X127.517 Y107.514 E0.0936
G1 X128.312 Y107.017 E0.12478
G1 X129.147 Y106.589 E0.15599
G1 X130.015 Y106.234 E0.18718
G1 X130.91 Y105.954 E0.21837
G1 X131.826 Y105.751 E0.24958
G1 X132.755 Y105.627 E0.28075
G1 X133.692 Y105.583 E0.31195
G1 X134.62 Y105.618 E0.34284
G1 X134.957 Y105.645 E0.35408
G1 X135.888 Y105.76 E0.38528
G1 X136.806 Y105.953 E0.41648
G1 X137.704 Y106.224 E0.44768
G1 X138.575 Y106.571 E0.47887
G1 X139.414 Y106.99 E0.51006
G1 X140.214 Y107.48 E0.54126
G1 X140.997 Y108.058 E0.57363
G1 X141.609 Y108.555 E0.59985
G1 X142.758 Y109.522 E0.6498
G1 X143.294 Y109.983 E0.67331
G1 X143.998 Y110.645 E0.70546
G1 X144.73 Y111.395 E0.74031
G1 X146.611 Y113.269 E0.82863
G1 X148.418 Y114.971 E0.91119
G1 X150.3 Y116.646 E0.99499
G1 X152.233 Y118.269 E1.07893
G1 X154.211 Y119.837 E1.16289
G1 X156.219 Y121.339 E1.24629
G1 X158.434 Y122.901 E1.33644
G1 X159.041 Y123.361 E1.36177
G1 X159.531 Y123.76 E1.38278
G1 X160.744 Y124.778 E1.43545
G1 X161.315 Y125.271 E1.46055
G1 X162.033 Y125.95 E1.49341
G1 X163.087 Y127.04 E1.54384
G1 X164.904 Y128.852 E1.62919
G1 X166.728 Y130.569 E1.71251
G1 X168.618 Y132.25 E1.79664
G1 X170.542 Y133.868 E1.88025
G1 X172.516 Y135.434 E1.96406
G1 X174.55 Y136.954 E2.04851
G1 X176.471 Y138.316 E2.12683
G1 X177.077 Y138.778 E2.15218
G1 X177.697 Y139.286 E2.17884
G1 X178.722 Y140.147 E2.22336
G1 X179.263 Y140.614 E2.24713
G1 X179.946 Y141.257 E2.27833
G1 X180.372 Y141.719 E2.29923
G1 X181.566 Y143.102 E2.36
G1 X183.289 Y145.018 E2.44571
G1 X185.002 Y146.819 E2.52838
G1 X186.796 Y148.601 E2.61248
G1 X188.614 Y150.306 E2.69538
G1 X190.502 Y151.982 E2.77934
G1 X191.45 Y152.8 E2.82099
G1 X192.134 Y153.442 E2.85219
G1 X192.76 Y154.141 E2.8834
G1 X193.324 Y154.89 E2.91459
G1 X193.823 Y155.684 E2.94578
G1 X194.252 Y156.518 E2.97697
G1 X194.608 Y157.386 E3.00817
G1 X194.921 Y158.4 E3.04347
G1 X195.005 Y158.728 E3.05473
G1 X195.199 Y159.646 E3.08594
G1 X195.314 Y160.576 E3.11711
G1 X195.349 Y161.514 E3.14833
G1 X195.304 Y162.45 E3.17949
G1 X195.18 Y163.38 E3.2107
G1 X194.976 Y164.296 E3.24191
G1 X194.696 Y165.191 E3.2731
G1 X194.34 Y166.058 E3.30428
G1 X193.912 Y166.893 E3.33548
G1 X193.414 Y167.688 E3.36668
G1 X192.999 Y168.253 E3.39
G1 X192.622 Y168.723 E3.41004
G1 X175.199 Y189.49 E4.31165
G1 X174.622 Y190.16 E4.34106
G1 X173.98 Y190.843 E4.37223
G1 X173.282 Y191.469 E4.40342
G1 X172.533 Y192.034 E4.43462
G1 X171.738 Y192.532 E4.46582
G1 X170.904 Y192.961 E4.49702
G1 X170.037 Y193.318 E4.5282
G1 X169.142 Y193.599 E4.5594
G1 X168.227 Y193.803 E4.59058
G1 X167.297 Y193.928 E4.62179
G1 X166.36 Y193.974 E4.653
G1 X165.418 Y193.939 E4.68435
G1 X165.08 Y193.912 E4.69563
G1 X164.149 Y193.798 E4.72682
G1 X163.232 Y193.604 E4.758
G1 X162.334 Y193.333 E4.7892
G1 X161.462 Y192.987 E4.8204
G1 X160.623 Y192.568 E4.85159
G1 X159.823 Y192.079 E4.88278
G1 X159.036 Y191.498 E4.91531
G1 X158.43 Y191.005 E4.94129
G1 X157.285 Y190.042 E4.99106
G1 X156.777 Y189.604 E5.01336
G1 X156.291 Y189.159 E5.03528
G1 X155.692 Y188.575 E5.06311
G1 X154.764 Y187.651 E5.10666
G1 X152.918 Y185.916 E5.19092
G1 X151.059 Y184.264 E5.27364
G1 X149.084 Y182.606 E5.35941
G1 X147.151 Y181.075 E5.44142
G1 X145.143 Y179.576 E5.52476
G1 X143.048 Y178.102 E5.60996
G1 X142.047 Y177.433 E5.65001
G1 X141.666 Y177.17 E5.66541
G1 X140.998 Y176.67 E5.69316
G1 X140.543 Y176.302 E5.71262
G1 X139.317 Y175.275 E5.76582
G1 X138.68 Y174.725 E5.79381
G1 X138.135 Y174.221 E5.8185
G1 X136.49 Y172.591 E5.89552
G1 X134.638 Y170.851 E5.98004
G1 X132.759 Y169.182 E6.06363
G1 X130.829 Y167.563 E6.14742
G1 X128.858 Y166.003 E6.23102
G1 X126.833 Y164.49 E6.3151
G1 X124.789 Y163.053 E6.3982
G1 X124.167 Y162.637 E6.42309
G1 X123.619 Y162.259 E6.44523
G1 X122.935 Y161.746 E6.47367
G1 X122.334 Y161.257 E6.49944
G1 X121.157 Y160.269 E6.55055
G1 X120.626 Y159.811 E6.57387
G1 X119.943 Y159.168 E6.60507
G1 X119.519 Y158.709 E6.62585
G1 X118.921 Y158.022 E6.65615
G1 X118.269 Y157.252 E6.6897
G1 X116.575 Y155.363 E6.7741
G1 X114.863 Y153.557 E6.85686
G1 X113.052 Y151.753 E6.94188
G1 X111.249 Y150.055 E7.02426
G1 X109.295 Y148.317 E7.11124
G1 X108.131 Y147.315 E7.16232
G1 X107.447 Y146.674 E7.1935
G1 X106.82 Y145.976 E7.22471
G1 X106.255 Y145.228 E7.25588
G1 X105.756 Y144.434 E7.28707
G1 X105.326 Y143.6 E7.31828
G1 X104.968 Y142.733 E7.34948
G1 X104.662 Y141.746 E7.38385
G1 X104.577 Y141.419 E7.39509
G1 X104.38 Y140.502 E7.42628
G1 X104.262 Y139.572 E7.45746
G1 X104.223 Y138.635 E7.48866
G1 X104.264 Y137.698 E7.51985
G1 X104.386 Y136.768 E7.55105
G1 X104.585 Y135.852 E7.58222
G1 X104.863 Y134.956 E7.61343
G1 X105.215 Y134.087 E7.64461
G1 X105.64 Y133.251 E7.6758
G1 X106.135 Y132.454 E7.70701
G1 X106.644 Y131.767 E7.73545
G1 X107.102 Y131.201 E7.75966
G1 X124.948 Y109.935 E8.68303
G1 X125.424 Y109.385 E8.70722
G0 F6000 X125.727 Y109.646
G1 F1200 X126.359 Y108.977 E8.73783
G1 X127.047 Y108.365 E8.76845
G1 X127.785 Y107.815 E8.79907
G1 X128.568 Y107.331 E8.82968
G1 X129.391 Y106.917 E8.86033
G1 X130.246 Y106.576 E8.89094
G1 X131.127 Y106.311 E8.92154
G1 X132.029 Y106.122 E8.95219
G1 X132.943 Y106.013 E8.98281
G1 X133.863 Y105.984 E9.01342
G1 X134.589 Y106.017 E9.03759
G1 X134.926 Y106.044 E9.04884
G1 X135.839 Y106.157 E9.07944
G1 X136.74 Y106.349 E9.11008
G1 X137.62 Y106.619 E9.14069
G1 X138.473 Y106.964 E9.1713
G1 X139.294 Y107.382 E9.20194
G1 X140.075 Y107.869 E9.23255
G1 X140.745 Y108.369 E9.26036
G1 X141.351 Y108.861 E9.28632
G1 X142.497 Y109.826 E9.33615
G1 X143.033 Y110.287 E9.35966
G1 X143.711 Y110.924 E9.3906
G1 X144.477 Y111.709 E9.42708
G1 X146.301 Y113.526 E9.51271
G1 X148.161 Y115.278 E9.5977
G1 X150.023 Y116.935 E9.6806
G1 X151.99 Y118.586 E9.76602
G1 X153.951 Y120.142 E9.84928
G1 X155.996 Y121.671 E9.9342
G1 X158.204 Y123.228 E10.02407
G1 X158.788 Y123.671 E10.04845
G1 X159.399 Y124.17 E10.07468
G1 X160.369 Y124.984 E10.1168
G1 X161.053 Y125.574 E10.14684
G1 X161.745 Y126.228 E10.17851
G1 X162.773 Y127.291 E10.2277
G1 X164.631 Y129.143 E10.31495
G1 X166.471 Y130.876 E10.39902
G1 X168.34 Y132.539 E10.48223
G1 X170.304 Y134.189 E10.56754
G1 X172.252 Y135.735 E10.65026
G1 X174.338 Y137.294 E10.73688
G1 X176.239 Y138.642 E10.81439
G1 X176.824 Y139.087 E10.83883
G1 X177.342 Y139.511 E10.8611
G1 X178.46 Y140.45 E10.90966
G1 X179.001 Y140.917 E10.93343
G1 X179.672 Y141.548 E10.96406
G1 X180.071 Y141.982 E10.98367
G1 X180.823 Y142.846 E11.02177
G1 X181.264 Y143.365 E11.04442
G1 X182.984 Y145.278 E11.12998
G1 X184.713 Y147.095 E11.21341
G1 X186.506 Y148.876 E11.29746
G1 X188.378 Y150.632 E11.38283
G1 X190.218 Y152.266 E11.46468
G1 X191.189 Y153.103 E11.50731
G1 X191.859 Y153.734 E11.53793
G1 X192.472 Y154.421 E11.56855
G1 X193.024 Y155.158 E11.59918
G1 X193.509 Y155.941 E11.62981
G1 X193.924 Y156.763 E11.66044
G1 X194.266 Y157.617 E11.69103
G1 X194.534 Y158.499 E11.72169
G1 X194.618 Y158.827 E11.73295
G1 X194.807 Y159.728 E11.76357
G1 X194.918 Y160.642 E11.7942
G1 X194.948 Y161.562 E11.82481
G1 X194.899 Y162.482 E11.85546
G1 X194.771 Y163.393 E11.88605
G1 X194.563 Y164.29 E11.91668
G1 X194.279 Y165.166 E11.94731
G1 X193.92 Y166.014 E11.97794
G1 X193.488 Y166.827 E12.00856
G1 X192.988 Y167.6 E12.03918
G1 X192.684 Y168.006 E12.05605
G1 X192.316 Y168.466 E12.07564
G1 X174.798 Y189.345 E12.98213
G1 X174.32 Y189.899 E13.00647
G1 X173.688 Y190.569 E13.0371
G1 X173.002 Y191.182 E13.0677
G1 X172.264 Y191.733 E13.09833
G1 X171.481 Y192.218 E13.12897
G1 X170.66 Y192.633 E13.15956
G1 X169.805 Y192.976 E13.1902
G1 X168.924 Y193.243 E13.22082
G1 X168.023 Y193.432 E13.25144
G1 X167.109 Y193.543 E13.28207
G1 X166.189 Y193.573 E13.31268
G1 X165.45 Y193.54 E13.33728
G1 X165.112 Y193.513 E13.34856
G1 X164.198 Y193.4 E13.37919
G1 X163.298 Y193.208 E13.4098
G1 X162.417 Y192.939 E13.44044
G1 X161.564 Y192.594 E13.47104
G1 X160.743 Y192.177 E13.50167
G1 X159.962 Y191.69 E13.53228
G1 X159.288 Y191.187 E13.56025
G1 X158.688 Y190.699 E13.58598
G1 X157.546 Y189.739 E13.6356
G1 X157.038 Y189.301 E13.65791
G1 X156.57 Y188.872 E13.67902
G1 X155.974 Y188.291 E13.70671
G1 X155.037 Y187.359 E13.75066
G1 X153.194 Y185.626 E13.8348
G1 X151.316 Y183.957 E13.91837
G1 X149.365 Y182.32 E14.00308
G1 X147.376 Y180.744 E14.08748
G1 X145.367 Y179.244 E14.17087
G1 X143.279 Y177.775 E14.25578
G1 X142.418 Y177.201 E14.2902
G1 X141.893 Y176.84 E14.31139
G1 X141.249 Y176.359 E14.33813
G1 X140.645 Y175.868 E14.36402
G1 X139.453 Y174.866 E14.41581
G1 X138.941 Y174.423 E14.43833
G1 X138.416 Y173.937 E14.46212
G1 X136.743 Y172.28 E14.54044
G1 X134.914 Y170.56 E14.62395
G1 X133.036 Y168.893 E14.70747
G1 X131.068 Y167.241 E14.79293
G1 X129.106 Y165.689 E14.87613
G1 X127.074 Y164.17 E14.96051
G1 X125.001 Y162.713 E15.04479
G1 X124.394 Y162.308 E15.06906
G1 X123.846 Y161.93 E15.0912
G1 X123.187 Y161.436 E15.11859
G1 X122.591 Y160.951 E15.14415
G1 X121.529 Y160.06 E15.19026
G1 X120.888 Y159.508 E15.21839
G1 X120.217 Y158.877 E15.24903
G1 X119.821 Y158.446 E15.26849
G1 X119.227 Y157.763 E15.2986
G1 X118.589 Y157.01 E15.33143
G1 X116.863 Y155.084 E15.41744
G1 X115.136 Y153.263 E15.50092
G1 X113.362 Y151.496 E15.5842
G1 X111.507 Y149.748 E15.66897
G1 X109.572 Y148.028 E15.75508
G1 X108.392 Y147.012 E15.80687
G1 X107.721 Y146.382 E15.83748
G1 X107.107 Y145.695 E15.86813
G1 X106.556 Y144.958 E15.89873
G1 X106.07 Y144.176 E15.92936
G1 X105.654 Y143.355 E15.95997
G1 X105.31 Y142.501 E15.99059
G1 X105.049 Y141.646 E16.02032
G1 X104.964 Y141.319 E16.03156
G1 X104.771 Y140.418 E16.06221
G1 X104.657 Y139.505 E16.09281
G1 X104.623 Y138.585 E16.12343
G1 X104.669 Y137.665 E16.15407
G1 X104.794 Y136.753 E16.18469
G1 X104.999 Y135.856 E16.21529
G1 X105.28 Y134.979 E16.24592
G1 X105.636 Y134.13 E16.27654
G1 X106.065 Y133.315 E16.30717
G1 X106.562 Y132.541 E16.33777
G1 X106.956 Y132.017 E16.35957
G1 X107.408 Y131.458 E16.38348
G1 X125.146 Y110.319 E17.3013
G1 X125.727 Y109.646 E17.33087
G0 F6000 X126.029 Y109.908
G1 F1200 X126.65 Y109.252 E17.36092
G1 X127.326 Y108.653 E17.39096
G1 X128.053 Y108.117 E17.421
G1 X128.824 Y107.647 E17.45103
G1 X129.634 Y107.247 E17.48108
G1 X130.476 Y106.92 E17.51112
G1 X131.343 Y106.669 E17.54114
G1 X132.229 Y106.496 E17.57117
G1 X133.128 Y106.402 E17.60123
G1 X134.031 Y106.387 E17.63127
G1 X134.557 Y106.416 E17.64879
G1 X134.894 Y106.443 E17.66003
G1 X135.79 Y106.554 E17.69006
G1 X136.672 Y106.745 E17.72008
G1 X137.535 Y107.013 E17.75013
G1 X138.37 Y107.357 E17.78017
G1 X139.172 Y107.772 E17.8102
G1 X139.934 Y108.258 E17.84027
G1 X140.494 Y108.68 E17.86359
G1 X141.094 Y109.167 E17.88929
G1 X142.15 Y110.055 E17.93518
G1 X142.772 Y110.59 E17.96247
G1 X143.425 Y111.203 E17.99226
G1 X144.191 Y111.989 E18.02876
G1 X146.027 Y113.818 E18.11496
G1 X147.904 Y115.585 E18.2007
G1 X149.783 Y117.257 E18.28435
G1 X151.712 Y118.877 E18.36813
G1 X153.726 Y120.474 E18.45362
G1 X155.748 Y121.986 E18.5376
G1 X157.973 Y123.555 E18.62815
G1 X158.536 Y123.982 E18.65165
G1 X159.142 Y124.477 E18.67768
G1 X160.221 Y125.383 E18.72454
G1 X160.792 Y125.876 E18.74963
G1 X161.458 Y126.506 E18.78012
G1 X162.513 Y127.597 E18.8306
G1 X164.339 Y129.417 E18.91635
G1 X166.214 Y131.183 E19.00202
G1 X168.1 Y132.861 E19.08598
G1 X170.021 Y134.476 E19.16945
G1 X172.031 Y136.07 E19.25478
G1 X174.062 Y137.589 E19.33913
G1 X176.008 Y138.968 E19.41846
G1 X176.571 Y139.397 E19.442
G1 X177.183 Y139.899 E19.46833
G1 X178.089 Y140.659 E19.50766
G1 X178.74 Y141.22 E19.53624
G1 X179.397 Y141.84 E19.56629
G1 X179.769 Y142.244 E19.58455
G1 X180.979 Y143.646 E19.64615
G1 X182.681 Y145.538 E19.73079
G1 X184.442 Y147.39 E19.81579
G1 X186.233 Y149.168 E19.89973
G1 X188.102 Y150.923 E19.985
G1 X189.94 Y152.553 E20.06671
G1 X190.928 Y153.406 E20.11013
G1 X191.585 Y154.025 E20.14015
G1 X192.184 Y154.701 E20.17019
G1 X192.722 Y155.426 E20.20022
G1 X193.193 Y156.197 E20.23027
G1 X193.595 Y157.006 E20.26031
G1 X193.923 Y157.847 E20.29034
G1 X194.146 Y158.598 E20.31639
G1 X194.23 Y158.926 E20.32766
G1 X194.415 Y159.81 E20.35769
G1 X194.521 Y160.707 E20.38774
G1 X194.548 Y161.61 E20.41778
G1 X194.494 Y162.511 E20.4478
G1 X194.361 Y163.405 E20.47787
G1 X194.15 Y164.283 E20.5079
G1 X193.861 Y165.139 E20.53795
G1 X193.498 Y165.966 E20.56799
G1 X193.064 Y166.757 E20.598
G1 X192.369 Y167.759 E20.63856
G1 X192.009 Y168.209 E20.65772
G1 X174.495 Y189.083 E21.564
G1 X174.017 Y189.637 E21.58834
G1 X173.397 Y190.294 E21.61838
G1 X172.722 Y190.894 E21.64842
G1 X171.996 Y191.431 E21.67846
G1 X171.226 Y191.903 E21.7085
G1 X170.416 Y192.304 E21.73856
G1 X169.575 Y192.632 E21.76858
G1 X168.708 Y192.884 E21.79861
G1 X167.822 Y193.059 E21.82865
G1 X166.924 Y193.155 E21.85869
G1 X166.021 Y193.17 E21.88872
G1 X165.482 Y193.142 E21.90668
G1 X165.144 Y193.115 E21.91795
G1 X164.248 Y193.003 E21.94799
G1 X163.365 Y192.812 E21.97803
G1 X162.502 Y192.545 E22.00808
G1 X161.667 Y192.201 E22.03812
G1 X160.865 Y191.786 E22.06815
G1 X160.103 Y191.301 E22.09819
G1 X159.539 Y190.876 E22.12168
G1 X159.088 Y190.511 E22.14098
G1 X157.807 Y189.436 E22.1966
G1 X157.299 Y188.998 E22.21891
G1 X156.849 Y188.585 E22.23922
G1 X156.256 Y188.008 E22.26674
G1 X155.311 Y187.067 E22.3111
G1 X153.451 Y185.318 E22.39602
G1 X151.594 Y183.668 E22.47864
G1 X149.604 Y181.998 E22.56505
G1 X147.618 Y180.425 E22.64931
G1 X145.614 Y178.929 E22.73249
G1 X143.491 Y177.435 E22.81883
G1 X142.64 Y176.868 E22.85284
G1 X142.121 Y176.511 E22.87379
G1 X141.501 Y176.048 E22.89953
G1 X141.046 Y175.68 E22.91899
G1 X139.831 Y174.662 E22.97172
G1 X139.203 Y174.12 E22.99931
G1 X138.698 Y173.652 E23.02221
G1 X137.055 Y172.024 E23.09914
G1 X135.171 Y170.253 E23.18514
G1 X133.293 Y168.586 E23.26866
G1 X131.327 Y166.937 E23.354
G1 X129.348 Y165.37 E23.43796
G1 X127.321 Y163.855 E23.52213
G1 X125.231 Y162.386 E23.6071
G1 X124.765 Y162.076 E23.62571
G1 X124.073 Y161.6 E23.65365
G1 X123.439 Y161.125 E23.67999
G1 X122.848 Y160.644 E23.70534
G1 X121.68 Y159.663 E23.75607
G1 X121.149 Y159.205 E23.77939
G1 X120.492 Y158.585 E23.80944
G1 X120.122 Y158.183 E23.82761
G1 X119.532 Y157.505 E23.8575
G1 X118.876 Y156.73 E23.89128
G1 X117.168 Y154.825 E23.97637
G1 X115.425 Y152.988 E24.0606
G1 X113.636 Y151.204 E24.14463
G1 X111.764 Y149.441 E24.23016
G1 X109.848 Y147.738 E24.31542
G1 X108.653 Y146.709 E24.36787
G1 X107.995 Y146.09 E24.39792
G1 X107.395 Y145.415 E24.42796
G1 X106.857 Y144.69 E24.45798
G1 X106.385 Y143.92 E24.48802
G1 X105.983 Y143.112 E24.51804
G1 X105.654 Y142.271 E24.54807
G1 X105.436 Y141.545 E24.57329
G1 X105.351 Y141.218 E24.58452
G1 X105.163 Y140.335 E24.61455
G1 X105.053 Y139.438 E24.64461
G1 X105.024 Y138.536 E24.67462
G1 X105.074 Y137.634 E24.70467
G1 X105.204 Y136.74 E24.73472
G1 X105.412 Y135.862 E24.76473
G1 X105.697 Y135.005 E24.79477
G1 X106.057 Y134.176 E24.82483
G1 X106.489 Y133.383 E24.85486
G1 X106.989 Y132.631 E24.8849
G1 X107.268 Y132.267 E24.90015
G1 X107.573 Y131.887 E24.91636
G1 X125.553 Y110.458 E25.84674
G1 X126.029 Y109.908 E25.87093
G1 F2100 E19.37093
;MESH:Dowels.stl(2)
G0 F6000 X133.089 Y116.312
G0 X133.917 Y117.006
G0 X117.398 Y138.9
;TYPE:WALL-INNER
G1 F2100 E25.87093
G1 F1132.1 X134.364 Y118.68 E26.80151
G1 X134.039 Y118.408 E26.81645
G1 X117.073 Y138.628 E27.74702
G1 X117.398 Y138.9 E27.76196
G0 F6000 X117.449 Y139.481
G1 F1200 X134.945 Y118.63 E28.66727
