;FLAVOR:Marlin
;TIME:11124
;Filament used: 6.22336m
;Layer height: 0.16
;MINX:134.415
;MINY:72.249
;MINZ:0.2
;MAXX:172.525
;MAXY:227.951
;MAXZ:12.28
;Generated with Cura_SteamEngine 5.2.2
M140 S60
M105
M190 S60
M104 S210
M105
M109 S210
M82 ;absolute extrusion mode
; Ender 3 Max Custom Start G-code
G92 E0 ; Reset Extruder
G28 ; Home all axes
G1 Z2.0 F3000 ; Move Z Axis up little to prevent scratching of Heat Bed
G1 X0.1 Y20 Z0.3 F5000.0 ; Move to start position
G1 X0.1 Y200.0 Z0.3 F1500.0 E15 ; Draw the first line
G1 X0.4 Y200.0 Z0.3 F5000.0 ; Move to side a little
G1 X0.4 Y20 Z0.3 F1500.0 E30 ; Draw the second line
G92 E0 ; Reset Extruder
G1 Z2.0 F3000 ; Move Z Axis up little to prevent scratching of Heat Bed
G1 X5 Y20 Z0.3 F5000.0 ; Move over to prevent blob squish
G92 E0
G92 E0
G1 F2100 E-6.5
;LAYER_COUNT:68
;LAYER:0
M107
G0 F6000 X136.489 Y80.083 Z0.2
;TYPE:SKIRT
G1 F2100 E0
G1 F1200 X137.059 Y79.16 E0.03608
G1 X137.273 Y78.849 E0.04864
G1 X137.854 Y78.08 E0.08069
G1 X138.186 Y77.678 E0.09803
G1 X139.112 Y76.688 E0.14312
G1 X139.494 Y76.327 E0.1606
G1 X140.507 Y75.479 E0.20454
G1 X140.926 Y75.169 E0.22188
G1 X141.76 Y74.609 E0.25529
G1 X142.073 Y74.419 E0.26747
G1 X142.96 Y73.935 E0.30108
G1 X143.444 Y73.699 E0.31899
G1 X144.641 Y73.2 E0.36212
G1 X145.048 Y73.058 E0.37646
G1 X146.038 Y72.764 E0.4108
G1 X146.561 Y72.635 E0.42872
G1 X147.876 Y72.394 E0.47319
G1 X148.381 Y72.333 E0.4901
G1 X149.536 Y72.255 E0.52861
G1 X149.939 Y72.249 E0.54201
G1 X150.528 Y72.256 E0.5616
G1 X151.2 Y72.282 E0.58397
G1 X153.015 Y72.375 E0.64442
G1 X156.431 Y72.438 E0.75805
G1 X160.991 Y72.439 E0.90972
G1 X161.689 Y72.45 E0.93294
G1 X162.626 Y72.505 E0.96416
G1 X163.554 Y72.639 E0.99534
G1 X164.467 Y72.852 E1.02653
G1 X165.359 Y73.142 E1.05772
G1 X166.223 Y73.507 E1.08892
G1 X167.053 Y73.944 E1.12012
G1 X167.842 Y74.45 E1.15129
G1 X168.586 Y75.022 E1.1825
G1 X169.278 Y75.655 E1.2137
G1 X169.914 Y76.344 E1.24488
G1 X170.489 Y77.086 E1.27611
G1 X170.998 Y77.873 E1.30728
G1 X171.439 Y78.701 E1.33848
G1 X171.807 Y79.563 E1.36966
G1 X172.1 Y80.454 E1.40085
G1 X172.317 Y81.367 E1.43206
G1 X172.455 Y82.294 E1.46324
G1 X172.512 Y83.139 E1.4914
G1 X172.525 Y83.768 E1.51233
G1 X172.523 Y211.835 E5.77185
G1 X172.512 Y212.644 E5.79876
G1 X172.49 Y213.205 E5.81744
G1 X172.462 Y213.637 E5.83184
G1 X172.324 Y214.799 E5.87076
G1 X172.254 Y215.204 E5.88443
G1 X172.029 Y216.22 E5.91904
G1 X171.9 Y216.694 E5.93538
G1 X171.533 Y217.806 E5.97432
G1 X171.353 Y218.267 E5.99078
G1 X170.881 Y219.311 E6.02889
G1 X170.64 Y219.778 E6.04637
G1 X169.954 Y220.928 E6.09091
G1 X169.665 Y221.352 E6.10797
G1 X168.879 Y222.372 E6.1508
G1 X168.534 Y222.769 E6.1683
G1 X167.7 Y223.629 E6.20814
G1 X167.327 Y223.974 E6.22504
G1 X166.549 Y224.63 E6.25889
G1 X166.211 Y224.889 E6.27305
G1 X165.246 Y225.55 E6.31196
G1 X164.831 Y225.803 E6.32812
G1 X163.696 Y226.407 E6.37088
G1 X163.23 Y226.621 E6.38794
G1 X162.239 Y227.019 E6.42346
G1 X161.855 Y227.152 E6.43698
G1 X160.907 Y227.434 E6.46987
G1 X160.432 Y227.552 E6.48615
G1 X159.215 Y227.782 E6.52734
G1 X158.683 Y227.852 E6.54519
G1 X157.409 Y227.945 E6.58768
G1 X156.998 Y227.951 E6.60135
G1 X156.399 Y227.943 E6.62127
G1 X155.615 Y227.911 E6.64737
G1 X154.046 Y227.83 E6.69963
G1 X150.509 Y227.762 E6.81729
G1 X145.949 Y227.761 E6.96895
G1 X145.251 Y227.75 E6.99217
G1 X144.314 Y227.695 E7.02339
G1 X143.386 Y227.561 E7.05458
G1 X142.473 Y227.348 E7.08576
G1 X141.581 Y227.058 E7.11696
G1 X140.717 Y226.693 E7.14815
G1 X139.887 Y226.256 E7.17935
G1 X139.098 Y225.75 E7.21052
G1 X138.354 Y225.178 E7.24174
G1 X137.662 Y224.545 E7.27293
G1 X137.026 Y223.856 E7.30412
G1 X136.451 Y223.114 E7.33534
G1 X135.942 Y222.327 E7.36651
G1 X135.501 Y221.499 E7.39772
G1 X135.133 Y220.637 E7.42889
G1 X134.84 Y219.746 E7.46008
G1 X134.623 Y218.833 E7.4913
G1 X134.485 Y217.906 E7.52247
G1 X134.427 Y217.02 E7.552
G1 X134.415 Y216.383 E7.57319
G1 X134.417 Y88.348 E11.83165
G1 X134.43 Y87.493 E11.86009
G1 X134.452 Y86.944 E11.87837
G1 X134.473 Y86.622 E11.8891
G1 X134.593 Y85.569 E11.92435
G1 X134.674 Y85.072 E11.9411
G1 X134.933 Y83.893 E11.98125
G1 X135.064 Y83.422 E11.99751
G1 X135.42 Y82.357 E12.03486
G1 X135.612 Y81.867 E12.05236
G1 X135.991 Y81.009 E12.08356
G1 X136.222 Y80.567 E12.10014
G1 X136.489 Y80.083 E12.11853
G0 F6000 X136.84 Y80.276
G1 F1200 X137.389 Y79.387 E12.15328
G1 X137.603 Y79.076 E12.16584
G1 X138.162 Y78.335 E12.19671
G1 X138.494 Y77.933 E12.21405
G1 X139.386 Y76.979 E12.25749
G1 X139.768 Y76.618 E12.27497
G1 X140.744 Y75.801 E12.31731
G1 X141.163 Y75.491 E12.33464
G1 X141.968 Y74.951 E12.36688
G1 X142.281 Y74.761 E12.37906
G1 X143.135 Y74.294 E12.41143
G1 X143.619 Y74.058 E12.42934
G1 X144.773 Y73.578 E12.47091
G1 X145.18 Y73.436 E12.48525
G1 X146.134 Y73.152 E12.51836
G1 X146.657 Y73.023 E12.53627
G1 X147.924 Y72.791 E12.57911
G1 X148.429 Y72.73 E12.59603
G1 X149.542 Y72.655 E12.63314
G1 X149.945 Y72.649 E12.64654
G1 X150.513 Y72.656 E12.66543
G1 X151.32 Y72.688 E12.6923
G1 X153.016 Y72.775 E12.74878
G1 X156.424 Y72.838 E12.86215
G1 X160.985 Y72.839 E13.01385
G1 X161.683 Y72.85 E13.03707
G1 X162.602 Y72.905 E13.06769
G1 X163.513 Y73.039 E13.09831
G1 X164.409 Y73.251 E13.12894
G1 X165.283 Y73.541 E13.15957
G1 X166.128 Y73.905 E13.19017
G1 X166.939 Y74.341 E13.22079
G1 X167.709 Y74.846 E13.25142
G1 X168.432 Y75.416 E13.28204
G1 X169.103 Y76.046 E13.31265
G1 X169.717 Y76.733 E13.3433
G1 X170.268 Y77.47 E13.3739
G1 X170.754 Y78.252 E13.40453
G1 X171.17 Y79.073 E13.43514
G1 X171.514 Y79.927 E13.46576
G1 X171.782 Y80.808 E13.49639
G1 X171.972 Y81.709 E13.52702
G1 X172.084 Y82.622 E13.55761
G1 X172.112 Y83.15 E13.5752
G1 X172.125 Y83.768 E13.59576
G1 X172.123 Y211.829 E17.85508
G1 X172.112 Y212.638 E17.88199
G1 X172.091 Y213.18 E17.90003
G1 X172.063 Y213.612 E17.91443
G1 X171.93 Y214.731 E17.95191
G1 X171.86 Y215.136 E17.96558
G1 X171.643 Y216.115 E17.99893
G1 X171.514 Y216.589 E18.01527
G1 X171.16 Y217.66 E18.05279
G1 X170.98 Y218.121 E18.06925
G1 X170.526 Y219.127 E18.10596
G1 X170.285 Y219.594 E18.12344
G1 X169.624 Y220.703 E18.16638
G1 X169.335 Y221.127 E18.18344
G1 X168.577 Y222.11 E18.22473
G1 X168.232 Y222.507 E18.24222
G1 X167.429 Y223.336 E18.28061
G1 X167.056 Y223.681 E18.29751
G1 X166.305 Y224.313 E18.33016
G1 X165.967 Y224.572 E18.34432
G1 X165.038 Y225.209 E18.38178
G1 X164.623 Y225.462 E18.39795
G1 X163.529 Y226.044 E18.43916
G1 X163.063 Y226.258 E18.45622
G1 X162.108 Y226.641 E18.49044
G1 X161.724 Y226.774 E18.50396
G1 X160.811 Y227.045 E18.53563
G1 X160.336 Y227.163 E18.55191
G1 X159.163 Y227.385 E18.59162
G1 X158.631 Y227.455 E18.60947
G1 X157.403 Y227.545 E18.65042
G1 X156.992 Y227.551 E18.66409
G1 X156.415 Y227.544 E18.68328
G1 X155.636 Y227.512 E18.70922
G1 X154.044 Y227.43 E18.76224
G1 X150.517 Y227.362 E18.87957
G1 X145.955 Y227.361 E19.0313
G1 X145.257 Y227.35 E19.05452
G1 X144.338 Y227.295 E19.08514
G1 X143.427 Y227.161 E19.11576
G1 X142.531 Y226.949 E19.14639
G1 X141.657 Y226.659 E19.17702
G1 X140.812 Y226.295 E19.20762
G1 X140.001 Y225.859 E19.23824
G1 X139.231 Y225.354 E19.26887
G1 X138.508 Y224.784 E19.29949
G1 X137.837 Y224.154 E19.3301
G1 X137.223 Y223.467 E19.36075
G1 X136.672 Y222.73 E19.39136
G1 X136.186 Y221.948 E19.42198
G1 X135.77 Y221.127 E19.45259
G1 X135.426 Y220.273 E19.48321
G1 X135.158 Y219.392 E19.51384
G1 X134.968 Y218.491 E19.54447
G1 X134.856 Y217.578 E19.57506
G1 X134.827 Y217.01 E19.59398
G1 X134.815 Y216.383 E19.61484
G1 X134.817 Y88.354 E23.8731
G1 X134.83 Y87.499 E23.90154
G1 X134.851 Y86.97 E23.91915
G1 X134.872 Y86.648 E23.92988
G1 X134.988 Y85.633 E23.96386
G1 X135.069 Y85.136 E23.98061
G1 X135.319 Y84.001 E24.01926
G1 X135.45 Y83.53 E24.03552
G1 X135.793 Y82.503 E24.07153
G1 X135.985 Y82.013 E24.08904
G1 X136.357 Y81.171 E24.11965
G1 X136.573 Y80.76 E24.1351
G1 X136.84 Y80.276 E24.15348
G0 F6000 X137.19 Y80.469
G1 F1200 X137.718 Y79.614 E24.1869
G1 X137.932 Y79.303 E24.19946
G1 X138.47 Y78.59 E24.22917
G1 X138.802 Y78.188 E24.24651
G1 X139.661 Y77.27 E24.28833
G1 X140.043 Y76.909 E24.30581
G1 X140.982 Y76.122 E24.34656
G1 X141.401 Y75.812 E24.36389
G1 X142.175 Y75.293 E24.39489
G1 X142.488 Y75.103 E24.40707
G1 X143.311 Y74.654 E24.43825
G1 X143.795 Y74.418 E24.45616
G1 X144.905 Y73.955 E24.49616
G1 X145.312 Y73.813 E24.5105
G1 X146.229 Y73.541 E24.54231
G1 X146.752 Y73.412 E24.56023
G1 X147.972 Y73.189 E24.60147
G1 X148.477 Y73.128 E24.61839
G1 X149.548 Y73.055 E24.6541
G1 X149.951 Y73.049 E24.6675
G1 X150.497 Y73.056 E24.68566
G1 X151.3 Y73.088 E24.71239
G1 X152.989 Y73.175 E24.76864
G1 X156.416 Y73.238 E24.88265
G1 X160.979 Y73.239 E25.03441
G1 X161.677 Y73.25 E25.05763
G1 X162.578 Y73.304 E25.08765
G1 X163.471 Y73.438 E25.11769
G1 X164.349 Y73.65 E25.14773
G1 X165.205 Y73.939 E25.17778
G1 X166.031 Y74.303 E25.2078
G1 X166.823 Y74.738 E25.23785
G1 X167.572 Y75.242 E25.26788
G1 X168.275 Y75.81 E25.29794
G1 X168.924 Y76.437 E25.32795
G1 X169.515 Y77.12 E25.35799
G1 X170.044 Y77.852 E25.38803
G1 X170.505 Y78.629 E25.41808
G1 X170.896 Y79.443 E25.44812
G1 X171.214 Y80.288 E25.47815
G1 X171.455 Y81.158 E25.50817
G1 X171.619 Y82.046 E25.53821
G1 X171.712 Y83.161 E25.57542
G1 X171.725 Y83.768 E25.59561
G1 X171.723 Y211.824 E29.85477
G1 X171.712 Y212.633 E29.88168
G1 X171.692 Y213.154 E29.89903
G1 X171.664 Y213.586 E29.91342
G1 X171.536 Y214.663 E29.9495
G1 X171.466 Y215.068 E29.96317
G1 X171.257 Y216.01 E29.99526
G1 X171.128 Y216.484 E30.0116
G1 X170.787 Y217.515 E30.04772
G1 X170.607 Y217.976 E30.06418
G1 X170.17 Y218.944 E30.0995
G1 X169.929 Y219.411 E30.11698
G1 X169.293 Y220.478 E30.1583
G1 X169.004 Y220.902 E30.17536
G1 X168.275 Y221.848 E30.21508
G1 X167.93 Y222.245 E30.23258
G1 X167.157 Y223.042 E30.26951
G1 X166.784 Y223.387 E30.28641
G1 X166.062 Y223.995 E30.3178
G1 X165.724 Y224.254 E30.33196
G1 X164.829 Y224.867 E30.36804
G1 X164.414 Y225.12 E30.38421
G1 X163.362 Y225.68 E30.42385
G1 X162.896 Y225.894 E30.4409
G1 X161.977 Y226.263 E30.47384
G1 X161.593 Y226.396 E30.48736
G1 X160.714 Y226.657 E30.51785
G1 X160.239 Y226.775 E30.53413
G1 X159.111 Y226.989 E30.57232
G1 X158.579 Y227.059 E30.59017
G1 X157.397 Y227.145 E30.62958
G1 X156.986 Y227.151 E30.64326
G1 X156.431 Y227.144 E30.66172
G1 X155.656 Y227.112 E30.68751
G1 X154.071 Y227.03 E30.7403
G1 X150.525 Y226.962 E30.85826
G1 X145.961 Y226.961 E31.01006
G1 X145.263 Y226.95 E31.03328
G1 X144.362 Y226.896 E31.0633
G1 X143.469 Y226.762 E31.09334
G1 X142.591 Y226.55 E31.12338
G1 X141.735 Y226.261 E31.15343
G1 X140.909 Y225.897 E31.18345
G1 X140.117 Y225.462 E31.2135
G1 X139.368 Y224.958 E31.24353
G1 X138.665 Y224.39 E31.27359
G1 X138.016 Y223.763 E31.30361
G1 X137.425 Y223.08 E31.33365
G1 X136.896 Y222.348 E31.36368
G1 X136.435 Y221.571 E31.39373
G1 X136.044 Y220.757 E31.42377
G1 X135.726 Y219.912 E31.4538
G1 X135.485 Y219.042 E31.48382
G1 X135.321 Y218.154 E31.51386
G1 X135.227 Y217 E31.55237
G1 X135.215 Y216.383 E31.57289
G1 X135.217 Y88.36 E35.83096
G1 X135.23 Y87.505 E35.8594
G1 X135.272 Y86.674 E35.88707
G1 X135.383 Y85.697 E35.91977
G1 X135.464 Y85.2 E35.93652
G1 X135.704 Y84.108 E35.97371
G1 X135.835 Y83.637 E35.98997
G1 X136.165 Y82.649 E36.02462
G1 X136.357 Y82.159 E36.04212
G1 X136.923 Y80.953 E36.08643
G1 X137.19 Y80.469 E36.10481
G1 F2100 E29.60481
;MESH:HingeThickerNoSeethrough.stl
G0 F6000 X144.752 Y87.753
G0 X145.835 Y87.809
G0 X147.216 Y214.962
;TYPE:WALL-INNER
G1 F2100 E36.10481
G1 F1200 X148.86 Y214.962 E36.15949
G1 X148.86 Y92.229 E40.24161
G1 X148.885 Y92.089 E40.24634
G1 X148.342 Y91.903 E40.26543
G1 X147.851 Y91.664 E40.28359
G1 X147.636 Y91.536 E40.29192
G1 X147.342 Y91.333 E40.3038
G1 X147.217 Y91.231 E40.30916
G1 X147.216 Y214.962 E44.42447
G0 F6000 X146.816 Y215.362
G1 F1200 X149.26 Y215.362 E44.50576
G1 X149.266 Y92.116 E48.60494
G1 X149.397 Y91.778 E48.617
G1 X148.999 Y91.706 E48.63045
G1 X148.49 Y91.531 E48.64835
G1 X147.951 Y91.268 E48.6683
G1 X147.483 Y90.944 E48.68723
G1 X147.052 Y90.537 E48.70695
G1 X146.817 Y90.242 E48.71949
G1 X146.816 Y215.362 E52.881
G0 F6000 X146.416 Y215.762
G1 F1200 X149.66 Y215.762 E52.9889
G1 X149.664 Y92.177 E57.09935
G1 X149.848 Y91.78 E57.1139
G1 X150.076 Y91.553 E57.1246
G1 F1197 X150.39 Y91.402 E57.13622
G1 X150.038 Y91.428 E57.14799
G1 F1200 X149.598 Y91.409 E57.16264
G1 X149.098 Y91.316 E57.17955
G1 X148.638 Y91.16 E57.19571
G1 X148.15 Y90.919 E57.21381
G1 X147.737 Y90.632 E57.23054
G1 X147.345 Y90.263 E57.24845
G1 X147.036 Y89.876 E57.26492
G1 X146.769 Y89.427 E57.28229
G1 X146.6 Y89.012 E57.29719
G1 F1126.8 X146.442 Y88.525 E57.31533
G1 F1124.1 X146.417 Y88.893 E57.32843
G1 F1194 X146.417 Y152.328 E59.44883
G1 F1200 X146.416 Y215.763 E61.55869
G0 F6000 X146.016 Y216.162
G1 F1200 X150.06 Y216.162 E61.69319
G1 X150.062 Y92.252 E65.81446
G1 X150.173 Y92.014 E65.82319
G1 X150.309 Y91.878 E65.82959
G1 X150.498 Y91.788 E65.83655
G1 X150.986 Y91.687 E65.85313
G1 X151.38 Y91.565 E65.86684
G1 X151.781 Y91.392 E65.88137
G1 X152.151 Y91.183 E65.8955
G1 X152.495 Y90.936 E65.90959
G1 X152.811 Y90.656 E65.92363
G1 X153.094 Y90.343 E65.93767
G1 X153.346 Y89.995 E65.95196
G1 X153.552 Y89.637 E65.96569
G1 X153.728 Y89.247 E65.97993
G1 X153.858 Y88.832 E65.99439
G1 X153.942 Y88.427 E66.00815
G1 X153.985 Y88.006 E66.02222
G1 X153.983 Y87.604 E66.03559
G1 X153.934 Y87.163 E66.05035
G1 X153.84 Y86.749 E66.06447
G1 X153.705 Y86.35 E66.07848
G1 X153.527 Y85.965 E66.09259
G1 X153.311 Y85.603 E66.10661
G1 X153.055 Y85.264 E66.12074
G1 X152.766 Y84.954 E66.13483
G1 X152.447 Y84.675 E66.14893
G1 X152.102 Y84.437 E66.16287
G1 X151.729 Y84.233 E66.17701
G1 X151.326 Y84.066 E66.19152
G1 X150.93 Y83.95 E66.20524
G1 X150.513 Y83.871 E66.21936
G1 X150.092 Y83.84 E66.2334
G1 X149.672 Y83.852 E66.24738
G1 X149.254 Y83.91 E66.26141
G1 X148.854 Y84.008 E66.27511
G1 X148.443 Y84.157 E66.28965
G1 X148.061 Y84.343 E66.30378
G1 X147.666 Y84.597 E66.3194
G1 X147.37 Y84.831 E66.33195
G1 X147.069 Y85.127 E66.34599
G1 X146.797 Y85.453 E66.36011
G1 X146.539 Y85.852 E66.37592
G1 X146.371 Y86.182 E66.38823
G1 X146.212 Y86.589 E66.40277
G1 X146.107 Y86.984 E66.41636
G1 X146.038 Y87.404 E66.43052
G1 X146.016 Y87.861 E66.44573
G1 X146.016 Y216.162 E70.71304
G0 F6000 X145.616 Y216.562
;TYPE:WALL-OUTER
G1 F1200 X150.46 Y216.562 E70.87415
G1 X150.465 Y92.317 E75.00656
G1 X150.497 Y92.248 E75.00909
G1 X150.606 Y92.173 E75.01349
G1 X151.086 Y92.075 E75.02978
G1 X151.518 Y91.941 E75.04483
G1 X151.959 Y91.751 E75.0608
G1 X152.367 Y91.521 E75.07638
G1 X152.745 Y91.249 E75.09187
G1 X153.093 Y90.94 E75.10734
G1 X153.405 Y90.595 E75.12282
G1 X153.682 Y90.213 E75.13851
G1 X153.909 Y89.819 E75.15363
G1 X154.102 Y89.389 E75.16931
G1 X154.246 Y88.933 E75.18521
G1 X154.338 Y88.488 E75.20033
G1 X154.385 Y88.024 E75.21584
G1 X154.383 Y87.602 E75.22988
G1 X154.329 Y87.096 E75.2468
G1 X154.226 Y86.641 E75.26232
G1 X154.077 Y86.202 E75.27774
G1 X153.881 Y85.778 E75.29327
G1 X153.643 Y85.38 E75.3087
G1 X153.363 Y85.006 E75.32424
G1 X153.044 Y84.666 E75.33974
G1 X152.693 Y84.359 E75.35525
G1 X152.313 Y84.096 E75.37062
G1 X151.902 Y83.871 E75.38621
G1 X151.459 Y83.688 E75.40215
G1 X151.024 Y83.56 E75.41723
G1 X150.565 Y83.474 E75.43276
G1 X150.101 Y83.439 E75.44824
G1 X149.638 Y83.453 E75.46365
G1 X149.178 Y83.516 E75.47909
G1 X148.738 Y83.625 E75.49417
G1 X148.287 Y83.788 E75.51012
G1 X147.866 Y83.993 E75.52569
G1 X147.474 Y84.241 E75.54112
G1 X147.106 Y84.53 E75.55668
G1 X146.774 Y84.856 E75.57216
G1 X146.475 Y85.215 E75.5877
G1 X146.22 Y85.604 E75.60317
G1 X146.006 Y86.017 E75.61864
G1 X145.831 Y86.464 E75.6346
G1 X145.715 Y86.9 E75.64961
G1 X145.64 Y87.362 E75.66518
G1 X145.616 Y87.861 E75.68179
G1 X145.616 Y216.562 E79.9624
G1 F2100 E73.4624
G0 F6000 X145.885 Y216.292
G0 X147.232 Y91.274
G0 X150.082 Y91.329
G1 F2100 E79.9624
G0 F6000 X150.095 Y91.03
;TYPE:WALL-INNER
G1 F1200 X149.606 Y91.003 E79.97869
G1 X149.249 Y90.938 E79.99076
G1 X148.786 Y90.788 E80.00695
G1 X148.391 Y90.592 E80.02162
G1 X147.993 Y90.324 E80.03758
G1 X147.674 Y90.024 E80.05214
G1 X147.394 Y89.682 E80.06684
G1 X147.347 Y89.615 E80.06956
G1 X147.129 Y89.249 E80.08373
G1 X146.97 Y88.861 E80.09768
G1 X146.846 Y88.381 E80.11417
