;FLAVOR:Marlin
;TIME:13488
;Filament used: 7.35272m
;Layer height: 0.2
;MINX:23.524
;MINY:121.946
;MINZ:0.2
;MAXX:97.687
;MAXY:178.088
;MAXZ:91
;Generated with Cura_SteamEngine 5.2.2
M140 S60
M105
M190 S60
M104 S207
M105
M109 S207
M82 ;absolute extrusion mode
; Ender 3 Max Custom Start G-code
G92 E0 ; Reset Extruder
G28 ; Home all axes
G1 Z2.0 F3000 ; Move Z Axis up little to prevent scratching of Heat Bed
G1 X0.1 Y20 Z0.3 F5000.0 ; Move to start position
G1 X0.1 Y200.0 Z0.3 F1500.0 E15 ; Draw the first line
G1 X0.4 Y200.0 Z0.3 F5000.0 ; Move to side a little
G1 X0.4 Y20 Z0.3 F1500.0 E30 ; Draw the second line
G92 E0 ; Reset Extruder
G1 Z2.0 F3000 ; Move Z Axis up little to prevent scratching of Heat Bed
G1 X5 Y20 Z0.3 F5000.0 ; Move over to prevent blob squish
G92 E0
G92 E0
G1 F2100 E-6.5
;LAYER_COUNT:456
;LAYER:0
M107
G0 F6000 X31.533 Y122.374 Z0.2
;TYPE:SKIRT
G1 F2100 E0
G1 F1200 X32.445 Y122.156 E0.03119
G1 X33.373 Y122.018 E0.06239
G1 X34.195 Y121.961 E0.0898
G1 X34.858 Y121.946 E0.11186
G1 X86.138 Y121.947 E1.81743
G1 X86.836 Y121.957 E1.84065
G1 X87.772 Y122.011 E1.87184
G1 X88.7 Y122.143 E1.90301
G1 X89.614 Y122.355 E1.93422
G1 X90.506 Y122.644 E1.96541
G1 X91.371 Y123.007 E1.99661
G1 X92.201 Y123.443 E2.02779
G1 X92.992 Y123.948 E2.059
G1 X93.736 Y124.519 E2.0902
G1 X94.429 Y125.151 E2.12139
G1 X95.066 Y125.839 E2.15258
G1 X95.641 Y126.58 E2.18377
G1 X96.152 Y127.366 E2.21495
G1 X96.594 Y128.194 E2.24617
G1 X96.963 Y129.056 E2.27736
G1 X97.258 Y129.946 E2.30854
G1 X97.476 Y130.858 E2.33973
G1 X97.616 Y131.786 E2.37094
G1 X97.674 Y132.647 E2.39965
G1 X97.687 Y133.276 E2.42057
G1 X97.686 Y166.488 E3.52521
G1 X97.677 Y167.215 E3.54939
G1 X97.626 Y168.152 E3.5806
G1 X97.494 Y169.08 E3.61178
G1 X97.285 Y169.994 E3.64296
G1 X96.998 Y170.887 E3.67416
G1 X96.636 Y171.753 E3.70538
G1 X96.202 Y172.584 E3.73656
G1 X95.698 Y173.375 E3.76775
G1 X95.129 Y174.12 E3.79893
G1 X94.498 Y174.815 E3.83015
G1 X93.811 Y175.453 E3.86134
G1 X93.072 Y176.03 E3.89252
G1 X92.286 Y176.542 E3.92372
G1 X91.46 Y176.985 E3.9549
G1 X90.598 Y177.357 E3.98612
G1 X89.709 Y177.653 E4.01729
G1 X88.797 Y177.873 E4.04849
G1 X87.87 Y178.014 E4.07968
G1 X86.986 Y178.075 E4.10915
G1 X86.357 Y178.088 E4.13007
G1 X35.089 Y178.087 E5.83525
G1 X34.391 Y178.078 E5.85847
G1 X33.455 Y178.026 E5.88965
G1 X32.526 Y177.894 E5.92086
G1 X31.612 Y177.684 E5.95205
G1 X30.719 Y177.397 E5.98325
G1 X29.854 Y177.034 E6.01445
G1 X29.023 Y176.6 E6.04563
G1 X28.232 Y176.096 E6.07683
G1 X27.487 Y175.526 E6.10803
G1 X26.793 Y174.895 E6.13922
G1 X26.156 Y174.208 E6.17038
G1 X25.579 Y173.468 E6.20159
G1 X25.067 Y172.682 E6.23279
G1 X24.624 Y171.855 E6.264
G1 X24.253 Y170.994 E6.29518
G1 X23.957 Y170.104 E6.32638
G1 X23.738 Y169.192 E6.35757
G1 X23.597 Y168.265 E6.38876
G1 X23.536 Y167.356 E6.41906
G1 X23.524 Y166.722 E6.44015
G1 X23.526 Y133.454 E7.54665
G1 X23.536 Y132.79 E7.56874
G1 X23.59 Y131.854 E7.59992
G1 X23.724 Y130.926 E7.6311
G1 X23.936 Y130.012 E7.66231
G1 X24.226 Y129.12 E7.69351
G1 X24.59 Y128.256 E7.72469
G1 X25.026 Y127.426 E7.75587
G1 X25.532 Y126.636 E7.78708
G1 X26.103 Y125.892 E7.81827
G1 X26.735 Y125.199 E7.84947
G1 X27.424 Y124.563 E7.88065
G1 X28.165 Y123.988 E7.91185
G1 X28.952 Y123.478 E7.94304
G1 X29.78 Y123.037 E7.97424
G1 X30.642 Y122.668 E8.00543
G1 X31.533 Y122.374 E8.03663
G0 F6000 X31.887 Y122.692
G1 F1200 X32.787 Y122.501 E8.06724
G1 X33.701 Y122.389 E8.09786
G1 X34.207 Y122.361 E8.11472
G1 X34.858 Y122.346 E8.13638
G1 X85.98 Y122.346 E9.8367
G1 X86.83 Y122.357 E9.86497
G1 X87.749 Y122.41 E9.89559
G1 X88.66 Y122.543 E9.92621
G1 X89.556 Y122.754 E9.95683
G1 X90.43 Y123.042 E9.98744
G1 X91.277 Y123.405 E10.01808
G1 X92.088 Y123.84 E10.04869
G1 X92.858 Y124.344 E10.0793
G1 X93.582 Y124.913 E10.10993
G1 X94.254 Y125.543 E10.14057
G1 X94.869 Y126.228 E10.17118
G1 X95.422 Y126.964 E10.2018
G1 X95.909 Y127.745 E10.23242
G1 X96.326 Y128.566 E10.26304
G1 X96.671 Y129.42 E10.29368
G1 X96.94 Y130.3 E10.32428
G1 X97.132 Y131.201 E10.35492
G1 X97.245 Y132.114 E10.38552
G1 X97.274 Y132.658 E10.40364
G1 X97.287 Y133.276 E10.4242
G1 X97.286 Y166.483 E11.52867
G1 X97.277 Y167.21 E11.55285
G1 X97.226 Y168.129 E11.58347
G1 X97.095 Y169.041 E11.61411
G1 X96.885 Y169.937 E11.64472
G1 X96.599 Y170.812 E11.67534
G1 X96.238 Y171.659 E11.70596
G1 X95.804 Y172.471 E11.73658
G1 X95.302 Y173.243 E11.76721
G1 X94.734 Y173.968 E11.79784
G1 X94.106 Y174.641 E11.82846
G1 X93.422 Y175.257 E11.85907
G1 X92.687 Y175.811 E11.88969
G1 X91.907 Y176.3 E11.92031
G1 X91.087 Y176.719 E11.95093
G1 X90.234 Y177.065 E11.98155
G1 X89.354 Y177.336 E12.01218
G1 X88.454 Y177.529 E12.04279
G1 X87.54 Y177.644 E12.07343
G1 X86.975 Y177.675 E12.09225
G1 X86.357 Y177.688 E12.11281
G1 X35.094 Y177.687 E13.81782
G1 X34.396 Y177.678 E13.84104
G1 X33.477 Y177.626 E13.87166
G1 X32.566 Y177.495 E13.90227
G1 X31.67 Y177.285 E13.93288
G1 X30.795 Y176.998 E13.9635
G1 X29.948 Y176.636 E13.99414
G1 X29.136 Y176.202 E14.02476
G1 X28.365 Y175.7 E14.05536
G1 X27.64 Y175.132 E14.086
G1 X26.967 Y174.503 E14.11664
G1 X26.352 Y173.819 E14.14723
G1 X25.798 Y173.084 E14.17784
G1 X25.31 Y172.303 E14.20847
G1 X24.891 Y171.483 E14.2391
G1 X24.545 Y170.63 E14.26972
G1 X24.275 Y169.75 E14.30033
G1 X24.082 Y168.849 E14.33098
G1 X23.968 Y167.936 E14.36158
G1 X23.936 Y167.346 E14.38123
G1 X23.924 Y166.722 E14.40199
G1 X23.926 Y133.46 E15.50829
G1 X23.936 Y132.796 E15.53038
G1 X23.99 Y131.877 E15.561
G1 X24.123 Y130.966 E15.59162
G1 X24.335 Y130.07 E15.62224
G1 X24.624 Y129.196 E15.65286
G1 X24.988 Y128.35 E15.68349
G1 X25.423 Y127.539 E15.7141
G1 X25.928 Y126.769 E15.74473
G1 X26.497 Y126.046 E15.77533
G1 X27.127 Y125.374 E15.80596
G1 X27.813 Y124.76 E15.83658
G1 X28.549 Y124.208 E15.86718
G1 X29.331 Y123.721 E15.89782
G1 X30.152 Y123.305 E15.92844
G1 X31.006 Y122.961 E15.95906
G1 X31.887 Y122.692 E15.9897
G0 F6000 X32.237 Y123.018
G1 F1200 X33.125 Y122.854 E16.01973
G1 X34.219 Y122.761 E16.05625
G1 X34.858 Y122.746 E16.07751
G1 X85.98 Y122.746 E17.77783
G1 X86.824 Y122.757 E17.80591
G1 X87.726 Y122.81 E17.83596
G1 X88.619 Y122.942 E17.86598
G1 X89.497 Y123.153 E17.89602
G1 X90.353 Y123.441 E17.92606
G1 X91.18 Y123.803 E17.95608
G1 X91.972 Y124.238 E17.98614
G1 X92.723 Y124.74 E18.01618
G1 X93.426 Y125.307 E18.04622
G1 X94.076 Y125.934 E18.07626
G1 X94.668 Y126.616 E18.10629
G1 X95.198 Y127.347 E18.13633
G1 X95.66 Y128.123 E18.16636
G1 X96.053 Y128.936 E18.1964
G1 X96.371 Y129.781 E18.22643
G1 X96.614 Y130.651 E18.25647
G1 X96.779 Y131.539 E18.28651
G1 X96.874 Y132.669 E18.32423
G1 X96.887 Y133.276 E18.34442
G1 X96.886 Y166.478 E19.44872
G1 X96.877 Y167.205 E19.47291
G1 X96.826 Y168.107 E19.50295
G1 X96.695 Y169.001 E19.53301
G1 X96.486 Y169.879 E19.56303
G1 X96.2 Y170.736 E19.59307
G1 X95.839 Y171.564 E19.62312
G1 X95.407 Y172.356 E19.65312
G1 X94.906 Y173.108 E19.68318
G1 X94.34 Y173.812 E19.71322
G1 X93.715 Y174.463 E19.74324
G1 X93.034 Y175.057 E19.77329
G1 X92.303 Y175.588 E19.80334
G1 X91.529 Y176.052 E19.83336
G1 X90.716 Y176.446 E19.86341
G1 X89.872 Y176.766 E19.89343
G1 X89.002 Y177.011 E19.92349
G1 X88.115 Y177.177 E19.9535
G1 X86.964 Y177.275 E19.99193
G1 X86.357 Y177.288 E20.01212
G1 X35.099 Y177.287 E21.71697
G1 X34.401 Y177.278 E21.74018
G1 X33.5 Y177.227 E21.7702
G1 X32.606 Y177.095 E21.80026
G1 X31.728 Y176.886 E21.83028
G1 X30.871 Y176.599 E21.86033
G1 X30.044 Y176.238 E21.89035
G1 X29.251 Y175.805 E21.9204
G1 X28.5 Y175.304 E21.95042
G1 X27.796 Y174.738 E21.98047
G1 X27.145 Y174.112 E22.01051
G1 X26.552 Y173.431 E22.04054
G1 X26.022 Y172.7 E22.07057
G1 X25.558 Y171.925 E22.10062
G1 X25.164 Y171.112 E22.13066
G1 X24.844 Y170.268 E22.16069
G1 X24.6 Y169.398 E22.19074
G1 X24.434 Y168.51 E22.22079
G1 X24.336 Y167.336 E22.25997
G1 X24.324 Y166.722 E22.28039
G1 X24.326 Y133.466 E23.38649
G1 X24.336 Y132.802 E23.40858
G1 X24.39 Y131.901 E23.4386
G1 X24.523 Y131.008 E23.46863
G1 X24.734 Y130.13 E23.49866
G1 X25.023 Y129.274 E23.52871
G1 X25.386 Y128.447 E23.55875
G1 X25.82 Y127.655 E23.58879
G1 X26.324 Y126.905 E23.61885
G1 X26.891 Y126.203 E23.64886
G1 X27.518 Y125.553 E23.6789
G1 X28.201 Y124.961 E23.70896
G1 X28.933 Y124.432 E23.739
G1 X29.708 Y123.97 E23.76901
G1 X30.522 Y123.579 E23.79904
G1 X31.367 Y123.26 E23.82908
G1 X32.237 Y123.018 E23.85912
G1 F2100 E17.35912
;MESH:CoinSlotWithFunnelImproved.stl
G0 F6000 X34.939 Y132.281
G0 X34.939 Y133.36
G0 X35.783 Y166.218
G1 F2100 E23.85912
G0 F6000 X36.52 Y166.488
;TYPE:WALL-INNER
G1 F1200 X36.053 Y166.023 E23.88104
G1 X36.053 Y134.014 E24.94566
G1 X36.446 Y133.546 E24.96599
G1 X35.125 Y133.549 E25.00992
G1 X35.125 Y166.488 E26.10548
G1 X36.52 Y166.488 E26.15188
G0 F6000 X35.783 Y166.218
G0 X35.589 Y166.024
G1 F909.1 X35.589 Y134.014 E27.55722
G1 F2100 E21.05722
G0 F6000 X36.225 Y166.448
G0 X84.985 Y166.448
G0 X85.817 Y166.218
G1 F2100 E27.55722
G0 F6000 X86.087 Y166.488
G1 F1200 X86.087 Y134.013 E28.63735
G1 X86.087 Y133.548 E28.65281
G1 X84.69 Y133.547 E28.69928
G1 X85.157 Y134.014 E28.72124
G1 X85.157 Y166.022 E29.78583
G1 X84.764 Y166.488 E29.80611
G1 X86.087 Y166.488 E29.85011
G0 F6000 X86.487 Y166.888
;TYPE:WALL-OUTER
G1 F1200 X86.487 Y134.012 E30.94357
G1 X86.487 Y133.147 E30.97234
G1 X85.622 Y133.147 E31.00111
G1 F1027.8 X84.557 Y133.213 E31.04255
G1 F895.5 X36.561 Y133.215 E33.18166
G1 F1023.5 X35.589 Y133.147 E33.21966
G1 F1200 X34.725 Y133.147 E33.2484
G1 X34.725 Y166.888 E34.37063
G1 X35.589 Y166.888 E34.39936
G1 F1027.8 X36.653 Y166.821 E34.44076
G1 F895.5 X84.649 Y166.819 E36.57987
G1 F1023.5 X85.622 Y166.888 E36.61791
G1 F1200 X86.487 Y166.888 E36.64668
G0 F6000 X86.217 Y166.618
G0 X85.622 Y166.023
;TYPE:WALL-INNER
G1 F905.7 X85.622 Y134.014 E38.05731
G1 F2100 E31.55731
G0 F6000 X85.457 Y166.286
G1 F2100 E38.05731
G0 F6000 X84.603 Y166.286
;TYPE:WALL-OUTER
G1 F895.5 X36.653 Y166.287 E40.19437
G1 F1027.8 X36.453 Y166.021 E40.2073
G1 F1200 X36.453 Y134.014 E41.27185
G1 F1023.5 X36.607 Y133.748 E41.28384
G1 F895.5 X84.557 Y133.747 E43.4209
G1 F1027.8 X84.757 Y134.014 E43.43386
G1 F1200 X84.757 Y166.021 E44.49842
G1 F1023.5 X84.603 Y166.286 E44.51037
G0 F6000 X85.757 Y165.888
G1 F2100 E38.01037
;MESH:NONMESH
G0 F300 X85.757 Y165.888 Z0.4
G0 F6000 X84.985 Y166.448
G0 X36.225 Y166.448
G0 X35.713 Y166.168
;TIME_ELAPSED:81.352010
;LAYER:1
M106 S85
;TYPE:WALL-INNER
;MESH:CoinSlotWithFunnelImproved.stl
G1 F2100 E44.51037
G1 F1073.8 X35.713 Y133.868 E45.7109
G1 F1064.3 X36.035 Y133.572 E45.7273
G1 F1059.6 X35.28 Y133.572 E45.75574
G1 F1076.2 X35.274 Y134.014 E45.77214
G1 F1090.9 X35.274 Y166.02 E46.94311
G1 F1076.2 X35.28 Y166.461 E46.95947
G1 F1059.6 X36.094 Y166.461 E46.99013
G1 F1069 X35.713 Y166.168 E47.00807
G1 F2100 E40.50807
G0 F7500 X35.503 Y166.169
G0 X35.905 Y166.448
G0 X85.305 Y166.448
G0 X85.688 Y166.218
G1 F2100 E47.00807
G0 F7500 X85.931 Y166.461
G1 F1073.8 X85.938 Y166.02 E47.02447
G1 F1090.9 X85.938 Y134.014 E48.19544
G1 F1073.8 X85.931 Y133.8 E48.2034
G1 F1057.3 X85.931 Y133.573 E48.21197
G1 X85.118 Y133.573 E48.24266
G1 F1066.7 X85.498 Y133.866 E48.26062
G1 F1071.4 X85.498 Y166.166 E49.46383
G1 F1061.9 X85.177 Y166.461 E49.48022
G1 F1057.3 X85.931 Y166.461 E49.50868
G0 F7500 X86.358 Y166.888
;TYPE:WALL-OUTER
G1 F1200 X86.358 Y133.8 E50.60919
G1 X86.358 Y133.146 E50.63095
G1 X85.704 Y133.146 E50.6527
G1 F1027.8 X84.877 Y133.213 E50.68492
G1 F895.5 X36.241 Y133.215 E52.85255
G1 F1023.5 X35.507 Y133.146 E52.88131
G1 F1200 X34.854 Y133.146 E52.90302
G1 X34.854 Y166.887 E54.02525
G1 X35.507 Y166.887 E54.04697
G1 F1027.8 X36.333 Y166.821 E54.07915
G1 F895.5 X84.969 Y166.819 E56.24679
G1 F1023.5 X85.704 Y166.888 E56.27558
G1 F1200 X86.358 Y166.888 E56.29733
G1 F2100 E49.79733
G0 F7500 X86.088 Y166.618
G0 X85.708 Y166.286
G1 F2100 E56.29733
G0 F7500 X84.923 Y166.286
G1 F895.5 X36.333 Y166.287 E58.46292
G1 F1027.8 X36.139 Y166.071 E58.47419
G1 F1200 X36.133 Y133.972 E59.54181
G1 F1023.5 X36.287 Y133.748 E59.55241
G1 F895.5 X84.877 Y133.747 E61.718
G1 F1027.8 X85.078 Y133.971 E61.72968
G1 F1200 X85.078 Y166.061 E62.797
G1 F1023.5 X84.923 Y166.286 E62.80765
;MESH:NONMESH
G0 F300 X84.923 Y166.286 Z0.6
G0 F7500 X85.179 Y166.286
;TIME_ELAPSED:111.578050
;LAYER:2
M106 S170
;TYPE:WALL-OUTER
;MESH:CoinSlotWithFunnelImproved.stl
G1 F895.5 X36.076 Y166.287 E64.99611
G1 F1027.8 X35.878 Y166.055 E65.00795
G1 F1200 X35.877 Y134.014 E66.07364
G1 X35.907 Y133.908 E66.0773
G1 F1023.5 X36.031 Y133.748 E66.0852
G1 F895.5 X85.134 Y133.747 E68.27365
G1 F1027.8 X85.305 Y133.908 E68.28277
G1 F1200 X85.334 Y134.014 E68.28642
G1 X85.331 Y166.055 E69.35211
G1 F1023.5 X85.179 Y166.286 E69.36289
G0 F9000 X85.179 Y166.52
G0 X85.958 Y166.618
G0 X86.228 Y166.888
G1 F1200 X86.228 Y133.645 E70.46856
G1 X86.228 Y133.146 E70.48516
G1 X85.729 Y133.146 E70.50175
G1 F1027.8 X85.134 Y133.213 E70.525
G1 F895.5 X35.985 Y133.215 E72.71551
G1 F1023.5 X35.483 Y133.146 E72.73527
G1 F1200 X34.984 Y133.146 E72.75186
G1 X34.983 Y166.888 E73.87413
G1 X35.482 Y166.888 E73.89072
G1 F1027.8 X36.076 Y166.821 E73.91394
G1 F895.5 X85.225 Y166.819 E76.10444
G1 F1023.5 X85.728 Y166.888 E76.12424
G1 F1200 X86.228 Y166.888 E76.14087
G0 F9000 X85.728 Y166.388
;TYPE:WALL-INNER
G1 F871.1 X85.777 Y166.132 E76.15281
G1 F960 X85.779 Y150.073 E76.82046
G1 F967.7 X85.781 Y134.014 E77.48278
G1 F879.1 X85.729 Y133.645 E77.4997
G1 F2100 E70.9997
G0 F9000 X35.649 Y133.586
G0 X35.483 Y133.645
G1 F2100 E77.4997
G1 F879.1 X35.43 Y134.014 E77.51662
G1 F967.7 X35.431 Y150.073 E78.17893
G1 F958.1 X35.433 Y166.132 E78.84793
G1 F871.1 X35.482 Y166.389 E78.85991
G1 F2100 E72.35991
;MESH:NONMESH
G0 F300 X35.482 Y166.389 Z0.8
G0 F9000 X84.947 Y166.52
G1 F2100 E78.85991
G0 F9000 X84.947 Y166.286
;TIME_ELAPSED:138.503391
;LAYER:3
M106 S255
;TYPE:WALL-OUTER
;MESH:CoinSlotWithFunnelImproved.stl
G1 F895.5 X36.308 Y166.287 E81.02768
G1 F1027.8 X36.11 Y166.091 E81.0385
G1 F1200 X36.109 Y133.952 E82.10745
G1 F1023.5 X36.263 Y133.748 E82.11742
G1 F895.5 X84.902 Y133.747 E84.28519
G1 F1027.8 X85.081 Y133.924 E84.29496
G1 F1200 X85.102 Y134.014 E84.29804
G1 X85.099 Y166.055 E85.36373
G1 F1023.5 X84.947 Y166.286 E85.37451
G0 F9000 X84.947 Y166.52
G0 X85.828 Y166.618
G0 X86.098 Y166.888
G1 F1200 X86.098 Y133.683 E86.47891
G1 X86.098 Y133.146 E86.49677
G1 X85.561 Y133.146 E86.51463
G1 F1027.8 X84.902 Y133.213 E86.54036
G1 F895.5 X36.217 Y133.215 E88.71018
G1 F1023.5 X35.651 Y133.147 E88.73241
G1 F1200 X35.115 Y133.147 E88.75024
G1 X35.114 Y166.887 E89.87243
G1 X35.65 Y166.887 E89.89026
G1 F1027.8 X36.308 Y166.821 E89.91594
G1 F895.5 X84.993 Y166.819 E92.08576
G1 F1023.5 X85.56 Y166.888 E92.10804
G1 F1200 X86.098 Y166.888 E92.12593
G0 F9000 X85.56 Y166.35
;TYPE:WALL-INNER
G1 F748.8 X85.595 Y166.141 E92.13722
G1 F796 X85.597 Y150.077 E92.94267
G1 F802.7 X85.6 Y134.013 E93.74143
G1 F755.9 X85.561 Y133.683 E93.75898
G1 F2100 E87.25898
G0 F9000 X85.33 Y133.586
G0 X35.881 Y133.586
G0 X35.651 Y133.683
G1 F2100 E93.75898
G1 F757.1 X35.611 Y134.014 E93.77655
G1 F802.7 X35.613 Y150.078 E94.57532
G1 F796 X35.615 Y166.142 E95.38076
G1 F751.2 X35.65 Y166.351 E95.39202
;MESH:NONMESH
G0 F300 X35.65 Y166.351 Z1
G0 F9000 X36.378 Y166.499
;TIME_ELAPSED:164.988066
;LAYER:4
;TYPE:WALL-INNER
;MESH:CoinSlotWithFunnelImproved.stl
G1 F1300.8 X35.97 Y166.226 E95.40708
G1 F1337 X35.969 Y155.489 E95.72759
G1 F1352.1 X35.968 Y144.752 E96.04453
G1 F1367.5 X35.967 Y134.015 E96.3579
G1 F1326 X35.994 Y133.793 E96.36463
G1 F1276.6 X36.316 Y133.534 E96.37755
G1 F1300.8 X35.642 Y133.535 E96.39823
G1 F1352.1 X35.617 Y134.014 E96.41239
G1 F1363.6 X35.618 Y166.15 E97.35298
G1 F1315.1 X35.631 Y166.499 E97.36358
G1 F1276.6 X36.378 Y166.499 E97.38693
G1 F2100 E90.88693
G0 F9000 X36.378 Y166.52
G0 X85.58 Y166.499
G1 F2100 E97.38693
G1 F1311.5 X85.592 Y166.15 E97.39756
G1 F1363.6 X85.594 Y134.014 E98.33814
G1 F1318.7 X85.58 Y133.724 E98.34693
G1 F1269.8 X85.58 Y133.535 E98.35287
G1 X84.833 Y133.535 E98.37635
G1 X85.216 Y133.794 E98.39088
G1 F1318.7 X85.245 Y134.014 E98.3976
G1 F1363.6 X85.243 Y144.75 E98.71183
G1 F1344.5 X85.241 Y155.486 E99.03052
G1 F1329.6 X85.239 Y166.222 E99.35279
G1 F1293.8 X84.895 Y166.499 E99.36641
G1 F1269.8 X85.58 Y166.499 E99.38794
