;FLAVOR:Marlin
;TIME:20623
;Filament used: 13.6779m
;Layer height: 0.2
;MINX:87.033
;MINY:60.58
;MINZ:0.2
;MAXX:220.703
;MAXY:259.72
;MAXZ:87
;Generated with Cura_SteamEngine 5.2.2
M140 S60
M105
M190 S60
M104 S210
M105
M109 S210
M82 ;absolute extrusion mode
; Ender 3 Max Custom Start G-code
G92 E0 ; Reset Extruder
G28 ; Home all axes
G1 Z2.0 F3000 ; Move Z Axis up little to prevent scratching of Heat Bed
G1 X0.1 Y20 Z0.3 F5000.0 ; Move to start position
G1 X0.1 Y200.0 Z0.3 F1500.0 E15 ; Draw the first line
G1 X0.4 Y200.0 Z0.3 F5000.0 ; Move to side a little
G1 X0.4 Y20 Z0.3 F1500.0 E30 ; Draw the second line
G92 E0 ; Reset Extruder
G1 Z2.0 F3000 ; Move Z Axis up little to prevent scratching of Heat Bed
G1 X5 Y20 Z0.3 F5000.0 ; Move over to prevent blob squish
G92 E0
G92 E0
G1 F2100 E-6.5
;LAYER_COUNT:436
;LAYER:0
M107
G0 F6000 X94.677 Y72.555 Z0.2
;TYPE:SKIRT
G1 F2100 E0
G1 F1200 X95.29 Y71.844 E0.03122
G1 X95.961 Y71.189 E0.06241
G1 X96.685 Y70.593 E0.0936
G1 X97.457 Y70.061 E0.12478
G1 X98.272 Y69.597 E0.15598
G1 X99.124 Y69.204 E0.18718
G1 X100.005 Y68.885 E0.21835
G1 X100.867 Y68.652 E0.24805
G1 X101.919 Y68.414 E0.28392
G1 X137.779 Y60.941 E1.50225
G1 X138.631 Y60.776 E1.53112
G1 X139.558 Y60.638 E1.56229
G1 X140.494 Y60.58 E1.59348
G1 X141.432 Y60.602 E1.62469
G1 X142.364 Y60.703 E1.65587
G1 X143.285 Y60.884 E1.68708
G1 X144.186 Y61.142 E1.71826
G1 X145.063 Y61.476 E1.74947
G1 X145.907 Y61.884 E1.78065
G1 X146.714 Y62.362 E1.81185
G1 X147.477 Y62.907 E1.84303
G1 X148.191 Y63.515 E1.87422
G1 X148.851 Y64.182 E1.90543
G1 X149.451 Y64.902 E1.9366
G1 X149.988 Y65.671 E1.9678
G1 X150.458 Y66.483 E1.99901
G1 X150.732 Y67.045 E2.0198
G1 X219.499 Y219.113 E7.57072
G1 X219.788 Y219.776 E7.59477
G1 X220.125 Y220.65 E7.62593
G1 X220.387 Y221.551 E7.65713
G1 X220.572 Y222.471 E7.68835
G1 X220.677 Y223.403 E7.71954
G1 X220.703 Y224.34 E7.75072
G1 X220.648 Y225.276 E7.7819
G1 X220.514 Y226.205 E7.81312
G1 X220.302 Y227.118 E7.8443
G1 X220.012 Y228.01 E7.87549
G1 X219.648 Y228.874 E7.90668
G1 X219.211 Y229.704 E7.93787
G1 X218.705 Y230.494 E7.96908
G1 X218.134 Y231.238 E8.00027
G1 X217.501 Y231.93 E8.03146
G1 X216.834 Y232.548 E8.06171
G1 X216.049 Y233.214 E8.09595
G1 X187.466 Y256.737 E9.32716
G1 X186.769 Y257.297 E9.3569
G1 X186.014 Y257.852 E9.38807
G1 X185.214 Y258.342 E9.41927
G1 X184.375 Y258.761 E9.45046
G1 X183.503 Y259.107 E9.48166
G1 X182.605 Y259.378 E9.51286
G1 X181.687 Y259.571 E9.54406
G1 X180.756 Y259.685 E9.57526
G1 X179.819 Y259.72 E9.60645
G1 X178.882 Y259.674 E9.63765
G1 X177.953 Y259.55 E9.66882
G1 X177.037 Y259.346 E9.70003
G1 X176.143 Y259.065 E9.7312
G1 X175.275 Y258.709 E9.76241
G1 X174.441 Y258.28 E9.7936
G1 X173.646 Y257.782 E9.8248
G1 X172.897 Y257.218 E9.85599
G1 X172.199 Y256.592 E9.88717
G1 X171.556 Y255.909 E9.91837
G1 X170.974 Y255.173 E9.94958
G1 X170.332 Y254.179 E9.98893
G1 X169.47 Y252.67 E10.04674
G1 X168.148 Y250.458 E10.13245
G1 X166.806 Y248.346 E10.21567
G1 X165.386 Y246.245 E10.30002
G1 X163.924 Y244.208 E10.38341
G1 X162.393 Y242.201 E10.46737
G1 X160.818 Y240.249 E10.55079
G1 X159.182 Y238.336 E10.63451
G1 X157.504 Y236.486 E10.71758
G1 X155.745 Y234.649 E10.80218
G1 X153.942 Y232.872 E10.88637
G1 X152.113 Y231.168 E10.96952
G1 X150.241 Y229.521 E11.05245
G1 X148.276 Y227.888 E11.13743
G1 X146.318 Y226.352 E11.2202
G1 X144.276 Y224.843 E11.30465
G1 X142.206 Y223.399 E11.38859
G1 X140.128 Y222.037 E11.47123
G1 X137.976 Y220.712 E11.55528
G1 X135.786 Y219.448 E11.63938
G1 X133.571 Y218.251 E11.72313
G1 X131.316 Y217.115 E11.80711
G1 X129.053 Y216.051 E11.89028
G1 X126.737 Y215.043 E11.97429
G1 X124.401 Y214.104 E12.05803
G1 X122.032 Y213.228 E12.14203
G1 X119.675 Y212.432 E12.22478
G1 X117.26 Y211.693 E12.30878
G1 X114.828 Y211.022 E12.39269
G1 X112.358 Y210.416 E12.47728
G1 X109.916 Y209.888 E12.56038
G1 X107.444 Y209.428 E12.64401
G1 X104.979 Y209.039 E12.72701
G1 X102.463 Y208.717 E12.81137
G1 X99.903 Y208.461 E12.89694
G1 X97.223 Y208.261 E12.98633
G1 X96.292 Y208.152 E13.0175
G1 X95.373 Y207.963 E13.04871
G1 X94.474 Y207.697 E13.07989
G1 X93.6 Y207.355 E13.11111
G1 X92.759 Y206.94 E13.1423
G1 X91.956 Y206.455 E13.1735
G1 X91.198 Y205.904 E13.20467
G1 X90.489 Y205.289 E13.23589
G1 X89.836 Y204.617 E13.26705
G1 X89.241 Y203.891 E13.29827
G1 X88.711 Y203.118 E13.32944
G1 X88.249 Y202.302 E13.36063
G1 X87.858 Y201.449 E13.39184
G1 X87.541 Y200.566 E13.42305
G1 X87.3 Y199.66 E13.45423
G1 X87.137 Y198.736 E13.48543
G1 X87.046 Y197.59 E13.52367
G1 X87.033 Y196.96 E13.54463
G1 X87.034 Y148.718 E15.14916
G1 X87.045 Y148.009 E15.17275
G1 X87.1 Y147.073 E15.20393
G1 X87.234 Y146.145 E15.23512
G1 X87.447 Y145.231 E15.26633
G1 X87.736 Y144.339 E15.29752
G1 X87.96 Y143.785 E15.3174
G1 X88.405 Y142.766 E15.35438
G1 X88.722 Y142.064 E15.38
G1 X89.677 Y139.777 E15.46243
G1 X90.601 Y137.376 E15.548
G1 X91.421 Y135.05 E15.63003
G1 X92.197 Y132.634 E15.71443
G1 X92.893 Y130.237 E15.79744
G1 X93.529 Y127.789 E15.88157
G1 X94.094 Y125.334 E15.96535
G1 X94.597 Y122.823 E16.05053
G1 X95.011 Y120.4 E16.13229
G1 X95.365 Y117.906 E16.21607
G1 X95.65 Y115.397 E16.30006
G1 X95.863 Y112.885 E16.38391
G1 X96.004 Y110.369 E16.46772
G1 X96.075 Y107.843 E16.55177
G1 X96.075 Y105.319 E16.63572
G1 X96.004 Y102.833 E16.71843
G1 X95.859 Y100.301 E16.80279
G1 X95.646 Y97.8 E16.88627
G1 X95.365 Y95.327 E16.96905
G1 X95.004 Y92.798 E17.05402
G1 X94.58 Y90.327 E17.13741
G1 X94.089 Y87.879 E17.22045
G1 X93.52 Y85.416 E17.30453
G1 X92.837 Y82.794 E17.39465
G1 X92.701 Y82.302 E17.41162
G1 X92.49 Y81.388 E17.44282
G1 X92.358 Y80.459 E17.47403
G1 X92.306 Y79.523 E17.50521
G1 X92.334 Y78.585 E17.53642
G1 X92.441 Y77.654 E17.56759
G1 X92.627 Y76.734 E17.59881
G1 X92.891 Y75.834 E17.63001
G1 X93.231 Y74.96 E17.6612
G1 X93.644 Y74.118 E17.69239
G1 X94.127 Y73.314 E17.72359
G1 X94.677 Y72.555 E17.75476
G0 F6000 X95.107 Y72.658
G1 F1200 X95.721 Y71.972 E17.78538
G1 X96.393 Y71.342 E17.81602
G1 X97.116 Y70.772 E17.84664
G1 X97.886 Y70.268 E17.87725
G1 X98.697 Y69.832 E17.90787
G1 X99.543 Y69.468 E17.93851
G1 X100.417 Y69.179 E17.96912
G1 X100.956 Y69.042 E17.98762
G1 X102 Y68.806 E18.02322
G1 X137.86 Y61.333 E19.24155
G1 X138.706 Y61.169 E19.27021
G1 X139.617 Y61.034 E19.30084
G1 X140.536 Y60.979 E19.33147
G1 X141.456 Y61.004 E19.36208
G1 X142.371 Y61.109 E19.39271
G1 X143.273 Y61.293 E19.42333
G1 X144.156 Y61.554 E19.45395
G1 X145.013 Y61.891 E19.48458
G1 X145.837 Y62.301 E19.51519
G1 X146.623 Y62.781 E19.54582
G1 X147.364 Y63.327 E19.57644
G1 X148.054 Y63.936 E19.60705
G1 X148.69 Y64.602 E19.63768
G1 X149.265 Y65.321 E19.6683
G1 X149.776 Y66.087 E19.69892
G1 X150.367 Y67.21 E19.74113
G1 X219.132 Y219.272 E25.29184
G1 X219.421 Y219.935 E25.31589
G1 X219.752 Y220.795 E25.34654
G1 X220.007 Y221.679 E25.37714
G1 X220.184 Y222.583 E25.40778
G1 X220.283 Y223.498 E25.43839
G1 X220.301 Y224.418 E25.469
G1 X220.24 Y225.337 E25.49963
G1 X220.099 Y226.247 E25.53026
G1 X219.879 Y227.141 E25.56088
G1 X219.583 Y228.013 E25.59151
G1 X219.213 Y228.855 E25.6221
G1 X218.77 Y229.663 E25.65274
G1 X218.26 Y230.429 E25.68335
G1 X217.684 Y231.148 E25.71399
G1 X217.049 Y231.814 E25.7446
G1 X216.575 Y232.243 E25.76586
G1 X215.795 Y232.905 E25.79989
G1 X187.212 Y256.428 E27.03111
G1 X186.519 Y256.985 E27.06068
G1 X185.777 Y257.53 E27.0913
G1 X184.99 Y258.008 E27.12193
G1 X184.165 Y258.416 E27.15254
G1 X183.307 Y258.751 E27.18317
G1 X182.424 Y259.011 E27.21379
G1 X181.522 Y259.192 E27.24439
G1 X180.607 Y259.295 E27.27501
G1 X179.686 Y259.318 E27.30565
G1 X178.767 Y259.261 E27.33628
G1 X177.857 Y259.125 E27.36688
G1 X176.962 Y258.91 E27.3975
G1 X176.089 Y258.618 E27.42811
G1 X175.244 Y258.251 E27.45876
G1 X174.434 Y257.813 E27.48938
G1 X173.666 Y257.306 E27.51999
G1 X172.944 Y256.734 E27.55063
G1 X172.275 Y256.102 E27.58124
G1 X171.663 Y255.414 E27.61186
G1 X171.113 Y254.676 E27.64248
G1 X170.679 Y253.98 E27.66976
G1 X169.826 Y252.487 E27.72695
G1 X168.48 Y250.234 E27.81424
G1 X167.133 Y248.114 E27.89778
G1 X165.715 Y246.017 E27.98197
G1 X164.251 Y243.978 E28.06546
G1 X162.72 Y241.97 E28.14945
G1 X161.117 Y239.984 E28.23433
G1 X159.498 Y238.09 E28.31721
G1 X157.772 Y236.186 E28.40268
G1 X156.049 Y234.388 E28.48551
G1 X154.23 Y232.595 E28.57046
G1 X152.367 Y230.859 E28.65515
G1 X150.478 Y229.197 E28.73884
G1 X148.55 Y227.594 E28.82223
G1 X146.539 Y226.018 E28.90721
G1 X144.521 Y224.525 E28.9907
G1 X142.448 Y223.081 E29.07473
G1 X140.335 Y221.695 E29.15878
G1 X138.154 Y220.352 E29.24397
G1 X135.997 Y219.107 E29.3268
G1 X133.762 Y217.899 E29.4113
G1 X131.488 Y216.753 E29.496
G1 X129.204 Y215.68 E29.57993
G1 X126.91 Y214.682 E29.66314
G1 X124.54 Y213.729 E29.7481
G1 X122.162 Y212.85 E29.83242
G1 X119.815 Y212.057 E29.91482
G1 X117.345 Y211.301 E30.00073
G1 X114.949 Y210.64 E30.0834
G1 X112.44 Y210.024 E30.16933
G1 X110.002 Y209.498 E30.25228
G1 X107.508 Y209.033 E30.33666
G1 X105.02 Y208.641 E30.42043
G1 X102.517 Y208.32 E30.50437
G1 X99.973 Y208.066 E30.5894
G1 X97.253 Y207.863 E30.68012
G1 X96.339 Y207.754 E30.71073
G1 X95.437 Y207.567 E30.74137
G1 X94.555 Y207.302 E30.772
G1 X93.7 Y206.962 E30.80261
G1 X92.877 Y206.549 E30.83323
G1 X92.094 Y206.066 E30.86383
G1 X91.355 Y205.516 E30.89447
G1 X90.666 Y204.905 E30.9251
G1 X90.033 Y204.236 E30.95573
G1 X89.461 Y203.515 E30.98634
G1 X88.953 Y202.747 E31.01697
G1 X88.514 Y201.938 E31.04758
G1 X88.147 Y201.094 E31.0782
G1 X87.855 Y200.221 E31.10881
G1 X87.639 Y199.326 E31.13944
G1 X87.502 Y198.415 E31.17008
G1 X87.446 Y197.579 E31.19794
G1 X87.433 Y196.96 E31.21854
G1 X87.434 Y148.725 E32.82284
G1 X87.445 Y148.016 E32.84642
G1 X87.5 Y147.097 E32.87704
G1 X87.633 Y146.186 E32.90767
G1 X87.846 Y145.29 E32.9383
G1 X88.135 Y144.416 E32.96891
G1 X88.327 Y143.945 E32.98583
G1 X88.77 Y142.93 E33.02267
G1 X89.084 Y142.234 E33.04806
G1 X90.048 Y139.926 E33.13125
G1 X90.976 Y137.516 E33.21715
G1 X91.803 Y135.168 E33.29994
G1 X92.579 Y132.753 E33.38431
G1 X93.279 Y130.344 E33.46775
G1 X93.92 Y127.874 E33.55262
G1 X94.483 Y125.43 E33.63604
G1 X94.99 Y122.898 E33.72193
G1 X95.407 Y120.457 E33.80429
G1 X95.765 Y117.935 E33.88901
G1 X96.048 Y115.44 E33.97253
G1 X96.263 Y112.907 E34.05708
G1 X96.404 Y110.402 E34.14053
G1 X96.475 Y107.854 E34.22531
G1 X96.475 Y105.342 E34.30886
G1 X96.402 Y102.801 E34.39341
G1 X96.258 Y100.278 E34.47746
G1 X96.044 Y97.757 E34.56161
G1 X95.76 Y95.263 E34.6451
G1 X95.395 Y92.711 E34.73084
G1 X94.972 Y90.246 E34.81402
G1 X94.485 Y87.815 E34.89649
G1 X93.904 Y85.297 E34.98244
G1 X93.263 Y82.837 E35.06699
G1 X93.086 Y82.195 E35.08914
G1 X92.88 Y81.298 E35.11975
G1 X92.753 Y80.386 E35.15037
G1 X92.705 Y79.467 E35.18098
G1 X92.738 Y78.547 E35.2116
G1 X92.85 Y77.633 E35.24223
G1 X93.041 Y76.732 E35.27286
G1 X93.309 Y75.852 E35.30346
G1 X93.653 Y74.997 E35.33411
G1 X94.069 Y74.176 E35.36472
G1 X94.555 Y73.395 E35.39532
G1 X95.107 Y72.658 E35.42594
G0 F6000 X95.538 Y72.766
G1 F1200 X96.153 Y72.105 E35.45597
G1 X96.825 Y71.501 E35.48602
G1 X97.547 Y70.959 E35.51605
G1 X98.314 Y70.482 E35.54609
G1 X99.121 Y70.076 E35.57614
G1 X99.96 Y69.742 E35.60618
G1 X101.044 Y69.432 E35.64367
G1 X102.082 Y69.198 E35.67906
G1 X138.096 Y61.694 E36.90262
G1 X138.782 Y61.562 E36.92586
G1 X139.675 Y61.431 E36.95588
G1 X140.577 Y61.379 E36.98593
G1 X141.479 Y61.407 E37.01594
G1 X142.376 Y61.515 E37.04599
G1 X143.26 Y61.702 E37.07604
G1 X144.123 Y61.966 E37.10606
G1 X144.96 Y62.306 E37.13611
G1 X145.763 Y62.718 E37.16613
G1 X146.527 Y63.2 E37.19617
G1 X147.246 Y63.748 E37.22624
G1 X147.913 Y64.357 E37.25628
G1 X148.523 Y65.022 E37.28629
G1 X149.072 Y65.739 E37.31633
G1 X149.556 Y66.502 E37.34638
G1 X150.003 Y67.375 E37.379
G1 X218.765 Y219.432 E42.92951
G1 X219.054 Y220.095 E42.95357
G1 X219.378 Y220.938 E42.98361
G1 X219.626 Y221.807 E43.01366
G1 X219.796 Y222.694 E43.0437
G1 X219.888 Y223.592 E43.07373
G1 X219.899 Y224.495 E43.10376
G1 X219.83 Y225.396 E43.13382
G1 X219.682 Y226.286 E43.16383
G1 X219.456 Y227.161 E43.19388
G1 X219.153 Y228.012 E43.22393
G1 X218.777 Y228.832 E43.25393
G1 X218.329 Y229.617 E43.284
G1 X217.813 Y230.358 E43.31403
G1 X217.234 Y231.051 E43.34406
G1 X216.315 Y231.938 E43.38654
G1 X215.541 Y232.596 E43.42033
G1 X186.863 Y256.196 E44.65562
G1 X186.269 Y256.673 E44.68096
G1 X185.54 Y257.207 E44.71101
G1 X184.767 Y257.674 E44.74105
G1 X183.956 Y258.071 E44.77108
G1 X183.113 Y258.395 E44.80112
G1 X182.245 Y258.643 E44.83114
G1 X181.358 Y258.813 E44.86118
G1 X180.459 Y258.904 E44.89124
G1 X179.556 Y258.915 E44.92127
G1 X178.656 Y258.846 E44.9513
G1 X177.765 Y258.698 E44.98134
G1 X176.89 Y258.471 E45.0114
G1 X176.04 Y258.169 E45.0414
G1 X175.219 Y257.792 E45.07145
G1 X174.435 Y257.344 E45.10149
G1 X173.693 Y256.828 E45.13155
G1 X173 Y256.249 E45.16158
G1 X172.361 Y255.611 E45.19161
G1 X171.781 Y254.918 E45.22167
G1 X171.265 Y254.178 E45.25168
G1 X171.027 Y253.782 E45.26704
G1 X170.157 Y252.259 E45.32538
G1 X168.844 Y250.062 E45.41051
G1 X167.468 Y247.897 E45.49583
G1 X166.039 Y245.782 E45.58073
G1 X164.566 Y243.73 E45.66474
G1 X163.047 Y241.739 E45.74803
G1 X161.417 Y239.719 E45.83436
G1 X159.783 Y237.808 E45.91799
G1 X158.092 Y235.942 E46.00175
G1 X156.319 Y234.092 E46.08697
G1 X154.501 Y232.3 E46.17188
G1 X152.657 Y230.583 E46.25568
G1 X150.734 Y228.891 E46.34087
G1 X148.786 Y227.271 E46.42514
G1 X146.795 Y225.71 E46.50929
G1 X144.748 Y224.196 E46.59397
G1 X142.666 Y222.745 E46.67838
G1 X140.543 Y221.353 E46.76281
G1 X138.384 Y220.024 E46.84713
G1 X136.181 Y218.752 E46.93174
G1 X133.926 Y217.533 E47.017
G1 X131.688 Y216.406 E47.10034
G1 X129.397 Y215.329 E47.18454
G1 X127.039 Y214.303 E47.27007
G1 X124.691 Y213.359 E47.35424
G1 X122.312 Y212.479 E47.43861
G1 X119.881 Y211.658 E47.52395
G1 X117.497 Y210.928 E47.60688
G1 X115.022 Y210.246 E47.69226
G1 X112.541 Y209.637 E47.77723
G1 X110.095 Y209.108 E47.86047
G1 X107.571 Y208.638 E47.94586
G1 X105.062 Y208.243 E48.03034
G1 X102.572 Y207.923 E48.11383
G1 X100.003 Y207.667 E48.1997
G1 X97.283 Y207.464 E48.29042
G1 X96.386 Y207.357 E48.32047
G1 X95.502 Y207.171 E48.35051
G1 X94.638 Y206.907 E48.38056
G1 X93.801 Y206.569 E48.41058
G1 X92.997 Y206.157 E48.44063
G1 X92.233 Y205.676 E48.47066
G1 X91.514 Y205.129 E48.50071
G1 X90.846 Y204.521 E48.53075
G1 X90.235 Y203.856 E48.56079
G1 X89.685 Y203.14 E48.59082
G1 X89.201 Y202.378 E48.62084
G1 X88.785 Y201.576 E48.65089
G1 X88.443 Y200.74 E48.68093
G1 X88.175 Y199.878 E48.71096
G1 X87.985 Y198.995 E48.741
G1 X87.874 Y198.099 E48.77103
G1 X87.846 Y197.568 E48.78871
G1 X87.833 Y196.96 E48.80894
G1 X87.834 Y148.731 E50.41304
G1 X87.845 Y148.022 E50.43663
G1 X87.899 Y147.12 E50.46668
G1 X88.033 Y146.227 E50.49671
G1 X88.245 Y145.349 E50.52676
G1 X88.693 Y144.105 E50.57073
G1 X89.134 Y143.095 E50.60739
G1 X89.454 Y142.387 E50.63323
G1 X90.427 Y140.057 E50.71721
G1 X91.343 Y137.675 E50.80209
G1 X92.189 Y135.276 E50.8867
G1 X92.958 Y132.882 E50.97033
G1 X93.662 Y130.46 E51.05422
G1 X94.311 Y127.958 E51.14019
G1 X94.873 Y125.519 E51.22344
G1 X95.381 Y122.979 E51.30959
G1 X95.804 Y120.509 E51.39294
G1 X96.159 Y118 E51.47722
G1 X96.445 Y115.482 E51.56151
G1 X96.662 Y112.928 E51.64676
G1 X96.804 Y110.401 E51.73094
G1 X96.875 Y107.865 E51.81533
G1 X96.875 Y105.331 E51.89961
G1 X96.802 Y102.766 E51.98495
G1 X96.658 Y100.258 E52.06851
G1 X96.442 Y97.714 E52.15343
G1 X96.159 Y95.228 E52.23664
G1 X95.792 Y92.658 E52.32299
G1 X95.366 Y90.178 E52.40668
G1 X94.872 Y87.711 E52.49036
G1 X94.295 Y85.212 E52.57567
G1 X93.635 Y82.679 E52.66273
G1 X93.472 Y82.089 E52.68309
G1 X93.271 Y81.209 E52.71311
G1 X93.148 Y80.314 E52.74316
G1 X93.105 Y79.412 E52.77319
G1 X93.142 Y78.509 E52.80325
G1 X93.259 Y77.614 E52.83327
G1 X93.454 Y76.732 E52.86332
G1 X93.727 Y75.871 E52.89336
G1 X94.075 Y75.038 E52.92339
G1 X94.495 Y74.238 E52.95344
G1 X94.984 Y73.479 E52.98347
G1 X95.538 Y72.766 E53.0135
G1 F2100 E46.5135
;MESH:Coin Slot with funnel.stl
G0 F6000 X98.447 Y147.517
G0 X98.447 Y148.596
G0 X130.741 Y150.083
;TYPE:WALL-INNER
G1 F2100 E53.0135
G1 F1027.8 X130.741 Y149.849 E53.02259
G1 X130.741 Y149.615 E53.03167
G1 F1030 X99.467 Y149.616 E54.24348
G1 X99.467 Y150.082 E54.26154
G1 X130.741 Y150.083 E55.47334
