;FLAVOR:Marlin
;TIME:2721
;Filament used: 1.75885m
;Layer height: 0.16
;MINX:119.299
;MINY:119.299
;MINZ:0.2
;MAXX:180.7
;MAXY:180.7
;MAXZ:6.88
;Generated with Cura_SteamEngine 5.2.2
M140 S60
M105
M190 S60
M104 S200
M105
M109 S200
M82 ;absolute extrusion mode
; Ender 3 Max Custom Start G-code
G92 E0 ; Reset Extruder
G28 ; Home all axes
G1 Z2.0 F3000 ; Move Z Axis up little to prevent scratching of Heat Bed
G1 X0.1 Y20 Z0.3 F5000.0 ; Move to start position
G1 X0.1 Y200.0 Z0.3 F1500.0 E15 ; Draw the first line
G1 X0.4 Y200.0 Z0.3 F5000.0 ; Move to side a little
G1 X0.4 Y20 Z0.3 F1500.0 E30 ; Draw the second line
G92 E0 ; Reset Extruder
G1 Z2.0 F3000 ; Move Z Axis up little to prevent scratching of Heat Bed
G1 X5 Y20 Z0.3 F5000.0 ; Move over to prevent blob squish
G92 E0
G92 E0
G1 F1500 E-6.5
;LAYER_COUNT:38
;LAYER:0
M107
G0 F6000 X130.37 Y126.213 Z0.2
;TYPE:SKIRT
G1 F1500 E0
G1 F1200 X131.047 Y125.564 E0.03119
G1 X131.838 Y124.929 E0.06493
G1 X132.359 Y124.559 E0.08618
G1 X133.451 Y123.828 E0.12989
G1 X134.057 Y123.437 E0.15388
G1 X134.832 Y122.981 E0.18378
G1 X135.34 Y122.715 E0.20286
G1 X136.796 Y121.994 E0.2569
G1 X137.641 Y121.592 E0.28802
G1 X138.457 Y121.244 E0.31752
G1 X139.036 Y121.032 E0.33803
G1 X140.64 Y120.486 E0.39439
G1 X141.422 Y120.231 E0.42175
G1 X142.352 Y119.973 E0.45385
G1 X142.906 Y119.849 E0.47273
G1 X143.919 Y119.645 E0.5071
G1 X144.805 Y119.481 E0.53707
G1 X145.734 Y119.35 E0.56827
G1 X146.972 Y119.299 E0.60948
G1 X148.004 Y119.315 E0.64381
G1 X148.637 Y119.333 E0.66487
G1 X151.188 Y119.339 E0.74972
G1 X152.953 Y119.301 E0.80844
G1 X153.89 Y119.32 E0.83961
G1 X154.935 Y119.438 E0.87458
G1 X155.537 Y119.541 E0.8949
G1 X156.766 Y119.784 E0.93657
G1 X157.485 Y119.938 E0.96102
G1 X158.367 Y120.165 E0.99131
G1 X158.981 Y120.357 E1.01271
G1 X160.537 Y120.884 E1.06735
G1 X161.308 Y121.156 E1.09454
G1 X162.175 Y121.505 E1.12563
G1 X162.752 Y121.773 E1.14679
G1 X164.365 Y122.569 E1.20662
G1 X165.028 Y122.909 E1.2314
G1 X165.868 Y123.387 E1.26354
G1 X166.407 Y123.732 E1.28483
G1 X167.315 Y124.339 E1.32115
G1 X167.899 Y124.74 E1.34472
G1 X168.648 Y125.303 E1.37588
G1 X169.572 Y126.154 E1.41766
G1 X170.772 Y127.404 E1.47529
G1 X172.555 Y129.192 E1.55928
G1 X173.786 Y130.369 E1.61593
G1 X174.435 Y131.046 E1.64712
G1 X175.089 Y131.863 E1.68193
G1 X175.447 Y132.368 E1.70251
G1 X176.134 Y133.392 E1.74353
G1 X176.531 Y134.003 E1.76776
G1 X177.011 Y134.816 E1.79916
G1 X177.301 Y135.37 E1.81996
G1 X178.115 Y137.019 E1.88113
G1 X178.422 Y137.668 E1.90501
G1 X178.784 Y138.527 E1.93601
G1 X178.966 Y139.027 E1.95371
G1 X179.514 Y140.636 E2.01024
G1 X179.785 Y141.475 E2.03957
G1 X180.029 Y142.357 E2.07
G1 X180.157 Y142.93 E2.08953
G1 X180.362 Y143.958 E2.1244
G1 X180.524 Y144.842 E2.15429
G1 X180.653 Y145.771 E2.18548
G1 X180.7 Y147.033 E2.22749
G1 X180.667 Y148.684 E2.28241
G1 X180.663 Y151.258 E2.36802
G1 X180.699 Y152.965 E2.42481
G1 X180.678 Y153.903 E2.45601
G1 X180.556 Y154.976 E2.49193
G1 X180.454 Y155.564 E2.51178
G1 X180.246 Y156.624 E2.54771
G1 X180.073 Y157.446 E2.57565
G1 X179.827 Y158.396 E2.60829
G1 X179.654 Y158.947 E2.6275
G1 X179.138 Y160.472 E2.68104
G1 X178.839 Y161.318 E2.71089
G1 X178.483 Y162.202 E2.74258
G1 X178.223 Y162.761 E2.76309
G1 X177.491 Y164.248 E2.81821
G1 X177.12 Y164.977 E2.84542
G1 X176.634 Y165.834 E2.87819
G1 X176.412 Y166.187 E2.89206
G1 X175.65 Y167.331 E2.93777
G1 X175.246 Y167.917 E2.96145
G1 X174.682 Y168.665 E2.99261
G1 X173.807 Y169.609 E3.03542
G1 X172.709 Y170.663 E3.08604
G1 X170.856 Y172.508 E3.17301
G1 X169.86 Y173.553 E3.22103
G1 X169.461 Y173.957 E3.23991
G1 X168.771 Y174.593 E3.27112
G1 X168.09 Y175.125 E3.29987
G1 X167.639 Y175.443 E3.31822
G1 X166.586 Y176.149 E3.36039
G1 X165.991 Y176.535 E3.38398
G1 X165.249 Y176.976 E3.41268
G1 X164.667 Y177.283 E3.43457
G1 X163.152 Y178.032 E3.49078
G1 X162.39 Y178.396 E3.51887
G1 X161.535 Y178.76 E3.54978
G1 X160.977 Y178.964 E3.56954
G1 X159.181 Y179.575 E3.63263
G1 X158.531 Y179.784 E3.65534
G1 X157.535 Y180.054 E3.68967
G1 X156.869 Y180.198 E3.71233
G1 X155.854 Y180.398 E3.74674
G1 X155.148 Y180.526 E3.7706
G1 X154.219 Y180.653 E3.80179
G1 X152.967 Y180.7 E3.84346
G1 X151.303 Y180.667 E3.89881
G1 X148.732 Y180.664 E3.98433
G1 X147.045 Y180.7 E4.04045
G1 X146.107 Y180.679 E4.07165
G1 X145.066 Y180.563 E4.10649
G1 X144.4 Y180.449 E4.12897
G1 X143.372 Y180.246 E4.16382
G1 X142.533 Y180.068 E4.19234
G1 X141.517 Y179.8 E4.22729
G1 X140.838 Y179.583 E4.251
G1 X139.357 Y179.079 E4.30303
G1 X138.66 Y178.831 E4.32764
G1 X137.807 Y178.487 E4.35823
G1 X137.245 Y178.226 E4.37884
G1 X135.727 Y177.479 E4.43511
G1 X134.994 Y177.105 E4.46248
G1 X134.203 Y176.658 E4.4927
G1 X133.667 Y176.317 E4.51383
G1 X132.62 Y175.618 E4.5557
G1 X132.086 Y175.25 E4.57727
G1 X131.337 Y174.685 E4.60847
G1 X130.393 Y173.81 E4.65129
G1 X129.213 Y172.581 E4.70795
G1 X127.389 Y170.755 E4.7938
G1 X126.257 Y169.675 E4.84583
G1 X126.019 Y169.438 E4.857
G1 X125.383 Y168.748 E4.88822
G1 X124.648 Y167.774 E4.9288
G1 X123.935 Y166.712 E4.97134
G1 X123.451 Y165.966 E5.00092
G1 X122.981 Y165.168 E5.03172
G1 X122.697 Y164.625 E5.05211
G1 X121.983 Y163.18 E5.10571
G1 X121.598 Y162.375 E5.13539
G1 X121.215 Y161.473 E5.16798
G1 X121.032 Y160.968 E5.18585
G1 X120.486 Y159.361 E5.2423
G1 X120.229 Y158.57 E5.26996
G1 X119.987 Y157.704 E5.29987
G1 X119.85 Y157.095 E5.32063
G1 X119.645 Y156.074 E5.35527
G1 X119.481 Y155.191 E5.38514
G1 X119.35 Y154.262 E5.41634
G1 X119.299 Y153.023 E5.45759
G1 X119.315 Y151.996 E5.49175
G1 X119.333 Y151.363 E5.51281
G1 X119.339 Y148.812 E5.59766
G1 X119.301 Y147.047 E5.65638
G1 X119.32 Y146.11 E5.68755
G1 X119.439 Y145.057 E5.72279
G1 X119.541 Y144.464 E5.74281
G1 X119.744 Y143.43 E5.77785
G1 X119.939 Y142.514 E5.809
G1 X120.157 Y141.665 E5.83816
G1 X120.35 Y141.042 E5.85985
G1 X120.935 Y139.316 E5.92046
G1 X121.168 Y138.661 E5.94359
G1 X121.52 Y137.792 E5.97477
G1 X121.744 Y137.311 E5.99242
G1 X122.483 Y135.806 E6.04818
G1 X122.909 Y134.972 E6.07933
G1 X123.359 Y134.177 E6.10972
G1 X123.676 Y133.677 E6.12941
G1 X124.254 Y132.81 E6.16406
G1 X124.743 Y132.097 E6.19282
G1 X125.307 Y131.348 E6.224
G1 X126.155 Y130.427 E6.26564
G1 X127.404 Y129.228 E6.32323
G1 X129.192 Y127.445 E6.40721
G1 X130.37 Y126.213 E6.46391
G0 F6000 X130.659 Y126.49
G1 F1200 X131.324 Y125.852 E6.49456
G1 X132.073 Y125.252 E6.52648
G1 X132.582 Y124.891 E6.54723
G1 X133.507 Y124.27 E6.58429
G1 X134.274 Y123.773 E6.61469
G1 X135.021 Y123.334 E6.6435
G1 X135.517 Y123.074 E6.66213
G1 X137.136 Y122.274 E6.72219
G1 X137.813 Y121.953 E6.74711
G1 X138.599 Y121.619 E6.77552
G1 X139.165 Y121.41 E6.79559
G1 X140.769 Y120.864 E6.85194
G1 X141.546 Y120.611 E6.87912
G1 X142.441 Y120.363 E6.91001
G1 X142.985 Y120.242 E6.92855
G1 X144.168 Y120.005 E6.96867
G1 X144.878 Y119.874 E6.99269
G1 X145.789 Y119.746 E7.02329
G1 X146.965 Y119.699 E7.06243
G1 X147.997 Y119.715 E7.09676
G1 X148.623 Y119.733 E7.11759
G1 X151.152 Y119.739 E7.2017
G1 X152.961 Y119.7 E7.26189
G1 X153.882 Y119.721 E7.29253
G1 X154.872 Y119.833 E7.32566
G1 X155.46 Y119.934 E7.34551
G1 X156.682 Y120.175 E7.38693
G1 X157.401 Y120.329 E7.41139
G1 X158.251 Y120.548 E7.44058
G1 X158.852 Y120.736 E7.46153
G1 X160.408 Y121.263 E7.51617
G1 X161.175 Y121.534 E7.54323
G1 X162.01 Y121.87 E7.57316
G1 X162.575 Y122.131 E7.59386
G1 X164.029 Y122.847 E7.64777
G1 X164.846 Y123.265 E7.67829
G1 X165.655 Y123.726 E7.70926
G1 X166.185 Y124.064 E7.73017
G1 X166.978 Y124.594 E7.76189
G1 X167.672 Y125.07 E7.78988
G1 X168.408 Y125.623 E7.8205
G1 X169.285 Y126.432 E7.86019
G1 X170.031 Y127.202 E7.89584
G1 X170.48 Y127.678 E7.91761
G1 X172.299 Y129.501 E8.00326
G1 X173.509 Y130.658 E8.05894
G1 X174.146 Y131.323 E8.08957
G1 X174.765 Y132.098 E8.12256
G1 X175.115 Y132.591 E8.14267
G1 X175.705 Y133.468 E8.17783
G1 X176.195 Y134.221 E8.20771
G1 X176.658 Y135.004 E8.23796
G1 X176.942 Y135.548 E8.25837
G1 X177.753 Y137.19 E8.31928
G1 X178.06 Y137.839 E8.34316
G1 X178.409 Y138.666 E8.37302
G1 X178.587 Y139.156 E8.39036
G1 X179.192 Y140.935 E8.45286
G1 X179.405 Y141.597 E8.47599
G1 X179.64 Y142.448 E8.50535
G1 X179.764 Y143.008 E8.52443
G1 X180.003 Y144.21 E8.56519
G1 X180.131 Y144.913 E8.58895
G1 X180.256 Y145.825 E8.61957
G1 X180.3 Y147.025 E8.65951
G1 X180.267 Y148.676 E8.71443
G1 X180.263 Y151.266 E8.80058
G1 X180.299 Y152.974 E8.8574
G1 X180.278 Y153.894 E8.88801
G1 X180.161 Y154.911 E8.92205
G1 X180.062 Y155.487 E8.94149
G1 X179.854 Y156.547 E8.97742
G1 X179.682 Y157.363 E9.00516
G1 X179.445 Y158.279 E9.03663
G1 X179.275 Y158.818 E9.05543
G1 X178.759 Y160.343 E9.10897
G1 X178.462 Y161.185 E9.13867
G1 X178.119 Y162.036 E9.16918
G1 X177.864 Y162.585 E9.18932
G1 X177.132 Y164.072 E9.24444
G1 X176.764 Y164.795 E9.27143
G1 X176.295 Y165.621 E9.30302
G1 X175.909 Y166.227 E9.32692
G1 X175.321 Y167.104 E9.36203
G1 X174.917 Y167.69 E9.38571
G1 X174.362 Y168.424 E9.41631
G1 X173.53 Y169.32 E9.45698
G1 X172.402 Y170.402 E9.50897
G1 X170.594 Y172.203 E9.59385
G1 X169.571 Y173.277 E9.64318
G1 X169.178 Y173.675 E9.66178
G1 X168.5 Y174.299 E9.69243
G1 X167.857 Y174.8 E9.71954
G1 X167.416 Y175.111 E9.73749
G1 X166.368 Y175.814 E9.77946
G1 X165.773 Y176.2 E9.80305
G1 X165.058 Y176.624 E9.8307
G1 X164.49 Y176.924 E9.85207
G1 X162.975 Y177.673 E9.90828
G1 X162.218 Y178.035 E9.93619
G1 X161.394 Y178.386 E9.96597
G1 X160.848 Y178.586 E9.98531
G1 X159.235 Y179.136 E10.042
G1 X158.409 Y179.403 E10.07087
G1 X157.448 Y179.663 E10.10398
G1 X156.791 Y179.805 E10.12634
G1 X155.783 Y180.004 E10.16051
G1 X155.077 Y180.132 E10.18438
G1 X154.165 Y180.257 E10.21499
G1 X152.975 Y180.3 E10.2546
G1 X151.312 Y180.267 E10.30992
G1 X148.723 Y180.264 E10.39603
G1 X147.036 Y180.3 E10.45215
G1 X146.116 Y180.279 E10.48276
G1 X145.129 Y180.168 E10.5158
G1 X144.477 Y180.056 E10.5378
G1 X143.291 Y179.821 E10.57801
G1 X142.616 Y179.677 E10.60097
G1 X141.637 Y179.418 E10.63465
G1 X140.966 Y179.204 E10.65807
G1 X139.491 Y178.702 E10.7099
G1 X138.794 Y178.454 E10.7345
G1 X137.973 Y178.122 E10.76396
G1 X137.422 Y177.867 E10.78415
G1 X135.752 Y177.044 E10.84607
G1 X135.176 Y176.749 E10.8676
G1 X134.414 Y176.318 E10.89672
G1 X133.889 Y175.985 E10.91739
G1 X132.978 Y175.377 E10.95382
G1 X132.313 Y174.92 E10.98066
G1 X131.578 Y174.365 E11.01129
G1 X130.682 Y173.533 E11.05196
G1 X129.523 Y172.326 E11.10762
G1 X127.665 Y170.466 E11.19506
G1 X126.711 Y169.558 E11.23886
G1 X126.301 Y169.154 E11.25801
G1 X125.678 Y168.477 E11.28861
G1 X124.98 Y167.551 E11.32718
G1 X124.267 Y166.489 E11.36972
G1 X123.787 Y165.749 E11.39906
G1 X123.334 Y164.98 E11.42874
G1 X123.056 Y164.448 E11.44871
G1 X122.28 Y162.876 E11.50702
G1 X121.958 Y162.202 E11.53186
G1 X121.59 Y161.334 E11.56322
G1 X121.41 Y160.839 E11.58074
G1 X120.864 Y159.232 E11.63719
G1 X120.609 Y158.447 E11.66464
G1 X120.377 Y157.613 E11.69343
G1 X120.242 Y157.017 E11.71375
G1 X120.037 Y155.996 E11.74839
G1 X119.874 Y155.118 E11.77809
G1 X119.746 Y154.207 E11.80869
G1 X119.699 Y153.029 E11.8479
G1 X119.715 Y152.002 E11.88206
G1 X119.733 Y151.377 E11.90286
G1 X119.739 Y148.848 E11.98698
G1 X119.7 Y147.039 E12.04716
G1 X119.721 Y146.118 E12.0778
G1 X119.834 Y145.121 E12.11117
G1 X119.934 Y144.541 E12.13075
G1 X120.174 Y143.325 E12.17197
G1 X120.33 Y142.598 E12.1967
G1 X120.54 Y141.78 E12.22479
G1 X120.729 Y141.171 E12.246
G1 X121.312 Y139.45 E12.30643
G1 X121.545 Y138.795 E12.32956
G1 X121.884 Y137.958 E12.35959
G1 X122.103 Y137.487 E12.37687
G1 X122.842 Y135.982 E12.43263
G1 X123.265 Y135.154 E12.46356
G1 X123.699 Y134.388 E12.49284
G1 X124.009 Y133.899 E12.5121
G1 X124.587 Y133.032 E12.54676
G1 X125.073 Y132.324 E12.57532
G1 X125.627 Y131.588 E12.60596
G1 X126.433 Y130.714 E12.6455
G1 X127.202 Y129.969 E12.68111
G1 X127.678 Y129.52 E12.70288
G1 X129.501 Y127.701 E12.78853
G1 X130.659 Y126.49 E12.84426
G0 F6000 X130.949 Y126.766
G1 F1200 X131.601 Y126.142 E12.87428
G1 X132.309 Y125.575 E12.90445
G1 X132.805 Y125.223 E12.92467
G1 X133.73 Y124.602 E12.96173
G1 X134.491 Y124.109 E12.99189
G1 X135.209 Y123.686 E13.01961
G1 X135.695 Y123.432 E13.03784
G1 X137.151 Y122.711 E13.09188
G1 X137.984 Y122.315 E13.12256
G1 X138.74 Y121.993 E13.14989
G1 X139.294 Y121.789 E13.16953
G1 X141.033 Y121.198 E13.23061
G1 X141.67 Y120.991 E13.25289
G1 X142.531 Y120.753 E13.2826
G1 X143.064 Y120.634 E13.30077
G1 X144.24 Y120.398 E13.34066
G1 X144.95 Y120.267 E13.36467
G1 X145.845 Y120.143 E13.39473
G1 X146.959 Y120.099 E13.43181
G1 X147.991 Y120.115 E13.46614
G1 X148.61 Y120.133 E13.48673
G1 X151.161 Y120.139 E13.57158
G1 X152.97 Y120.1 E13.63176
G1 X153.873 Y120.121 E13.6618
G1 X154.808 Y120.227 E13.6931
G1 X155.383 Y120.326 E13.71251
G1 X156.598 Y120.566 E13.7537
G1 X157.317 Y120.72 E13.77815
G1 X158.135 Y120.931 E13.80625
G1 X158.724 Y121.115 E13.82678
G1 X160.28 Y121.642 E13.88142
G1 X161.042 Y121.911 E13.90829
G1 X161.845 Y122.234 E13.93708
G1 X162.398 Y122.49 E13.95735
G1 X163.852 Y123.206 E14.01125
G1 X164.663 Y123.621 E14.04155
G1 X165.442 Y124.064 E14.07136
G1 X165.963 Y124.397 E14.09193
G1 X166.862 Y124.998 E14.12789
G1 X167.446 Y125.399 E14.15146
G1 X168.167 Y125.943 E14.1815
G1 X168.998 Y126.711 E14.21913
G1 X169.744 Y127.481 E14.25479
G1 X170.189 Y127.952 E14.27634
G1 X172.001 Y129.769 E14.36169
G1 X173.233 Y130.947 E14.41838
G1 X173.857 Y131.6 E14.44843
G1 X174.442 Y132.333 E14.47962
G1 X174.783 Y132.814 E14.49923
G1 X175.373 Y133.691 E14.53438
G1 X175.86 Y134.439 E14.56407
G1 X176.305 Y135.192 E14.59316
G1 X176.584 Y135.725 E14.61317
G1 X177.314 Y137.201 E14.66794
G1 X177.698 Y138.01 E14.69772
G1 X178.034 Y138.806 E14.72646
G1 X178.208 Y139.285 E14.74341
G1 X178.811 Y141.058 E14.8057
G1 X179.024 Y141.72 E14.82883
G1 X179.25 Y142.538 E14.85705
G1 X179.372 Y143.086 E14.87573
G1 X179.609 Y144.282 E14.91628
G1 X179.737 Y144.985 E14.94005
G1 X179.859 Y145.88 E14.97009
G1 X179.9 Y147.017 E15.00793
G1 X179.867 Y148.667 E15.06282
G1 X179.863 Y151.274 E15.14953
G1 X179.899 Y152.982 E15.20635
G1 X179.878 Y153.885 E15.23639
G1 X179.767 Y154.847 E15.2686
G1 X179.669 Y155.41 E15.28761
G1 X179.431 Y156.619 E15.32859
G1 X179.291 Y157.28 E15.35106
G1 X179.063 Y158.161 E15.38133
G1 X178.896 Y158.69 E15.39978
G1 X178.38 Y160.215 E15.45333
G1 X178.085 Y161.051 E15.48282
G1 X177.755 Y161.871 E15.51221
G1 X177.505 Y162.408 E15.53192
G1 X176.708 Y164.026 E15.5919
G1 X176.408 Y164.614 E15.61386
G1 X175.956 Y165.408 E15.64425
G1 X175.577 Y166.004 E15.66774
G1 X174.992 Y166.877 E15.70269
G1 X174.588 Y167.463 E15.72637
G1 X174.043 Y168.183 E15.7564
G1 X173.253 Y169.032 E15.79497
G1 X172.142 Y170.098 E15.84618
G1 X170.286 Y171.946 E15.93329
G1 X169.281 Y173.001 E15.98176
G1 X168.894 Y173.393 E16.00008
G1 X168.229 Y174.004 E16.03011
G1 X167.623 Y174.476 E16.05566
G1 X167.192 Y174.779 E16.07319
G1 X166.15 Y175.478 E16.11492
G1 X165.555 Y175.864 E16.13851
G1 X164.868 Y176.273 E16.1651
G1 X164.312 Y176.566 E16.186
G1 X162.797 Y177.315 E16.24221
G1 X162.046 Y177.674 E16.2699
G1 X161.253 Y178.011 E16.29856
G1 X160.719 Y178.207 E16.31748
G1 X159.106 Y178.757 E16.37416
G1 X158.286 Y179.022 E16.40282
G1 X157.362 Y179.272 E16.43466
G1 X156.713 Y179.413 E16.45675
G1 X155.712 Y179.61 E16.49068
G1 X155.006 Y179.738 E16.51454
G1 X154.111 Y179.86 E16.54459
G1 X152.983 Y179.9 E16.58213
G1 X151.32 Y179.867 E16.63745
G1 X148.716 Y179.864 E16.72406
G1 X147.028 Y179.9 E16.78022
G1 X146.125 Y179.879 E16.81026
G1 X145.192 Y179.773 E16.84149
G1 X144.555 Y179.664 E16.86298
G1 X143.375 Y179.43 E16.903
G1 X142.7 Y179.286 E16.92595
G1 X141.757 Y179.037 E16.95839
G1 X141.304 Y178.894 E16.97419
G1 X139.625 Y178.325 E17.03315
G1 X138.928 Y178.077 E17.05776
G1 X138.138 Y177.758 E17.0861
G1 X137.598 Y177.508 E17.10589
G1 X135.934 Y176.688 E17.16759
G1 X135.358 Y176.393 E17.18911
G1 X134.625 Y175.978 E17.21713
G1 X134.111 Y175.652 E17.23737
G1 X133.074 Y174.959 E17.27886
G1 X132.54 Y174.591 E17.30043
G1 X131.82 Y174.046 E17.33046
G1 X130.97 Y173.256 E17.36906
G1 X129.79 Y172.027 E17.42572
G1 X127.961 Y170.196 E17.5118
G1 X126.986 Y169.268 E17.55657
G1 X126.584 Y168.871 E17.57536
G1 X125.973 Y168.206 E17.6054
G1 X125.313 Y167.329 E17.64191
G1 X124.6 Y166.267 E17.68445
G1 X124.123 Y165.532 E17.71359
