;FLAVOR:Marlin
;TIME:35635
;Filament used: 26.6717m
;Layer height: 0.2
;MINX:36.586
;MINY:36.582
;MINZ:0.2
;MAXX:263.413
;MAXY:263.418
;MAXZ:5.2
;Generated with Cura_SteamEngine 5.2.2
M140 S50
M105
M190 S50
M104 S200
M105
M109 S200
M82 ;absolute extrusion mode
; Ender 3 Max Custom Start G-code
G92 E0 ; Reset Extruder
G28 ; Home all axes
G1 Z2.0 F3000 ; Move Z Axis up little to prevent scratching of Heat Bed
G1 X0.1 Y20 Z0.3 F5000.0 ; Move to start position
G1 X0.1 Y200.0 Z0.3 F1500.0 E15 ; Draw the first line
G1 X0.4 Y200.0 Z0.3 F5000.0 ; Move to side a little
G1 X0.4 Y20 Z0.3 F1500.0 E30 ; Draw the second line
G92 E0 ; Reset Extruder
G1 Z2.0 F3000 ; Move Z Axis up little to prevent scratching of Heat Bed
G1 X5 Y20 Z0.3 F5000.0 ; Move over to prevent blob squish
G92 E0
G92 E0
G1 F1500 E-6.5
;LAYER_COUNT:25
;LAYER:0
M107
G1 F300 Z0.4
G0 F6000 X69.536 Y70.067 Z0.4
;TYPE:SKIRT
G1 F300 Z0.2
G1 F1500 E0
G1 F1200 X70.74 Y68.873 E0.0564
G1 X72.281 Y67.397 E0.12737
G1 X73.634 Y66.144 E0.1887
G1 X74.943 Y64.971 E0.24716
G1 X76.525 Y63.6 E0.31679
G1 X77.841 Y62.498 E0.37388
G1 X79.301 Y61.313 E0.43642
G1 X80.999 Y59.985 E0.50812
G1 X82.311 Y58.995 E0.56279
G1 X83.918 Y57.822 E0.62896
G1 X85.549 Y56.674 E0.6953
G1 X87.055 Y55.653 E0.75581
G1 X88.562 Y54.664 E0.81577
G1 X90.399 Y53.505 E0.88801
G1 X91.811 Y52.647 E0.94296
G1 X93.66 Y51.566 E1.0142
G1 X95.136 Y50.736 E1.07052
G1 X97.024 Y49.714 E1.14193
G1 X98.492 Y48.953 E1.19692
G1 X100.226 Y48.089 E1.26136
G1 X101.923 Y47.277 E1.32393
G1 X103.691 Y46.467 E1.38861
G1 X105.397 Y45.721 E1.45054
G1 X107.179 Y44.977 E1.51477
G1 X109.111 Y44.21 E1.58391
G1 X110.906 Y43.534 E1.6477
G1 X112.482 Y42.968 E1.7034
G1 X114.499 Y42.282 E1.77426
G1 X116.147 Y41.753 E1.83182
G1 X118.153 Y41.146 E1.90153
G1 X119.78 Y40.683 E1.95779
G1 X121.836 Y40.135 E2.02856
G1 X123.432 Y39.738 E2.08327
G1 X125.37 Y39.289 E2.14943
G1 X127.34 Y38.869 E2.21643
G1 X129.081 Y38.528 E2.27543
G1 X131.129 Y38.163 E2.34462
G1 X133.036 Y37.858 E2.40886
G1 X134.668 Y37.623 E2.4637
G1 X136.662 Y37.37 E2.53055
G1 X138.627 Y37.154 E2.5963
G1 X140.384 Y36.991 E2.65499
G1 X142.463 Y36.833 E2.72433
G1 X144.403 Y36.72 E2.78897
G1 X146.088 Y36.65 E2.84506
G1 X148.253 Y36.596 E2.91709
G1 X149.826 Y36.582 E2.96941
G1 X151.836 Y36.597 E3.03627
G1 X153.896 Y36.65 E3.1048
G1 X155.794 Y36.731 E3.16799
G1 X157.549 Y36.835 E3.22646
G1 X159.45 Y36.977 E3.28987
G1 X161.458 Y37.163 E3.35694
G1 X163.418 Y37.379 E3.42252
G1 X165.099 Y37.592 E3.47888
G1 X167.221 Y37.898 E3.55019
G1 X168.815 Y38.154 E3.60388
G1 X170.953 Y38.534 E3.67611
G1 X172.606 Y38.858 E3.73213
G1 X174.703 Y39.304 E3.80344
G1 X176.492 Y39.72 E3.86453
G1 X178.432 Y40.204 E3.93103
G1 X180.158 Y40.665 E3.99045
G1 X181.911 Y41.164 E4.05107
G1 X183.829 Y41.745 E4.11773
G1 X185.681 Y42.341 E4.18244
G1 X187.312 Y42.896 E4.23974
G1 X189.286 Y43.604 E4.30949
G1 X191.027 Y44.263 E4.37141
G1 X192.871 Y44.995 E4.43739
G1 X194.562 Y45.703 E4.49837
G1 X196.205 Y46.421 E4.558
G1 X197.858 Y47.174 E4.61842
G1 X199.78 Y48.091 E4.68925
G1 X201.491 Y48.944 E4.75284
G1 X202.996 Y49.725 E4.80923
G1 X204.874 Y50.74 E4.88023
G1 X206.377 Y51.586 E4.9376
G1 X208.137 Y52.616 E5.00542
G1 X209.657 Y53.54 E5.06459
G1 X211.353 Y54.61 E5.13128
G1 X212.85 Y55.589 E5.19078
G1 X214.411 Y56.647 E5.2535
G1 X216.137 Y57.861 E5.32368
G1 X217.511 Y58.864 E5.38026
G1 X219.051 Y60.025 E5.44441
G1 X220.519 Y61.172 E5.50637
G1 X222.002 Y62.37 E5.56978
G1 X223.624 Y63.727 E5.64012
G1 X224.902 Y64.834 E5.69635
G1 X226.477 Y66.247 E5.76673
G1 X227.9 Y67.568 E5.83131
G1 X229.103 Y68.722 E5.88675
G1 X230.634 Y70.239 E5.95844
G1 X231.759 Y71.393 E6.01204
G1 X233.148 Y72.864 E6.07933
G1 X234.487 Y74.332 E6.14542
G1 X235.664 Y75.669 E6.20466
G1 X237.014 Y77.253 E6.27388
G1 X238.127 Y78.605 E6.33213
G1 X239.385 Y80.187 E6.39936
G1 X240.454 Y81.579 E6.45773
G1 X241.695 Y83.25 E6.52696
G1 X242.736 Y84.704 E6.58644
G1 X243.845 Y86.309 E6.65132
G1 X244.963 Y87.987 E6.71839
G1 X245.966 Y89.551 E6.78018
G1 X246.884 Y91.033 E6.83816
G1 X247.846 Y92.644 E6.90057
G1 X248.908 Y94.497 E6.97161
G1 X249.805 Y96.127 E7.03349
G1 X250.638 Y97.698 E7.09263
G1 X251.545 Y99.482 E7.1592
G1 X252.419 Y101.276 E7.22557
G1 X253.12 Y102.777 E7.28067
G1 X253.915 Y104.556 E7.34548
G1 X254.716 Y106.432 E7.41332
G1 X255.384 Y108.076 E7.47234
G1 X256.061 Y109.82 E7.53457
G1 X256.743 Y111.667 E7.60005
G1 X257.397 Y113.54 E7.66604
G1 X258.021 Y115.431 E7.73227
G1 X258.52 Y117.03 E7.78798
G1 X259.12 Y119.078 E7.85896
G1 X259.606 Y120.846 E7.91995
G1 X260.051 Y122.573 E7.97926
G1 X260.528 Y124.561 E8.04726
G1 X260.906 Y126.264 E8.10528
G1 X261.328 Y128.333 E8.17551
G1 X261.678 Y130.21 E8.23902
G1 X261.986 Y132.037 E8.30064
G1 X262.254 Y133.789 E8.35959
G1 X262.525 Y135.796 E8.42695
G1 X262.752 Y137.735 E8.49188
G1 X262.943 Y139.641 E8.55559
G1 X263.099 Y141.514 E8.61811
G1 X263.227 Y143.442 E8.68237
G1 X263.32 Y145.324 E8.74504
G1 X263.377 Y147.026 E8.80168
G1 X263.413 Y149.167 E8.8729
G1 X263.412 Y151.029 E8.93484
G1 X263.384 Y152.753 E8.99218
G1 X263.321 Y154.678 E9.05624
G1 X263.215 Y156.777 E9.12615
G1 X263.1 Y158.479 E9.18288
G1 X262.943 Y160.359 E9.24563
G1 X262.732 Y162.45 E9.31553
G1 X262.502 Y164.392 E9.38057
G1 X262.281 Y166.024 E9.43535
G1 X261.958 Y168.138 E9.50648
G1 X261.678 Y169.791 E9.56224
G1 X261.328 Y171.666 E9.62568
G1 X260.907 Y173.73 E9.69574
G1 X260.487 Y175.621 E9.76017
G1 X260.097 Y177.247 E9.81578
G1 X259.558 Y179.334 E9.88747
G1 X259.072 Y181.092 E9.94814
G1 X258.575 Y182.787 E10.00689
G1 X257.964 Y184.745 E10.07511
G1 X257.338 Y186.634 E10.1413
G1 X256.744 Y188.33 E10.20107
G1 X256.127 Y190.006 E10.26047
G1 X255.384 Y191.924 E10.32888
G1 X254.716 Y193.568 E10.3879
G1 X253.914 Y195.447 E10.45585
G1 X253.198 Y197.051 E10.51428
G1 X252.338 Y198.893 E10.58189
G1 X251.545 Y200.518 E10.64203
G1 X250.64 Y202.298 E10.70844
G1 X249.722 Y204.028 E10.77358
G1 X248.911 Y205.5 E10.82948
G1 X247.846 Y207.356 E10.90065
G1 X246.884 Y208.967 E10.96306
G1 X245.966 Y210.449 E11.02104
G1 X244.858 Y212.174 E11.08923
G1 X243.847 Y213.689 E11.14981
G1 X242.736 Y215.296 E11.21479
G1 X241.695 Y216.75 E11.27427
G1 X240.454 Y218.421 E11.3435
G1 X239.385 Y219.813 E11.40187
G1 X238.128 Y221.394 E11.46905
G1 X237.015 Y222.746 E11.52729
G1 X235.661 Y224.335 E11.59673
G1 X234.484 Y225.671 E11.65595
G1 X233.151 Y227.133 E11.72175
G1 X231.887 Y228.474 E11.78305
G1 X230.63 Y229.764 E11.84295
G1 X229.103 Y231.278 E11.91447
G1 X227.769 Y232.556 E11.97592
G1 X226.485 Y233.748 E12.03419
G1 X224.9 Y235.168 E12.10497
G1 X223.479 Y236.396 E12.16743
G1 X222.004 Y237.628 E12.23136
G1 X220.662 Y238.714 E12.28877
G1 X219.05 Y239.975 E12.35685
G1 X217.651 Y241.031 E12.41514
G1 X216.136 Y242.138 E12.47755
G1 X214.412 Y243.352 E12.54768
G1 X212.85 Y244.411 E12.61045
G1 X211.198 Y245.49 E12.67608
G1 X209.808 Y246.366 E12.73072
G1 X207.974 Y247.48 E12.80209
G1 X206.376 Y248.413 E12.86364
G1 X204.714 Y249.347 E12.92705
G1 X202.996 Y250.275 E12.99199
G1 X201.491 Y251.056 E13.04839
G1 X199.619 Y251.987 E13.11793
G1 X197.858 Y252.826 E13.1828
G1 X196.203 Y253.58 E13.24329
G1 X194.559 Y254.298 E13.30296
G1 X192.684 Y255.08 E13.37053
G1 X191.032 Y255.735 E13.42964
G1 X189.11 Y256.461 E13.49797
G1 X187.481 Y257.045 E13.55553
G1 X185.499 Y257.719 E13.62516
G1 X183.826 Y258.256 E13.6836
G1 X181.91 Y258.836 E13.75018
G1 X180.156 Y259.335 E13.81083
G1 X178.429 Y259.796 E13.87028
G1 X176.314 Y260.322 E13.94277
G1 X174.509 Y260.738 E14.00438
G1 X172.606 Y261.142 E14.06909
G1 X170.953 Y261.466 E14.12511
G1 X168.999 Y261.815 E14.19113
G1 X167.047 Y262.128 E14.25688
G1 X165.099 Y262.408 E14.32234
G1 X163.418 Y262.621 E14.3787
G1 X161.27 Y262.856 E14.45057
G1 X159.45 Y263.023 E14.51135
G1 X157.548 Y263.165 E14.57479
G1 X155.792 Y263.269 E14.6333
G1 X153.896 Y263.35 E14.69642
G1 X151.836 Y263.403 E14.76496
G1 X149.826 Y263.418 E14.83181
G1 X148.077 Y263.401 E14.88998
G1 X146.089 Y263.35 E14.95613
G1 X144.403 Y263.28 E15.01225
G1 X142.463 Y263.167 E15.07689
G1 X140.384 Y263.009 E15.14623
G1 X138.627 Y262.846 E15.20492
G1 X136.84 Y262.651 E15.26471
G1 X134.671 Y262.377 E15.33743
G1 X132.858 Y262.115 E15.39835
G1 X131.128 Y261.837 E15.45663
G1 X129.083 Y261.472 E15.52572
G1 X127.341 Y261.131 E15.58476
G1 X125.376 Y260.712 E15.65159
G1 X123.427 Y260.262 E15.71812
G1 X121.83 Y259.864 E15.77286
G1 X119.957 Y259.366 E15.83732
G1 X118.153 Y258.854 E15.89969
G1 X116.147 Y258.247 E15.9694
G1 X114.499 Y257.718 E16.02696
G1 X112.482 Y257.032 E16.09782
G1 X110.906 Y256.466 E16.15352
G1 X109.11 Y255.789 E16.21736
G1 X107.179 Y255.023 E16.28645
G1 X105.397 Y254.279 E16.35068
G1 X103.691 Y253.533 E16.41261
G1 X101.923 Y252.723 E16.47729
G1 X100.226 Y251.911 E16.53986
G1 X98.656 Y251.13 E16.59818
G1 X96.854 Y250.195 E16.66571
G1 X95.134 Y249.263 E16.73077
G1 X93.657 Y248.432 E16.78714
G1 X91.811 Y247.353 E16.85826
G1 X90.399 Y246.495 E16.91321
G1 X88.724 Y245.44 E16.97905
G1 X87.203 Y244.446 E17.03948
G1 X85.548 Y243.325 E17.10597
G1 X83.918 Y242.178 E17.17226
G1 X82.458 Y241.114 E17.23235
G1 X80.997 Y240.012 E17.29321
G1 X79.453 Y238.806 E17.35838
G1 X77.838 Y237.499 E17.42748
G1 X76.388 Y236.283 E17.49042
G1 X75.085 Y235.155 E17.54774
G1 X73.502 Y233.735 E17.61847
G1 X72.286 Y232.609 E17.67359
G1 X70.737 Y231.123 E17.74498
G1 X69.409 Y229.804 E17.80724
G1 X68.209 Y228.574 E17.86439
G1 X66.768 Y227.046 E17.93425
G1 X65.573 Y225.735 E17.99325
G1 X64.248 Y224.231 E18.05992
G1 X63.105 Y222.89 E18.11852
G1 X61.908 Y221.438 E18.18111
G1 X60.582 Y219.772 E18.25193
G1 X59.44 Y218.282 E18.31437
G1 X58.288 Y216.727 E18.37874
G1 X57.32 Y215.376 E18.43401
G1 X56.095 Y213.604 E18.50566
G1 X55.066 Y212.058 E18.56743
G1 X54.104 Y210.56 E18.62664
G1 X53.139 Y209.004 E18.68754
G1 X52.127 Y207.311 E18.75314
G1 X51.117 Y205.55 E18.82067
G1 X50.154 Y203.801 E18.88707
G1 X49.412 Y202.398 E18.93986
G1 X48.421 Y200.451 E19.01252
G1 X47.679 Y198.928 E19.06887
G1 X46.775 Y196.991 E19.13997
G1 X46.119 Y195.523 E19.19345
G1 X45.251 Y193.49 E19.26697
G1 X44.639 Y191.987 E19.32094
G1 X43.872 Y190.005 E19.39163
G1 X43.199 Y188.172 E19.45657
G1 X42.643 Y186.579 E19.51269
G1 X41.994 Y184.616 E19.58146
G1 X41.471 Y182.94 E19.63985
G1 X40.894 Y180.972 E19.70806
G1 X40.378 Y179.097 E19.77275
G1 X39.955 Y177.454 E19.82917
G1 X39.5 Y175.557 E19.89406
G1 X39.104 Y173.777 E19.95471
G1 X38.67 Y171.652 E20.02684
G1 X38.334 Y169.854 E20.08768
G1 X38.039 Y168.115 E20.14635
G1 X37.723 Y166.042 E20.21609
G1 X37.47 Y164.159 E20.27928
G1 X37.269 Y162.46 E20.33619
G1 X37.059 Y160.38 E20.40572
G1 X36.915 Y158.677 E20.46256
G1 X36.771 Y156.537 E20.5339
G1 X36.679 Y154.685 E20.59558
G1 X36.621 Y152.961 E20.65295
G1 X36.586 Y150.858 E20.7229
G1 X36.586 Y149.142 E20.77998
G1 X36.621 Y147.042 E20.84983
G1 X36.679 Y145.316 E20.90727
G1 X36.782 Y143.276 E20.97521
G1 X36.915 Y141.325 E21.04025
G1 X37.059 Y139.621 E21.09713
G1 X37.269 Y137.54 E21.16669
G1 X37.493 Y135.659 E21.2297
G1 X37.749 Y133.776 E21.2929
G1 X38.009 Y132.069 E21.35033
G1 X38.334 Y130.146 E21.4152
G1 X38.668 Y128.354 E21.47583
G1 X39.103 Y126.224 E21.54814
G1 X39.5 Y124.439 E21.60896
G1 X39.91 Y122.727 E21.66751
G1 X40.379 Y120.903 E21.73015
G1 X40.943 Y118.855 E21.8008
G1 X41.471 Y117.061 E21.863
G1 X41.994 Y115.385 E21.92139
G1 X42.643 Y113.421 E21.99019
G1 X43.261 Y111.655 E22.05242
G1 X43.872 Y109.994 E22.11128
G1 X44.638 Y108.016 E22.18183
G1 X45.25 Y106.512 E22.23584
G1 X46.049 Y104.64 E22.30354
G1 X46.849 Y102.848 E22.36881
G1 X47.679 Y101.072 E22.43401
G1 X48.421 Y99.549 E22.49036
G1 X49.412 Y97.601 E22.56305
G1 X50.155 Y96.197 E22.61588
G1 X51.117 Y94.45 E22.68222
G1 X52.027 Y92.859 E22.74318
G1 X53.139 Y90.996 E22.81534
G1 X54.102 Y89.443 E22.87612
G1 X55.169 Y87.783 E22.94175
G1 X56.093 Y86.397 E22.99716
G1 X57.32 Y84.623 E23.0689
G1 X58.396 Y83.124 E23.13027
G1 X59.44 Y81.717 E23.18854
G1 X60.701 Y80.076 E23.25738
G1 X61.791 Y78.706 E23.3156
G1 X63.106 Y77.11 E23.38438
G1 X64.367 Y75.632 E23.449
G1 X65.571 Y74.268 E23.50952
G1 X66.765 Y72.957 E23.56849
G1 X68.208 Y71.426 E23.63847
G1 X69.536 Y70.067 E23.70167
G0 F6000 X69.818 Y70.351
G1 F1200 X71.151 Y69.031 E23.76406
G1 X72.426 Y67.809 E23.8228
G1 X73.767 Y66.564 E23.88366
G1 X75.21 Y65.269 E23.94815
G1 X76.782 Y63.907 E24.01733
G1 X78.228 Y62.697 E24.08004
G1 X79.553 Y61.623 E24.13677
G1 X81.24 Y60.305 E24.20797
G1 X82.693 Y59.21 E24.26849
G1 X84.296 Y58.043 E24.33443
G1 X85.62 Y57.111 E24.38829
G1 X87.28 Y55.984 E24.45502
G1 X88.937 Y54.898 E24.52092
G1 X90.606 Y53.847 E24.58652
G1 X92.018 Y52.989 E24.64147
G1 X93.702 Y52.003 E24.70637
G1 X95.482 Y51.002 E24.7743
G1 X97.209 Y50.069 E24.83958
G1 X98.834 Y49.228 E24.90044
G1 X100.404 Y48.447 E24.95876
G1 X102.256 Y47.563 E25.02702
G1 X103.857 Y46.831 E25.08557
G1 X105.72 Y46.018 E25.15318
G1 X107.499 Y45.278 E25.21726
G1 X109.252 Y44.584 E25.27997
G1 X110.882 Y43.969 E25.33791
G1 X112.617 Y43.345 E25.39924
G1 X114.621 Y42.663 E25.46965
G1 X116.269 Y42.134 E25.52721
G1 X118.263 Y41.531 E25.5965
G1 X120.062 Y41.02 E25.6587
G1 X121.932 Y40.523 E25.72306
G1 X123.528 Y40.126 E25.77776
G1 X125.635 Y39.64 E25.84968
G1 X127.244 Y39.297 E25.9044
G1 X129.335 Y38.887 E25.97527
G1 X131.013 Y38.588 E26.03196
G1 X133.093 Y38.254 E26.10202
G1 X134.725 Y38.019 E26.15686
G1 X136.883 Y37.746 E26.22921
G1 X138.485 Y37.57 E26.28281
G1 X140.421 Y37.389 E26.34749
G1 X142.487 Y37.232 E26.4164
G1 X144.238 Y37.129 E26.47474
G1 X146.281 Y37.044 E26.54275
G1 X148.257 Y36.996 E26.60849
G1 X150.011 Y36.982 E26.66683
G1 X152.015 Y37 E26.73349
G1 X153.879 Y37.049 E26.7955
G1 X155.589 Y37.121 E26.85243
G1 X157.694 Y37.246 E26.92257
G1 X159.599 Y37.391 E26.98611
G1 X161.414 Y37.56 E27.04674
G1 X163.191 Y37.755 E27.1062
G1 X165.048 Y37.989 E27.16845
G1 X167.158 Y38.293 E27.23935
G1 X168.752 Y38.549 E27.29305
G1 X170.876 Y38.927 E27.3648
G1 X172.691 Y39.284 E27.42633
G1 X174.42 Y39.651 E27.48511
G1 X176.396 Y40.108 E27.55257
G1 X178.161 Y40.547 E27.61306
G1 X180.048 Y41.05 E27.67802
G1 X181.801 Y41.549 E27.73864
G1 X183.706 Y42.126 E27.80484
G1 X185.552 Y42.72 E27.86934
G1 X187.343 Y43.331 E27.93228
G1 X189.145 Y43.978 E27.99596
G1 X190.88 Y44.635 E28.05767
G1 X192.532 Y45.289 E28.11676
G1 X194.402 Y46.07 E28.18416
G1 X196.045 Y46.788 E28.2438
G1 X197.859 Y47.616 E28.31012
G1 X199.602 Y48.449 E28.37438
G1 X201.147 Y49.218 E28.43178
G1 X202.968 Y50.163 E28.50001
G1 X204.517 Y51 E28.55857
G1 X206.335 Y52.024 E28.62797
G1 X207.929 Y52.958 E28.68942
G1 X209.449 Y53.882 E28.74858
G1 X211.134 Y54.945 E28.81485
G1 X212.631 Y55.924 E28.87434
G1 X214.334 Y57.08 E28.9428
G1 X215.901 Y58.184 E29.00655
G1 X217.275 Y59.187 E29.06313
G1 X218.955 Y60.456 E29.13316
G1 X220.409 Y61.595 E29.19459
G1 X221.75 Y62.68 E29.25196
G1 X223.226 Y63.914 E29.31595
G1 X224.64 Y65.137 E29.37813
G1 X226.205 Y66.54 E29.44804
G1 X227.623 Y67.856 E29.51238
G1 X228.951 Y69.132 E29.57364
G1 X230.22 Y70.39 E29.63307
G1 X231.593 Y71.799 E29.6985
G1 X232.976 Y73.267 E29.76558
G1 X234.06 Y74.455 E29.81907
G1 X235.474 Y76.061 E29.89024
G1 X236.705 Y77.507 E29.9534
G1 X237.818 Y78.859 E30.01165
G1 X239.068 Y80.431 E30.07845
G1 X240.137 Y81.823 E30.13682
G1 X241.37 Y83.483 E30.2056
G1 X242.411 Y84.937 E30.26508
G1 X243.416 Y86.389 E30.32381
G1 X244.627 Y88.203 E30.39635
G1 X245.534 Y89.615 E30.45217
G1 X246.638 Y91.398 E30.52192
G1 X247.503 Y92.849 E30.57811
G1 X248.558 Y94.69 E30.64868
G1 X249.452 Y96.314 E30.71034
G1 X250.285 Y97.885 E30.76948
G1 X251.11 Y99.506 E30.82998
G1 X251.978 Y101.282 E30.89572
G1 X252.757 Y102.947 E30.95686
G1 X253.617 Y104.874 E31.02705
G1 X254.345 Y106.583 E31.08883
G1 X255.077 Y108.387 E31.15359
G1 X255.751 Y110.13 E31.21574
G1 X256.429 Y111.975 E31.28112
G1 X256.961 Y113.499 E31.33481
G1 X257.639 Y115.55 E31.40665
G1 X258.138 Y117.149 E31.46237
G1 X258.688 Y119.022 E31.52729
G1 X259.219 Y120.946 E31.59368
G1 X259.664 Y122.673 E31.65299
G1 X260.097 Y124.474 E31.7146
G1 X260.553 Y126.529 E31.78462
G1 X260.935 Y128.406 E31.84832
G1 X261.251 Y130.092 E31.90538
G1 X261.59 Y132.097 E31.97301
G1 X261.884 Y134.029 E32.03801
G1 X262.105 Y135.66 E32.09275
G1 X262.335 Y137.6 E32.15773
G1 X262.545 Y139.675 E32.2271
