;FLAVOR:Marlin
;TIME:2935
;Filament used: 0.878647m
;Layer height: 0.12
;MINX:103.146
;MINY:126.535
;MINZ:0.12
;MAXX:196.855
;MAXY:160.3
;MAXZ:6.92
;Generated with Cura_SteamEngine 5.2.2
M140 S60
M105
M190 S60
M104 S200
M105
M109 S200
M82 ;absolute extrusion mode
; Ender 3 Max Custom Start G-code
G92 E0 ; Reset Extruder
G28 ; Home all axes
G1 Z2.0 F3000 ; Move Z Axis up little to prevent scratching of Heat Bed
G1 X0.1 Y20 Z0.3 F5000.0 ; Move to start position
G1 X0.1 Y200.0 Z0.3 F1500.0 E15 ; Draw the first line
G1 X0.4 Y200.0 Z0.3 F5000.0 ; Move to side a little
G1 X0.4 Y20 Z0.3 F1500.0 E30 ; Draw the second line
G92 E0 ; Reset Extruder
G1 Z2.0 F3000 ; Move Z Axis up little to prevent scratching of Heat Bed
G1 X5 Y20 Z0.3 F5000.0 ; Move over to prevent blob squish
G92 E0
G92 E0
G1 F1500 E-6.5
;LAYER_COUNT:57
;LAYER:0
M107
G1 F300 Z0.32
G0 F6000 X105.566 Y135.421 Z0.32
;TYPE:SKIRT
G1 F300 Z0.12
G1 F1500 E0
G1 F1200 X106.097 Y135.078 E0.01262
G1 X106.749 Y134.772 E0.02699
G1 X107.268 Y134.573 E0.03808
G1 X126.742 Y127.483 E0.45166
G1 X127.618 Y127.178 E0.47017
G1 X128.178 Y127.005 E0.48187
G1 X128.491 Y126.923 E0.48832
G1 X128.996 Y126.807 E0.49867
G1 X129.384 Y126.728 E0.50657
G1 X129.731 Y126.671 E0.51358
G1 X130.214 Y126.61 E0.5233
G1 X130.511 Y126.582 E0.52925
G1 X130.92 Y126.558 E0.53743
G1 X131.697 Y126.535 E0.55294
G1 X146.491 Y126.535 E0.84817
G1 X148.618 Y126.563 E0.89062
G1 X151.001 Y126.574 E0.93818
G1 X153.545 Y126.535 E0.98895
G1 X168.035 Y126.536 E1.27812
G1 X168.823 Y126.547 E1.29384
G1 X169.438 Y126.579 E1.30613
G1 X169.818 Y126.616 E1.31375
G1 X170.686 Y126.74 E1.33125
G1 X171.133 Y126.829 E1.34034
G1 X171.674 Y126.963 E1.35147
G1 X172.156 Y127.106 E1.3615
G1 X172.839 Y127.333 E1.37586
G1 X192.59 Y134.522 E1.79531
G1 X193.229 Y134.765 E1.80896
G1 X193.805 Y135.026 E1.82158
G1 X194.343 Y135.358 E1.83419
G1 X194.834 Y135.756 E1.84681
G1 X195.272 Y136.212 E1.85942
G1 X195.648 Y136.719 E1.87202
G1 X195.958 Y137.271 E1.88465
G1 X196.195 Y137.857 E1.89727
G1 X196.357 Y138.468 E1.90988
G1 X196.415 Y138.829 E1.91718
G1 X196.456 Y139.163 E1.92389
G1 X196.492 Y139.878 E1.93818
G1 X196.421 Y143.248 E2.00545
G1 X196.44 Y145.935 E2.05907
G1 X196.535 Y148.621 E2.11271
G1 X196.706 Y151.295 E2.16618
G1 X196.841 Y152.955 E2.19942
G1 X196.855 Y153.448 E2.20926
G1 X196.847 Y153.821 E2.2167
G1 X196.797 Y154.429 E2.22888
G1 X196.761 Y154.678 E2.2339
G1 X196.612 Y155.363 E2.24789
G1 X196.498 Y155.754 E2.25602
G1 X196.283 Y156.348 E2.26862
G1 X196.035 Y156.842 E2.27965
G1 X195.809 Y157.236 E2.28872
G1 X195.378 Y157.869 E2.304
G1 X195.195 Y158.098 E2.30985
G1 X194.879 Y158.457 E2.31939
G1 X194.562 Y158.784 E2.32848
G1 X194.094 Y159.209 E2.3411
G1 X193.576 Y159.572 E2.35372
G1 X193.017 Y159.867 E2.36633
G1 X192.425 Y160.088 E2.37894
G1 X191.81 Y160.233 E2.39155
G1 X191.181 Y160.3 E2.40418
G1 X190.549 Y160.286 E2.41679
G1 X189.924 Y160.193 E2.4294
G1 X189.424 Y160.058 E2.43974
G1 X189.003 Y159.918 E2.44859
G1 X184.348 Y158.226 E2.54743
G1 X181.756 Y157.324 E2.6022
G1 X179.213 Y156.519 E2.65543
G1 X176.615 Y155.777 E2.70935
G1 X174.017 Y155.114 E2.76286
G1 X171.354 Y154.514 E2.81733
G1 X168.762 Y154.008 E2.87004
G1 X166.089 Y153.562 E2.92412
G1 X163.47 Y153.202 E2.97687
G1 X160.761 Y152.908 E3.03125
G1 X158.08 Y152.692 E3.08493
G1 X155.4 Y152.552 E3.13848
G1 X153.177 Y152.495 E3.18286
G1 X151.454 Y152.467 E3.21725
G1 X148.704 Y152.464 E3.27213
G1 X148.154 Y152.479 E3.28311
G1 X146.954 Y152.494 E3.30706
G1 X144.262 Y152.567 E3.3608
G1 X141.616 Y152.714 E3.41368
G1 X138.908 Y152.94 E3.46791
G1 X136.227 Y153.242 E3.52175
G1 X133.57 Y153.616 E3.5753
G1 X130.939 Y154.064 E3.62856
G1 X128.308 Y154.587 E3.68209
G1 X125.687 Y155.186 E3.73574
G1 X123.067 Y155.865 E3.78976
G1 X120.497 Y156.608 E3.84314
G1 X117.935 Y157.428 E3.89683
G1 X115.677 Y158.218 E3.94457
G1 X111.301 Y159.808 E4.03748
G1 X110.683 Y160.023 E4.05054
G1 X110.074 Y160.193 E4.06316
G1 X109.448 Y160.284 E4.07578
G1 X108.816 Y160.296 E4.08839
G1 X108.188 Y160.228 E4.101
G1 X107.573 Y160.081 E4.11362
G1 X106.982 Y159.858 E4.12622
G1 X106.423 Y159.562 E4.13885
G1 X105.907 Y159.197 E4.15146
G1 X105.551 Y158.882 E4.16095
G1 X105.318 Y158.655 E4.16744
G1 X104.978 Y158.29 E4.17739
G1 X104.684 Y157.94 E4.18651
G1 X104.195 Y157.262 E4.2032
G1 X103.826 Y156.562 E4.21899
G1 X103.661 Y156.189 E4.22713
G1 X103.443 Y155.596 E4.23974
G1 X103.314 Y155.06 E4.25074
G1 X103.221 Y154.548 E4.26112
G1 X103.148 Y153.92 E4.27374
G1 X103.146 Y153.422 E4.28368
G1 X103.176 Y152.775 E4.2966
G1 X103.278 Y151.473 E4.32266
G1 X103.453 Y148.815 E4.37582
G1 X103.554 Y146.099 E4.43006
G1 X103.578 Y143.423 E4.48347
G1 X103.509 Y140.186 E4.54808
G1 X103.514 Y139.836 E4.55506
G1 X103.545 Y139.198 E4.56781
G1 X103.615 Y138.57 E4.58042
G1 X103.765 Y137.956 E4.59303
G1 X103.99 Y137.365 E4.60565
G1 X104.288 Y136.808 E4.61826
G1 X104.655 Y136.293 E4.63088
G1 X105.083 Y135.828 E4.64349
G1 X105.566 Y135.421 E4.6561
G0 F6000 X105.946 Y135.642
G1 F1200 X106.468 Y135.334 E4.66819
G1 X106.892 Y135.146 E4.67745
G1 X107.484 Y134.92 E4.69009
G1 X126.873 Y127.861 E5.10187
G1 X127.749 Y127.556 E5.12038
G1 X128.293 Y127.389 E5.13173
G1 X128.58 Y127.313 E5.13766
G1 X129.085 Y127.197 E5.148
G1 X129.462 Y127.12 E5.15568
G1 X129.781 Y127.068 E5.16213
G1 X130.264 Y127.007 E5.17184
G1 X130.538 Y126.981 E5.17734
G1 X130.933 Y126.957 E5.18523
G1 X131.547 Y126.937 E5.19749
G1 X146.486 Y126.935 E5.49562
G1 X148.613 Y126.963 E5.53807
G1 X151.005 Y126.974 E5.5858
G1 X153.545 Y126.935 E5.6365
G1 X168.029 Y126.936 E5.92554
G1 X168.817 Y126.947 E5.94127
G1 X169.414 Y126.978 E5.9532
G1 X169.765 Y127.012 E5.96023
G1 X170.612 Y127.133 E5.97731
G1 X171.042 Y127.218 E5.98606
G1 X171.562 Y127.347 E5.99675
G1 X172.031 Y127.486 E6.00651
G1 X172.702 Y127.708 E6.02061
G1 X192.448 Y134.895 E6.43996
G1 X193.087 Y135.138 E6.4536
G1 X193.638 Y135.391 E6.4657
G1 X194.152 Y135.713 E6.4778
G1 X194.618 Y136.101 E6.4899
G1 X195.029 Y136.546 E6.50199
G1 X195.379 Y137.042 E6.51411
G1 X195.66 Y137.579 E6.5262
G1 X195.868 Y138.149 E6.53831
G1 X196.018 Y138.878 E6.55316
G1 X196.059 Y139.212 E6.55988
G1 X196.092 Y139.87 E6.57303
G1 X196.02 Y143.243 E6.64035
G1 X196.041 Y145.952 E6.69442
G1 X196.135 Y148.621 E6.74771
G1 X196.309 Y151.359 E6.80246
G1 X196.351 Y151.811 E6.81152
G1 X196.442 Y152.986 E6.83504
G1 X196.455 Y153.44 E6.8441
G1 X196.447 Y153.813 E6.85155
G1 X196.401 Y154.372 E6.86274
G1 X196.365 Y154.621 E6.86776
G1 X196.228 Y155.251 E6.88063
G1 X196.114 Y155.642 E6.88876
G1 X195.906 Y156.211 E6.90085
G1 X195.688 Y156.643 E6.9105
G1 X195.462 Y157.037 E6.91957
G1 X195.066 Y157.62 E6.93363
G1 X194.883 Y157.849 E6.93948
G1 X194.592 Y158.179 E6.94826
G1 X194.275 Y158.506 E6.95735
G1 X193.825 Y158.912 E6.96945
G1 X193.326 Y159.256 E6.98154
G1 X192.785 Y159.531 E6.99365
G1 X192.214 Y159.733 E7.00574
G1 X191.62 Y159.858 E7.01785
G1 X191.016 Y159.904 E7.02994
G1 X190.41 Y159.87 E7.04205
G1 X189.548 Y159.678 E7.05968
G1 X189.14 Y159.542 E7.06826
G1 X184.496 Y157.854 E7.16687
G1 X181.892 Y156.947 E7.2219
G1 X179.315 Y156.132 E7.27583
G1 X176.709 Y155.388 E7.32992
G1 X174.132 Y154.73 E7.38299
G1 X171.453 Y154.127 E7.43779
G1 X168.792 Y153.607 E7.4919
G1 X166.172 Y153.17 E7.54491
G1 X163.497 Y152.802 E7.59879
G1 X160.804 Y152.51 E7.65285
G1 X158.132 Y152.294 E7.70635
G1 X155.393 Y152.152 E7.76108
G1 X153.195 Y152.095 E7.80496
G1 X151.461 Y152.067 E7.83957
G1 X148.693 Y152.064 E7.8948
G1 X148.149 Y152.079 E7.90566
G1 X146.948 Y152.094 E7.92963
G1 X144.265 Y152.167 E7.9832
G1 X141.561 Y152.316 E8.03724
G1 X138.862 Y152.542 E8.09129
G1 X136.198 Y152.842 E8.14479
G1 X133.519 Y153.22 E8.19878
G1 X130.866 Y153.671 E8.25248
G1 X128.213 Y154.198 E8.30646
G1 X125.594 Y154.796 E8.36007
G1 X122.969 Y155.477 E8.41419
G1 X120.369 Y156.229 E8.4682
G1 X117.797 Y157.052 E8.52209
G1 X115.566 Y157.832 E8.56926
G1 X111.169 Y159.431 E8.66263
G1 X110.551 Y159.646 E8.67568
G1 X109.967 Y159.807 E8.68777
G1 X109.366 Y159.889 E8.69988
G1 X108.76 Y159.892 E8.71197
G1 X108.159 Y159.816 E8.72406
G1 X107.572 Y159.661 E8.73618
G1 X107.012 Y159.43 E8.74827
G1 X106.486 Y159.127 E8.76038
G1 X105.83 Y158.596 E8.77722
G1 X105.597 Y158.369 E8.78371
G1 X105.285 Y158.033 E8.79286
G1 X104.991 Y157.683 E8.80199
G1 X104.536 Y157.052 E8.81751
G1 X104.192 Y156.4 E8.83222
G1 X104.027 Y156.027 E8.84036
G1 X103.819 Y155.457 E8.85247
G1 X103.708 Y154.988 E8.86209
G1 X103.615 Y154.476 E8.87247
G1 X103.546 Y153.874 E8.88456
G1 X103.546 Y153.441 E8.8932
G1 X103.576 Y152.794 E8.90613
G1 X103.673 Y151.555 E8.93093
G1 X103.853 Y148.821 E8.98561
G1 X103.954 Y146.118 E9.03959
G1 X103.978 Y143.418 E9.09347
G1 X103.909 Y140.177 E9.15816
G1 X103.913 Y139.856 E9.16457
G1 X103.944 Y139.218 E9.17732
G1 X104.014 Y138.615 E9.18943
G1 X104.162 Y138.027 E9.20153
G1 X104.386 Y137.464 E9.21362
G1 X104.682 Y136.935 E9.22572
G1 X105.045 Y136.449 E9.23783
G1 X105.469 Y136.016 E9.24992
G1 X105.946 Y135.642 E9.26202
G0 F6000 X106.322 Y135.874
G1 F1200 X107.035 Y135.519 E9.27791
G1 X107.621 Y135.295 E9.29043
G1 X126.949 Y128.258 E9.70091
G1 X128.059 Y127.876 E9.72434
G1 X128.407 Y127.772 E9.73159
G1 X128.67 Y127.703 E9.73701
G1 X129.298 Y127.56 E9.74986
G1 X129.831 Y127.465 E9.76067
G1 X130.564 Y127.38 E9.7754
G1 X130.946 Y127.357 E9.78303
G1 X131.56 Y127.337 E9.79529
G1 X146.48 Y127.335 E10.09304
G1 X148.607 Y127.363 E10.13549
G1 X150.96 Y127.374 E10.18244
G1 X153.545 Y127.335 E10.23404
G1 X168.024 Y127.336 E10.52298
G1 X168.812 Y127.347 E10.53871
G1 X169.391 Y127.377 E10.55028
G1 X169.711 Y127.408 E10.55669
G1 X170.538 Y127.526 E10.57336
G1 X170.951 Y127.608 E10.58177
G1 X171.451 Y127.731 E10.59204
G1 X171.906 Y127.866 E10.60151
G1 X172.565 Y128.084 E10.61537
G1 X192.306 Y135.269 E11.0346
G1 X192.945 Y135.512 E11.04824
G1 X193.471 Y135.755 E11.05981
G1 X193.958 Y136.068 E11.07136
G1 X194.398 Y136.445 E11.08292
G1 X194.782 Y136.879 E11.09449
G1 X195.103 Y137.361 E11.10604
G1 X195.354 Y137.883 E11.1176
G1 X195.53 Y138.435 E11.12916
G1 X195.621 Y138.926 E11.13913
G1 X195.662 Y139.26 E11.14584
G1 X195.692 Y139.861 E11.15785
G1 X195.62 Y143.237 E11.22524
G1 X195.641 Y145.97 E11.27978
G1 X195.736 Y148.666 E11.33362
G1 X195.907 Y151.351 E11.38731
G1 X196.043 Y153.017 E11.42066
G1 X196.055 Y153.431 E11.42893
G1 X196.047 Y153.804 E11.43638
G1 X196.005 Y154.315 E11.44661
G1 X195.969 Y154.564 E11.45163
G1 X195.844 Y155.139 E11.46337
G1 X195.73 Y155.53 E11.4715
G1 X195.53 Y156.073 E11.48305
G1 X195.341 Y156.444 E11.49136
G1 X195.115 Y156.838 E11.50042
G1 X194.753 Y157.37 E11.51326
G1 X194.57 Y157.599 E11.51911
G1 X194.305 Y157.9 E11.52711
G1 X193.988 Y158.227 E11.5362
G1 X193.557 Y158.615 E11.54778
G1 X193.077 Y158.939 E11.55933
G1 X192.556 Y159.194 E11.57091
G1 X192.006 Y159.375 E11.58246
G1 X191.436 Y159.478 E11.59402
G1 X190.857 Y159.502 E11.60559
G1 X190.281 Y159.447 E11.61713
G1 X189.671 Y159.298 E11.62966
G1 X189.41 Y159.213 E11.63514
G1 X184.587 Y157.462 E11.73754
G1 X182.018 Y156.567 E11.79183
G1 X179.43 Y155.749 E11.84599
G1 X176.846 Y155.011 E11.89962
G1 X174.18 Y154.33 E11.95453
G1 X171.546 Y153.737 E12.00841
G1 X168.898 Y153.219 E12.06226
G1 X166.226 Y152.774 E12.11631
G1 X163.523 Y152.403 E12.17076
G1 X160.843 Y152.111 E12.22456
G1 X158.149 Y151.894 E12.2785
G1 X155.463 Y151.754 E12.33217
G1 X153.178 Y151.694 E12.37779
G1 X151.468 Y151.667 E12.41191
G1 X148.683 Y151.664 E12.46749
G1 X148.144 Y151.679 E12.47825
G1 X146.943 Y151.694 E12.50222
G1 X144.268 Y151.767 E12.55562
G1 X141.504 Y151.919 E12.61087
G1 X138.855 Y152.141 E12.66392
G1 X136.133 Y152.447 E12.71858
G1 X133.467 Y152.823 E12.77231
G1 X130.757 Y153.284 E12.82717
G1 X128.152 Y153.802 E12.88017
G1 X125.51 Y154.405 E12.93425
G1 X122.863 Y155.091 E12.98882
G1 X120.241 Y155.85 E13.04329
G1 X117.692 Y156.666 E13.0967
G1 X115.393 Y157.469 E13.1453
G1 X111.038 Y159.053 E13.23778
G1 X110.42 Y159.268 E13.25084
G1 X109.861 Y159.42 E13.2624
G1 X109.286 Y159.494 E13.27396
G1 X108.707 Y159.488 E13.28552
G1 X108.134 Y159.402 E13.29708
G1 X107.579 Y159.239 E13.30863
G1 X107.051 Y159 E13.32019
G1 X106.561 Y158.691 E13.33175
G1 X106.109 Y158.309 E13.34356
G1 X105.876 Y158.082 E13.35005
G1 X105.591 Y157.775 E13.35841
G1 X105.297 Y157.425 E13.36754
G1 X104.876 Y156.842 E13.38189
G1 X104.558 Y156.238 E13.39551
G1 X104.393 Y155.865 E13.40365
G1 X104.196 Y155.32 E13.41521
G1 X104.102 Y154.917 E13.42347
G1 X104.009 Y154.405 E13.43386
G1 X103.945 Y153.829 E13.44542
G1 X103.946 Y153.459 E13.4528
G1 X103.984 Y152.671 E13.46855
G1 X104.075 Y151.537 E13.49125
G1 X104.253 Y148.829 E13.54541
G1 X104.353 Y146.137 E13.59917
G1 X104.378 Y143.414 E13.65351
G1 X104.309 Y140.169 E13.71828
G1 X104.313 Y139.875 E13.72415
G1 X104.344 Y139.237 E13.7369
G1 X104.412 Y138.662 E13.74845
G1 X104.558 Y138.101 E13.76002
G1 X104.781 Y137.566 E13.77159
G1 X105.074 Y137.067 E13.78314
G1 X105.434 Y136.613 E13.7947
G1 X105.853 Y136.212 E13.80627
G1 X106.322 Y135.874 E13.81781
G1 F1500 E7.31781
G1 F300 Z0.32
;MESH:handlebar-Standard.stl(1)
G0 F6000 X109.683 Y140.574 Z0.32
;TYPE:WALL-INNER
G1 F300 Z0.12
G1 F1500 E13.81781
G1 F1081.1 X129.546 Y133.345 E14.28603
G1 X130.063 Y133.182 E14.29804
G1 X130.556 Y133.078 E14.3092
G1 F1078.7 X130.97 Y133.024 E14.31847
G1 F1081.1 X131.414 Y133.002 E14.32832
G1 X146.164 Y133.001 E14.65505
G1 F1078.7 X146.164 Y132.556 E14.66493
G1 X131.455 Y132.557 E14.99148
G1 X130.905 Y132.583 E15.00371
G1 X130.498 Y132.636 E15.01282
G1 F1081.1 X129.933 Y132.758 E15.02562
G1 X129.394 Y132.927 E15.03814
G1 X109.532 Y140.157 E15.50635
G1 F1083.5 X109.559 Y140.315 E15.50989
G1 X109.683 Y140.574 E15.51624
G0 F6000 X109.541 Y141.074
G1 F1200 X129.81 Y133.7 E15.94666
G1 X130.241 Y133.571 E15.95564
G1 X130.6 Y133.498 E15.96295
G1 X130.943 Y133.45 E15.96986
G1 X131.435 Y133.424 E15.9797
G1 X146.586 Y133.423 E16.28205
G1 X146.586 Y132.134 E16.30777
G1 X131.435 Y132.135 E16.61013
G1 X130.877 Y132.162 E16.62128
G1 X130.417 Y132.221 E16.63053
G1 X129.836 Y132.347 E16.6424
G1 X129.25 Y132.529 E16.65464
G1 X109.099 Y139.866 E17.0826
G1 X109.103 Y140.15 E17.08827
G1 X109.152 Y140.433 E17.094
G1 X109.254 Y140.68 E17.09934
G1 X109.4 Y140.918 E17.10491
G1 X109.541 Y141.074 E17.1091
G0 F6000 X109.424 Y141.541
;TYPE:WALL-OUTER
G1 F1200 X129.957 Y134.073 E17.54512
G1 X130.321 Y133.963 E17.55271
G1 X130.655 Y133.894 E17.55952
G1 X131.011 Y133.846 E17.56669
G1 X131.455 Y133.824 E17.57556
G1 X146.986 Y133.823 E17.88549
G1 X146.986 Y131.734 E17.92718
G1 X131.417 Y131.735 E18.23788
G1 X130.842 Y131.763 E18.24937
G1 X130.349 Y131.827 E18.25929
G1 X129.734 Y131.959 E18.27184
G1 X129.136 Y132.144 E18.28433
G1 X108.719 Y139.579 E18.71795
G1 X108.696 Y139.896 E18.72429
G1 X108.704 Y140.189 E18.73014
G1 X108.765 Y140.545 E18.73735
G1 X108.897 Y140.862 E18.7442
G1 X109.078 Y141.158 E18.75113
G1 X109.424 Y141.541 E18.76143
G1 F1500 E12.26143
G1 F300 Z0.32
G0 F6000 X190.315 Y140.573 Z0.32
;TYPE:WALL-INNER
G1 F300 Z0.12
G1 F1500 E18.76143
G1 F1083.5 X190.405 Y140.406 E18.76562
G1 X190.467 Y140.156 E18.77131
G1 X170.536 Y132.904 E19.24007
G1 X170.042 Y132.752 E19.25149
G1 X169.606 Y132.657 E19.26135
G1 X169.073 Y132.582 E19.27325
G1 X168.641 Y132.559 E19.28281
G1 F1081.1 X153.837 Y132.558 E19.61074
G1 X153.837 Y133.001 E19.62055
G1 X168.641 Y133.003 E19.94848
G1 F1083.5 X169.039 Y133.024 E19.95729
G1 X169.545 Y133.095 E19.96858
G1 F1088.4 X170.061 Y133.215 E19.98024
G1 X170.4 Y133.326 E19.98808
G1 F1083.5 X190.315 Y140.573 E20.45647
G0 F6000 X190.475 Y141.08
G1 F1200 X190.777 Y140.648 E20.46699
G1 X190.898 Y140.127 E20.47766
G1 X190.904 Y139.867 E20.48285
G1 X170.738 Y132.526 E20.91112
G1 X170.16 Y132.346 E20.9232
G1 X169.708 Y132.245 E20.93244
G1 X169.115 Y132.162 E20.94439
G1 X168.64 Y132.137 E20.95389
G1 X153.415 Y132.136 E21.25772
G1 X153.415 Y133.423 E21.2834
G1 X168.675 Y133.426 E21.58793
G1 X169.067 Y133.45 E21.59577
G1 X169.454 Y133.507 E21.60357
G1 X169.937 Y133.616 E21.61346
G1 X170.311 Y133.743 E21.62134
G1 X190.475 Y141.08 E22.04954
G0 F6000 X190.578 Y141.543
;TYPE:WALL-OUTER
G1 F1200 X190.866 Y141.219 E22.05819
G1 X191.044 Y140.966 E22.06437
G1 X191.17 Y140.713 E22.07001
G1 X191.253 Y140.445 E22.07561
