;FLAVOR:Marlin
;TIME:31042
;Filament used: 21.3502m
;Layer height: 0.2
;MINX:91.822
;MINY:83.23
;MINZ:0.2
;MAXX:203.746
;MAXY:278.504
;MAXZ:23.2
;Generated with Cura_SteamEngine 5.2.2
M140 S60
M105
M190 S60
M104 S207
M105
M109 S207
M82 ;absolute extrusion mode
; Ender 3 Max Custom Start G-code
G92 E0 ; Reset Extruder
G28 ; Home all axes
G1 Z2.0 F3000 ; Move Z Axis up little to prevent scratching of Heat Bed
G1 X0.1 Y20 Z0.3 F5000.0 ; Move to start position
G1 X0.1 Y200.0 Z0.3 F1500.0 E15 ; Draw the first line
G1 X0.4 Y200.0 Z0.3 F5000.0 ; Move to side a little
G1 X0.4 Y20 Z0.3 F1500.0 E30 ; Draw the second line
G92 E0 ; Reset Extruder
G1 Z2.0 F3000 ; Move Z Axis up little to prevent scratching of Heat Bed
G1 X5 Y20 Z0.3 F5000.0 ; Move over to prevent blob squish
G92 E0
G92 E0
G1 F2100 E-6.5
;LAYER_COUNT:117
;LAYER:0
M107
G0 F6000 X95.019 Y100.127 Z0.2
;TYPE:SKIRT
G1 F2100 E0
G1 F1200 X95.786 Y99.423 E0.03393
G1 X97.681 Y97.843 E0.11436
G1 X99.616 Y96.139 E0.1984
G1 X101.413 Y94.464 E0.27847
G1 X103.205 Y92.694 E0.36057
G1 X104.798 Y91.024 E0.43579
G1 X105.389 Y90.417 E0.46341
G1 X105.945 Y89.87 E0.48883
G1 X106.644 Y89.244 E0.51942
G1 X107.624 Y88.527 E0.559
G1 X108.317 Y88.084 E0.58581
G1 X108.707 Y87.849 E0.60065
G1 X109.53 Y87.4 E0.6312
G1 X110.608 Y86.939 E0.66942
G1 X111.332 Y86.68 E0.69448
G1 X111.761 Y86.538 E0.70921
G1 X112.664 Y86.282 E0.73981
G1 X113.809 Y86.072 E0.77775
G1 X114.908 Y85.93 E0.81387
G1 X117.468 Y85.572 E0.89812
G1 X119.975 Y85.15 E0.98099
G1 X122.43 Y84.666 E1.06255
G1 X124.899 Y84.106 E1.14507
G1 X126.978 Y83.578 E1.21499
G1 X127.896 Y83.386 E1.24556
G1 X128.827 Y83.273 E1.27613
G1 X129.352 Y83.245 E1.29326
G1 X130.011 Y83.23 E1.31475
G1 X133.035 Y83.23 E1.41331
G1 X133.7 Y83.24 E1.43499
G1 X134.637 Y83.294 E1.46559
G1 X135.232 Y83.371 E1.48514
G1 X136.066 Y83.502 E1.51266
G1 X137.306 Y83.715 E1.55367
G1 X139.805 Y84.071 E1.63595
G1 X142.275 Y84.353 E1.71698
G1 X144.808 Y84.569 E1.79984
G1 X147.325 Y84.713 E1.88202
G1 X149.81 Y84.784 E1.96305
G1 X152.333 Y84.784 E2.04528
G1 X154.857 Y84.713 E2.12759
G1 X157.379 Y84.571 E2.20992
G1 X159.902 Y84.358 E2.29245
G1 X162.364 Y84.079 E2.37321
G1 X164.904 Y83.718 E2.45684
G1 X166.887 Y83.388 E2.52236
G1 X167.818 Y83.274 E2.55293
G1 X168.371 Y83.244 E2.57098
G1 X168.996 Y83.23 E2.59136
G1 X172.051 Y83.23 E2.69094
G1 X172.721 Y83.241 E2.71278
G1 X173.657 Y83.297 E2.74334
G1 X174.585 Y83.432 E2.77391
G1 X175.168 Y83.559 E2.79336
G1 X176.072 Y83.782 E2.82371
G1 X177.065 Y84.04 E2.85715
G1 X179.541 Y84.611 E2.93997
G1 X182.015 Y85.108 E3.02222
G1 X184.453 Y85.527 E3.10286
G1 X187.2 Y85.917 E3.19329
G1 X188.385 Y86.067 E3.23222
G1 X189.31 Y86.225 E3.26281
G1 X190.49 Y86.547 E3.30268
G1 X191.136 Y86.767 E3.32492
G1 X191.598 Y86.935 E3.34095
G1 X192.465 Y87.293 E3.37152
G1 X193.558 Y87.876 E3.4119
G1 X193.954 Y88.117 E3.42701
G1 X194.575 Y88.515 E3.45105
G1 X195.339 Y89.058 E3.4816
G1 X196.207 Y89.809 E3.51901
G1 X196.76 Y90.348 E3.54419
G1 X197.093 Y90.689 E3.55972
G1 X197.719 Y91.387 E3.59028
G1 X198.437 Y92.365 E3.62983
G1 X198.835 Y92.984 E3.65381
G1 X199.091 Y93.403 E3.66982
G1 X199.545 Y94.223 E3.70037
G1 X200.03 Y95.347 E3.74027
G1 X200.294 Y96.081 E3.7657
G1 X200.552 Y96.882 E3.79313
G1 X201.247 Y99.275 E3.87435
G1 X201.999 Y101.632 E3.95499
G1 X203.111 Y104.788 E4.06406
G1 X203.384 Y105.685 E4.09462
G1 X203.581 Y106.602 E4.12519
G1 X203.698 Y107.533 E4.15578
G1 X203.731 Y108.114 E4.17475
G1 X203.746 Y108.766 E4.196
G1 X203.746 Y109.92 E4.23362
G1 X203.736 Y110.639 E4.25706
G1 X203.669 Y111.708 E4.29197
G1 X203.406 Y114.06 E4.36911
G1 X203.193 Y116.562 E4.45096
G1 X203.052 Y119.046 E4.53205
G1 X202.98 Y121.604 E4.61546
G1 X202.98 Y124.092 E4.69656
G1 X203.052 Y126.65 E4.77997
G1 X203.192 Y129.114 E4.86041
G1 X203.408 Y131.659 E4.94367
G1 X203.67 Y134.034 E5.02155
G1 X203.731 Y134.914 E5.0503
G1 X203.746 Y135.566 E5.07156
G1 X203.746 Y136.752 E5.11022
G1 X203.735 Y137.467 E5.13352
G1 X203.68 Y138.404 E5.16412
G1 X203.491 Y139.609 E5.20388
G1 X203.274 Y140.619 E5.23755
G1 X203.086 Y141.444 E5.26513
G1 X202.59 Y143.933 E5.34785
G1 X202.166 Y146.421 E5.43012
G1 X201.819 Y148.881 E5.51109
G1 X201.535 Y151.401 E5.59375
G1 X201.324 Y153.925 E5.67631
G1 X201.187 Y156.377 E5.75636
G1 X201.108 Y160.225 E5.88181
G1 X201.107 Y201.575 E7.22961
G1 X201.144 Y204.183 E7.31463
G1 X201.251 Y206.704 E7.39687
G1 X201.428 Y209.199 E7.4784
G1 X201.676 Y211.698 E7.56026
G1 X201.997 Y214.21 E7.6428
G1 X202.383 Y216.671 E7.724
G1 X202.85 Y219.186 E7.80737
G1 X203.485 Y222.109 E7.90487
G1 X203.645 Y223.033 E7.93544
G1 X203.731 Y224.114 E7.97078
G1 X203.746 Y224.766 E7.99204
G1 X203.746 Y225.98 E8.03161
G1 X203.736 Y226.65 E8.05345
G1 X203.669 Y227.708 E8.08801
G1 X203.406 Y230.06 E8.16515
G1 X203.193 Y232.562 E8.247
G1 X203.052 Y235.046 E8.32809
G1 X202.98 Y237.604 E8.4115
G1 X202.98 Y240.092 E8.4926
G1 X203.052 Y242.65 E8.57601
G1 X203.192 Y245.114 E8.65645
G1 X203.408 Y247.659 E8.73971
G1 X203.67 Y250.034 E8.81759
G1 X203.731 Y250.914 E8.84634
G1 X203.746 Y251.566 E8.8676
G1 X203.746 Y252.732 E8.9056
G1 X203.735 Y253.461 E8.92937
G1 X203.681 Y254.397 E8.95993
G1 X203.547 Y255.326 E8.99052
G1 X203.335 Y256.239 E9.02107
G1 X203.103 Y256.973 E9.04616
G1 X202.066 Y259.896 E9.14726
G1 X201.31 Y262.249 E9.22781
G1 X200.555 Y264.845 E9.31594
G1 X200.425 Y265.261 E9.33014
G1 X200.191 Y265.946 E9.35374
G1 X200.025 Y266.398 E9.36943
G1 X199.664 Y267.264 E9.40001
G1 X199.094 Y268.327 E9.43933
G1 X198.742 Y268.898 E9.46119
G1 X198.474 Y269.314 E9.47732
G1 X197.933 Y270.08 E9.50789
G1 X197.093 Y271.047 E9.54964
G1 X196.578 Y271.568 E9.57352
G1 X196.25 Y271.886 E9.58841
G1 X195.549 Y272.509 E9.61898
G1 X194.621 Y273.189 E9.65648
G1 X193.998 Y273.591 E9.68065
G1 X193.568 Y273.853 E9.69706
G1 X192.747 Y274.306 E9.72762
G1 X191.65 Y274.78 E9.76657
G1 X191.227 Y274.936 E9.78127
G1 X190.457 Y275.197 E9.80777
G1 X189.555 Y275.455 E9.83835
G1 X188.369 Y275.671 E9.87764
G1 X187.189 Y275.82 E9.91641
G1 X184.632 Y276.179 E10.00057
G1 X182.132 Y276.604 E10.08323
G1 X179.691 Y277.088 E10.16434
G1 X177.245 Y277.646 E10.24612
G1 X175.25 Y278.154 E10.31322
G1 X174.332 Y278.346 E10.34379
G1 X173.401 Y278.46 E10.37436
G1 X172.882 Y278.489 E10.3913
G1 X172.222 Y278.504 E10.41282
G1 X169.183 Y278.504 E10.51188
G1 X168.518 Y278.494 E10.53356
G1 X167.581 Y278.44 E10.56415
G1 X166.986 Y278.363 E10.58371
G1 X166.152 Y278.232 E10.61122
G1 X164.912 Y278.019 E10.65223
G1 X162.413 Y277.663 E10.73451
G1 X159.943 Y277.381 E10.81554
G1 X157.41 Y277.165 E10.8984
G1 X154.893 Y277.021 E10.98058
G1 X152.408 Y276.95 E11.06161
G1 X149.885 Y276.95 E11.14385
G1 X147.361 Y277.021 E11.22615
G1 X144.839 Y277.163 E11.30849
G1 X142.316 Y277.376 E11.39101
G1 X139.854 Y277.655 E11.47178
G1 X137.314 Y278.016 E11.5554
G1 X135.331 Y278.346 E11.62092
G1 X134.4 Y278.46 E11.6515
G1 X133.847 Y278.49 E11.66955
G1 X133.222 Y278.504 E11.68993
G1 X130.167 Y278.504 E11.7895
G1 X129.497 Y278.493 E11.81135
G1 X128.561 Y278.437 E11.84191
G1 X127.633 Y278.302 E11.87247
G1 X127.057 Y278.177 E11.89169
G1 X126.107 Y277.943 E11.92358
G1 X125.075 Y277.675 E11.95833
G1 X122.614 Y277.109 E12.04064
G1 X120.196 Y276.624 E12.12103
G1 X117.668 Y276.192 E12.20462
G1 X114.955 Y275.809 E12.29393
G1 X113.841 Y275.669 E12.33052
G1 X112.916 Y275.512 E12.3611
G1 X111.738 Y275.191 E12.4009
G1 X111.342 Y275.059 E12.41451
G1 X110.563 Y274.777 E12.44151
G1 X109.698 Y274.415 E12.47208
G1 X108.642 Y273.848 E12.51114
G1 X107.943 Y273.412 E12.538
G1 X107.492 Y273.112 E12.55565
G1 X106.734 Y272.56 E12.58622
G1 X105.884 Y271.808 E12.62321
G1 X105.445 Y271.373 E12.64335
G1 X104.522 Y270.423 E12.68653
G1 X103.647 Y269.496 E12.72808
G1 X101.88 Y267.728 E12.80955
G1 X100.039 Y265.987 E12.89214
G1 X98.176 Y264.323 E12.97356
G1 X96.611 Y262.994 E13.04048
G1 X95.804 Y262.324 E13.07467
G1 X95.109 Y261.695 E13.10523
G1 X94.47 Y261.009 E13.13578
G1 X93.892 Y260.27 E13.16636
G1 X93.378 Y259.486 E13.19692
G1 X92.933 Y258.66 E13.2275
G1 X92.561 Y257.799 E13.25807
G1 X92.263 Y256.91 E13.28864
G1 X92.041 Y255.998 E13.31923
G1 X91.899 Y255.072 E13.34977
G1 X91.837 Y254.196 E13.37839
G1 X91.822 Y253.538 E13.39984
G1 X91.822 Y251.174 E13.4769
G1 X91.832 Y250.5 E13.49887
G1 X91.884 Y249.58 E13.5289
G1 X91.969 Y248.721 E13.55704
G1 X92.096 Y247.596 E13.59394
G1 X92.308 Y245.08 E13.67624
G1 X92.449 Y242.561 E13.75848
G1 X92.519 Y240.038 E13.84075
G1 X92.517 Y237.514 E13.92302
G1 X92.445 Y235.026 E14.00415
G1 X92.3 Y232.508 E14.08636
G1 X92.076 Y229.898 E14.17174
G1 X91.896 Y228.249 E14.22581
G1 X91.835 Y227.362 E14.25479
G1 X91.822 Y226.738 E14.27513
G1 X91.822 Y224.373 E14.35222
G1 X91.832 Y223.704 E14.37403
G1 X91.886 Y222.767 E14.40462
G1 X92.02 Y221.839 E14.43518
G1 X92.232 Y220.925 E14.46577
G1 X92.521 Y220.033 E14.49633
G1 X92.794 Y219.368 E14.51976
G1 X93.753 Y217.229 E14.59617
G1 X94.721 Y214.907 E14.67816
G1 X95.638 Y212.52 E14.76151
G1 X96.466 Y210.166 E14.84285
G1 X97.235 Y207.768 E14.92493
G1 X97.937 Y205.347 E15.0071
G1 X98.563 Y202.932 E15.08841
G1 X99.134 Y200.443 E15.17165
G1 X99.624 Y197.988 E15.25325
G1 X100.047 Y195.503 E15.33541
G1 X100.397 Y193.034 E15.41669
G1 X100.683 Y190.498 E15.49988
G1 X100.891 Y188.026 E15.58074
G1 X101.03 Y185.54 E15.6619
G1 X101.11 Y181.713 E15.78666
G1 X101.111 Y180.066 E15.84035
G1 X101.076 Y177.464 E15.92517
G1 X100.971 Y174.965 E16.00669
G1 X100.795 Y172.454 E16.08874
G1 X100.544 Y169.917 E16.17184
G1 X100.228 Y167.443 E16.25313
G1 X99.841 Y164.96 E16.33504
G1 X99.379 Y162.474 E16.41746
G1 X98.863 Y160.065 E16.49776
G1 X98.251 Y157.563 E16.58172
G1 X97.587 Y155.146 E16.66342
G1 X96.859 Y152.766 E16.74455
G1 X96.047 Y150.353 E16.82753
G1 X95.179 Y147.996 E16.9094
G1 X94.242 Y145.658 E16.9915
G1 X93.127 Y143.099 E17.08248
G1 X92.808 Y142.393 E17.10774
G1 X92.458 Y141.523 E17.1383
G1 X92.184 Y140.626 E17.16887
G1 X91.987 Y139.709 E17.19945
G1 X91.869 Y138.778 E17.23003
G1 X91.835 Y138.163 E17.25011
G1 X91.822 Y137.538 E17.27049
G1 X91.822 Y135.174 E17.34754
G1 X91.832 Y134.5 E17.36951
G1 X91.884 Y133.58 E17.39955
G1 X91.969 Y132.721 E17.42768
G1 X92.096 Y131.596 E17.46459
G1 X92.308 Y129.08 E17.54689
G1 X92.449 Y126.561 E17.62912
G1 X92.519 Y124.038 E17.71139
G1 X92.517 Y121.514 E17.79366
G1 X92.445 Y119.026 E17.87479
G1 X92.3 Y116.508 E17.957
G1 X92.076 Y113.898 E18.04238
G1 X91.896 Y112.249 E18.09645
G1 X91.835 Y111.362 E18.12543
G1 X91.822 Y110.738 E18.14578
G1 X91.822 Y108.388 E18.22237
G1 X91.831 Y107.723 E18.24405
G1 X91.884 Y106.787 E18.27461
G1 X92.016 Y105.858 E18.30519
G1 X92.227 Y104.944 E18.33577
G1 X92.515 Y104.052 E18.36632
G1 X92.878 Y103.187 E18.3969
G1 X93.313 Y102.356 E18.42747
G1 X93.817 Y101.566 E18.45802
G1 X94.387 Y100.821 E18.48859
G1 X95.019 Y100.127 E18.51919
G0 F6000 X95.41 Y100.302
G1 F1200 X96.042 Y99.731 E18.54695
G1 X97.935 Y98.153 E18.62728
G1 X99.852 Y96.464 E18.71056
G1 X101.719 Y94.724 E18.79374
G1 X103.493 Y92.972 E18.87501
G1 X105.084 Y91.303 E18.95017
G1 X105.675 Y90.696 E18.97778
G1 X106.224 Y90.156 E19.00288
G1 X106.911 Y89.543 E19.03289
G1 X107.842 Y88.863 E19.07047
G1 X108.523 Y88.427 E19.09683
G1 X108.913 Y88.192 E19.11167
G1 X109.722 Y87.751 E19.1417
G1 X110.746 Y87.315 E19.17798
G1 X111.458 Y87.06 E19.20263
G1 X111.887 Y86.918 E19.21736
G1 X112.773 Y86.667 E19.24738
G1 X113.86 Y86.468 E19.2834
G1 X115.024 Y86.318 E19.32165
G1 X117.554 Y85.964 E19.40492
G1 X120.041 Y85.545 E19.48712
G1 X122.497 Y85.061 E19.56872
G1 X124.999 Y84.493 E19.65235
G1 X127.076 Y83.966 E19.72219
G1 X127.978 Y83.778 E19.75222
G1 X128.892 Y83.67 E19.78222
G1 X129.364 Y83.645 E19.79763
G1 X130.011 Y83.63 E19.81872
G1 X133.029 Y83.63 E19.91709
G1 X133.694 Y83.64 E19.93877
G1 X134.613 Y83.694 E19.96878
G1 X135.17 Y83.766 E19.98708
G1 X135.836 Y83.87 E20.00906
G1 X137.219 Y84.107 E20.05479
G1 X139.735 Y84.466 E20.13763
G1 X142.267 Y84.754 E20.22069
G1 X144.752 Y84.966 E20.30199
G1 X147.29 Y85.111 E20.38485
G1 X149.833 Y85.184 E20.46777
G1 X152.344 Y85.184 E20.54962
G1 X154.892 Y85.113 E20.6327
G1 X157.399 Y84.972 E20.71455
G1 X159.909 Y84.759 E20.79665
G1 X162.429 Y84.474 E20.87932
G1 X164.987 Y84.11 E20.96353
G1 X166.953 Y83.783 E21.0285
G1 X167.867 Y83.671 E21.05851
G1 X168.382 Y83.644 E21.07532
G1 X168.996 Y83.63 E21.09534
G1 X172.044 Y83.63 E21.19469
G1 X172.714 Y83.641 E21.21653
G1 X173.633 Y83.697 E21.24654
G1 X174.544 Y83.831 E21.27655
G1 X175.073 Y83.947 E21.2942
G1 X175.972 Y84.169 E21.32439
G1 X176.98 Y84.431 E21.35834
G1 X179.452 Y85.001 E21.44102
G1 X181.939 Y85.501 E21.52371
G1 X184.395 Y85.922 E21.60493
G1 X187.159 Y86.315 E21.69593
G1 X188.335 Y86.464 E21.73457
G1 X189.242 Y86.619 E21.76456
G1 X190.363 Y86.927 E21.80245
G1 X190.999 Y87.143 E21.82435
G1 X191.461 Y87.311 E21.84037
G1 X192.312 Y87.663 E21.87039
G1 X193.35 Y88.218 E21.90875
G1 X194.004 Y88.621 E21.93379
G1 X194.357 Y88.85 E21.94751
G1 X195.107 Y89.384 E21.97752
G1 X195.93 Y90.097 E22.01301
G1 X196.474 Y90.627 E22.03777
G1 X196.807 Y90.968 E22.0533
G1 X197.421 Y91.654 E22.08331
G1 X198.102 Y92.584 E22.12088
G1 X198.327 Y92.929 E22.13431
G1 X198.749 Y93.612 E22.16048
G1 X199.195 Y94.417 E22.19047
G1 X199.655 Y95.485 E22.22838
G1 X199.807 Y95.899 E22.24275
G1 X200.047 Y96.605 E22.26706
G1 X200.168 Y96.994 E22.28033
G1 X200.865 Y99.394 E22.36179
G1 X201.626 Y101.781 E22.44346
G1 X202.733 Y104.921 E22.55198
G1 X203.001 Y105.802 E22.58199
G1 X203.192 Y106.703 E22.61201
G1 X203.304 Y107.616 E22.642
G1 X203.331 Y108.126 E22.65864
G1 X203.346 Y108.766 E22.67951
G1 X203.346 Y109.914 E22.71693
G1 X203.336 Y110.633 E22.74037
G1 X203.271 Y111.663 E22.77401
G1 X203.013 Y113.976 E22.84987
G1 X202.794 Y116.543 E22.93384
G1 X202.652 Y119.048 E23.01562
G1 X202.58 Y121.593 E23.09861
G1 X202.58 Y124.103 E23.18042
G1 X202.652 Y126.65 E23.26348
G1 X202.795 Y129.17 E23.34575
G1 X203.009 Y131.697 E23.42841
G1 X203.272 Y134.078 E23.50649
G1 X203.331 Y134.926 E23.5342
G1 X203.346 Y135.566 E23.55506
G1 X203.346 Y136.746 E23.59353
G1 X203.335 Y137.461 E23.61683
G1 X203.281 Y138.38 E23.64684
G1 X203.1 Y139.525 E23.68463
G1 X202.883 Y140.535 E23.7183
G1 X202.688 Y141.39 E23.74688
G1 X202.197 Y143.852 E23.82871
G1 X201.774 Y146.335 E23.91081
G1 X201.419 Y148.852 E23.99366
G1 X201.137 Y151.356 E24.0758
G1 X200.926 Y153.87 E24.15803
G1 X200.787 Y156.376 E24.23984
G1 X200.708 Y160.216 E24.36503
G1 X200.707 Y201.581 E25.71332
G1 X200.744 Y204.206 E25.79889
G1 X200.851 Y206.713 E25.88068
G1 X201.029 Y209.234 E25.96305
G1 X201.279 Y211.752 E26.04553
G1 X201.599 Y214.252 E26.12768
G1 X201.994 Y216.775 E26.21092
G1 X202.447 Y219.209 E26.29162
G1 X203.095 Y222.194 E26.39118
G1 X203.251 Y223.101 E26.42118
G1 X203.331 Y224.126 E26.45469
G1 X203.346 Y224.767 E26.47559
G1 X203.346 Y225.974 E26.51493
G1 X203.336 Y226.644 E26.53677
G1 X203.271 Y227.663 E26.57006
G1 X203.013 Y229.976 E26.64592
G1 X202.794 Y232.543 E26.72989
G1 X202.652 Y235.048 E26.81167
G1 X202.58 Y237.593 E26.89466
G1 X202.58 Y240.103 E26.97647
G1 X202.652 Y242.65 E27.05953
G1 X202.795 Y245.17 E27.1418
G1 X203.009 Y247.697 E27.22446
G1 X203.272 Y250.078 E27.30254
G1 X203.331 Y250.926 E27.33025
G1 X203.346 Y251.566 E27.35111
G1 X203.346 Y252.726 E27.38892
G1 X203.335 Y253.455 E27.41269
G1 X203.281 Y254.374 E27.44269
G1 X203.148 Y255.285 E27.4727
G1 X202.936 Y256.181 E27.50271
G1 X202.726 Y256.839 E27.52523
G1 X201.688 Y259.766 E27.62645
G1 X200.928 Y262.13 E27.70739
G1 X200.171 Y264.733 E27.79575
G1 X200.045 Y265.134 E27.80945
G1 X199.815 Y265.808 E27.83267
G1 X199.649 Y266.26 E27.84836
G1 X199.295 Y267.11 E27.87837
G1 X198.752 Y268.119 E27.91572
G1 X198.406 Y268.682 E27.93726
G1 X198.138 Y269.098 E27.95339
G1 X197.606 Y269.849 E27.98339
G1 X196.807 Y270.767 E28.02306
G1 X196.501 Y271.08 E28.03733
G1 X195.971 Y271.598 E28.06148
G1 X195.283 Y272.21 E28.0915
G1 X194.402 Y272.854 E28.12707
G1 X193.789 Y273.249 E28.15084
G1 X193.359 Y273.511 E28.16725
G1 X192.553 Y273.956 E28.19726
G1 X191.512 Y274.404 E28.2342
G1 X190.759 Y274.676 E28.26029
G1 X190.331 Y274.818 E28.27499
G1 X189.445 Y275.069 E28.30501
G1 X188.319 Y275.274 E28.34231
G1 X187.159 Y275.42 E28.38042
G1 X184.576 Y275.784 E28.46545
