;FLAVOR:Marlin
;TIME:4889
;Filament used: 2.68331m
;Layer height: 0.16
;MINX:123.422
;MINY:130.555
;MINZ:0.2
;MAXX:207.291
;MAXY:169.45
;MAXZ:25.36
;Generated with Cura_SteamEngine 5.2.2
M140 S60
M105
M190 S60
M104 S200
M105
M109 S200
M82 ;absolute extrusion mode
; Ender 3 Max Custom Start G-code
G92 E0 ; Reset Extruder
G28 ; Home all axes
G1 Z2.0 F3000 ; Move Z Axis up little to prevent scratching of Heat Bed
G1 X0.1 Y20 Z0.3 F5000.0 ; Move to start position
G1 X0.1 Y200.0 Z0.3 F1500.0 E15 ; Draw the first line
G1 X0.4 Y200.0 Z0.3 F5000.0 ; Move to side a little
G1 X0.4 Y20 Z0.3 F1500.0 E30 ; Draw the second line
G92 E0 ; Reset Extruder
G1 Z2.0 F3000 ; Move Z Axis up little to prevent scratching of Heat Bed
G1 X5 Y20 Z0.3 F5000.0 ; Move over to prevent blob squish
G92 E0
G92 E0
G1 F1500 E-6.5
;LAYER_COUNT:144
;LAYER:0
M107
G0 F6000 X131.07 Y134.299 Z0.2
;TYPE:SKIRT
G1 F1500 E0
G1 F1200 X131.687 Y133.697 E0.02867
G1 X132.386 Y133.071 E0.05988
G1 X133.136 Y132.508 E0.09107
G1 X133.931 Y132.011 E0.12226
G1 X134.766 Y131.583 E0.15346
G1 X135.634 Y131.227 E0.18467
G1 X136.529 Y130.947 E0.21586
G1 X137.445 Y130.745 E0.24706
G1 X138.374 Y130.621 E0.27823
G1 X139.136 Y130.578 E0.30361
G1 X139.877 Y130.565 E0.32826
G1 X145.672 Y130.555 E0.52101
G1 X146.512 Y130.565 E0.54895
G1 X147.448 Y130.617 E0.58013
G1 X148.363 Y130.747 E0.61086
G1 X149.21 Y130.903 E0.63951
G1 X151.759 Y131.336 E0.7255
G1 X154.234 Y131.683 E0.80863
G1 X156.755 Y131.964 E0.893
G1 X159.236 Y132.17 E0.9758
G1 X161.786 Y132.309 E1.06074
G1 X164.281 Y132.376 E1.14375
G1 X166.805 Y132.37 E1.2277
G1 X169.318 Y132.295 E1.31132
G1 X171.817 Y132.148 E1.39458
G1 X174.357 Y131.927 E1.47938
G1 X176.843 Y131.639 E1.56262
G1 X179.326 Y131.281 E1.64606
G1 X182.464 Y130.738 E1.75198
G1 X183.394 Y130.614 E1.78318
G1 X184.177 Y130.572 E1.80926
G1 X184.881 Y130.561 E1.83268
G1 X190.813 Y130.569 E2.02998
G1 X191.524 Y130.58 E2.05363
G1 X192.46 Y130.635 E2.08482
G1 X193.389 Y130.769 E2.11604
G1 X194.302 Y130.981 E2.14721
G1 X195.194 Y131.271 E2.17841
G1 X196.058 Y131.636 E2.2096
G1 X196.888 Y132.073 E2.2408
G1 X197.678 Y132.579 E2.272
G1 X198.422 Y133.15 E2.3032
G1 X198.966 Y133.638 E2.3275
G1 X199.456 Y134.111 E2.35016
G1 X203.591 Y138.256 E2.54489
G1 X204.181 Y138.863 E2.57304
G1 X204.804 Y139.564 E2.60424
G1 X205.366 Y140.315 E2.63543
G1 X205.862 Y141.111 E2.66663
G1 X206.288 Y141.946 E2.69781
G1 X206.641 Y142.815 E2.729
G1 X206.919 Y143.711 E2.76021
G1 X207.12 Y144.627 E2.7914
G1 X207.242 Y145.557 E2.82259
G1 X207.283 Y146.347 E2.8489
G1 X207.291 Y146.852 E2.8657
G1 X207.283 Y152.969 E3.06916
G1 X207.272 Y153.671 E3.09251
G1 X207.217 Y154.608 E3.12373
G1 X207.083 Y155.536 E3.15491
G1 X206.87 Y156.449 E3.18609
G1 X206.58 Y157.341 E3.21729
G1 X206.215 Y158.205 E3.24849
G1 X205.778 Y159.035 E3.27968
G1 X205.272 Y159.825 E3.31089
G1 X204.701 Y160.568 E3.34205
G1 X204.194 Y161.132 E3.36728
G1 X203.671 Y161.672 E3.39228
G1 X199.477 Y165.854 E3.58927
G1 X198.981 Y166.334 E3.61223
G1 X198.279 Y166.957 E3.64345
G1 X197.528 Y167.517 E3.6746
G1 X196.731 Y168.012 E3.70581
G1 X195.895 Y168.437 E3.737
G1 X195.026 Y168.79 E3.7682
G1 X194.13 Y169.067 E3.79939
G1 X193.214 Y169.267 E3.83058
G1 X192.284 Y169.388 E3.86177
G1 X191.526 Y169.427 E3.88701
G1 X190.81 Y169.438 E3.91083
G1 X185.054 Y169.431 E4.10228
G1 X184.163 Y169.417 E4.13191
G1 X183.227 Y169.362 E4.1631
G1 X182.32 Y169.231 E4.19358
G1 X181.854 Y169.144 E4.20935
G1 X179.368 Y168.713 E4.29326
G1 X176.862 Y168.352 E4.37747
G1 X174.341 Y168.061 E4.46188
G1 X171.83 Y167.844 E4.54571
G1 X169.349 Y167.7 E4.62836
G1 X166.819 Y167.624 E4.71255
G1 X164.295 Y167.62 E4.7965
G1 X161.78 Y167.687 E4.88018
G1 X159.281 Y167.825 E4.96342
G1 X156.775 Y168.034 E5.04706
G1 X154.257 Y168.316 E5.13133
G1 X151.737 Y168.671 E5.21598
G1 X149.57 Y169.035 E5.28906
G1 X148.323 Y169.259 E5.3312
G1 X147.393 Y169.386 E5.36242
G1 X146.571 Y169.431 E5.3898
G1 X145.828 Y169.443 E5.41452
G1 X140.097 Y169.45 E5.60513
G1 X139.246 Y169.44 E5.63344
G1 X138.309 Y169.388 E5.66465
G1 X137.381 Y169.256 E5.69582
G1 X136.467 Y169.046 E5.72702
G1 X135.574 Y168.759 E5.75821
G1 X134.709 Y168.396 E5.78941
G1 X133.878 Y167.961 E5.82061
G1 X133.087 Y167.458 E5.85179
G1 X132.342 Y166.888 E5.88299
G1 X131.782 Y166.387 E5.90798
G1 X131.221 Y165.847 E5.93388
G1 X127.068 Y161.701 E6.12906
G1 X126.57 Y161.191 E6.15277
G1 X125.944 Y160.493 E6.18395
G1 X125.379 Y159.744 E6.21516
G1 X124.881 Y158.949 E6.24636
G1 X124.452 Y158.115 E6.27755
G1 X124.096 Y157.247 E6.30875
G1 X123.815 Y156.353 E6.33992
G1 X123.611 Y155.437 E6.37114
G1 X123.486 Y154.508 E6.40231
G1 X123.442 Y153.728 E6.4283
G1 X123.429 Y152.974 E6.45338
G1 X123.422 Y147.233 E6.64433
G1 X123.432 Y146.38 E6.6727
G1 X123.484 Y145.444 E6.70388
G1 X123.616 Y144.515 E6.73509
G1 X123.826 Y143.601 E6.76628
G1 X124.113 Y142.708 E6.79748
G1 X124.476 Y141.843 E6.82868
G1 X124.91 Y141.012 E6.85986
G1 X125.414 Y140.221 E6.89105
G1 X125.984 Y139.476 E6.92225
G1 X126.5 Y138.9 E6.94797
G1 X127.011 Y138.37 E6.97246
G1 X131.07 Y134.299 E7.16367
G0 F6000 X131.463 Y134.473
G1 F1200 X131.966 Y133.983 E7.18702
G1 X132.653 Y133.37 E7.21765
G1 X133.391 Y132.819 E7.24828
G1 X134.173 Y132.334 E7.27888
G1 X134.995 Y131.918 E7.30953
G1 X135.849 Y131.575 E7.34014
G1 X136.73 Y131.308 E7.37075
G1 X137.631 Y131.118 E7.40138
G1 X138.545 Y131.008 E7.432
G1 X139.144 Y130.978 E7.45195
G1 X139.878 Y130.965 E7.47636
G1 X145.673 Y130.955 E7.66911
G1 X146.507 Y130.965 E7.69685
G1 X147.426 Y131.017 E7.72746
G1 X148.29 Y131.14 E7.75649
G1 X149.135 Y131.296 E7.78507
G1 X151.707 Y131.732 E7.87183
G1 X154.17 Y132.078 E7.95456
G1 X156.713 Y132.362 E8.03966
G1 X159.249 Y132.572 E8.1243
G1 X161.754 Y132.709 E8.20774
G1 X164.271 Y132.776 E8.29149
G1 X166.818 Y132.77 E8.3762
G1 X169.319 Y132.695 E8.45942
G1 X171.875 Y132.545 E8.54458
G1 X174.366 Y132.328 E8.62775
G1 X176.909 Y132.034 E8.71289
G1 X179.38 Y131.678 E8.79592
G1 X182.534 Y131.132 E8.90239
G1 X183.447 Y131.011 E8.93302
G1 X184.185 Y130.972 E8.9576
G1 X184.881 Y130.961 E8.98075
G1 X190.807 Y130.969 E9.17785
G1 X191.518 Y130.98 E9.2015
G1 X192.437 Y131.034 E9.23212
G1 X193.348 Y131.168 E9.26275
G1 X194.244 Y131.381 E9.29338
G1 X195.118 Y131.67 E9.324
G1 X195.963 Y132.034 E9.3546
G1 X196.774 Y132.47 E9.38522
G1 X197.544 Y132.974 E9.41583
G1 X198.268 Y133.544 E9.44648
G1 X198.689 Y133.927 E9.46541
G1 X199.172 Y134.394 E9.48775
G1 X203.413 Y138.646 E9.6875
G1 X203.894 Y139.142 E9.71048
G1 X204.505 Y139.83 E9.74108
G1 X205.055 Y140.568 E9.77169
G1 X205.538 Y141.352 E9.80232
G1 X205.952 Y142.174 E9.83293
G1 X206.293 Y143.03 E9.86358
G1 X206.558 Y143.911 E9.89418
G1 X206.745 Y144.813 E9.92482
G1 X206.854 Y145.727 E9.95543
G1 X206.883 Y146.353 E9.97628
G1 X206.892 Y147.041 E9.99916
G1 X206.883 Y152.963 E10.19613
G1 X206.872 Y153.665 E10.21948
G1 X206.817 Y154.584 E10.2501
G1 X206.683 Y155.495 E10.28073
G1 X206.471 Y156.391 E10.31135
G1 X206.182 Y157.265 E10.34197
G1 X205.817 Y158.11 E10.37258
G1 X205.381 Y158.921 E10.40321
G1 X204.876 Y159.691 E10.43383
G1 X204.307 Y160.414 E10.46443
G1 X203.906 Y160.854 E10.48423
G1 X203.388 Y161.389 E10.509
G1 X199.313 Y165.454 E10.70044
G1 X198.702 Y166.046 E10.72874
G1 X198.014 Y166.657 E10.75934
G1 X197.275 Y167.206 E10.78996
G1 X196.491 Y167.689 E10.82059
G1 X195.668 Y168.101 E10.8512
G1 X194.812 Y168.441 E10.88184
G1 X193.93 Y168.705 E10.91246
G1 X193.029 Y168.892 E10.94306
G1 X192.114 Y169 E10.97371
G1 X191.519 Y169.027 E10.99352
G1 X190.81 Y169.038 E11.0171
G1 X184.891 Y169.03 E11.21397
G1 X184.17 Y169.018 E11.23795
G1 X183.251 Y168.962 E11.26858
G1 X182.394 Y168.838 E11.29738
G1 X181.931 Y168.751 E11.31305
G1 X179.422 Y168.316 E11.39774
G1 X176.897 Y167.953 E11.48259
G1 X174.381 Y167.663 E11.56682
G1 X171.889 Y167.447 E11.65002
G1 X169.348 Y167.299 E11.73467
G1 X166.832 Y167.224 E11.81839
G1 X164.285 Y167.22 E11.90311
G1 X161.783 Y167.287 E11.98635
G1 X159.227 Y167.428 E12.0715
G1 X156.73 Y167.636 E12.15483
G1 X154.228 Y167.916 E12.23857
G1 X151.693 Y168.273 E12.32372
G1 X149.429 Y168.653 E12.40007
G1 X148.252 Y168.865 E12.43985
G1 X147.339 Y168.989 E12.47049
G1 X146.564 Y169.031 E12.49631
G1 X145.828 Y169.043 E12.52079
G1 X140.097 Y169.05 E12.71141
G1 X139.251 Y169.04 E12.73955
G1 X138.332 Y168.988 E12.77016
G1 X137.421 Y168.857 E12.80077
G1 X136.524 Y168.647 E12.83141
G1 X135.649 Y168.36 E12.86204
G1 X134.803 Y167.998 E12.89265
G1 X133.991 Y167.564 E12.92327
G1 X133.22 Y167.061 E12.95389
G1 X132.495 Y166.494 E12.9845
G1 X132.058 Y166.098 E13.00411
G1 X131.503 Y165.564 E13.02973
G1 X127.354 Y161.422 E13.22472
G1 X126.856 Y160.912 E13.24843
G1 X126.242 Y160.226 E13.27905
G1 X125.69 Y159.489 E13.30968
G1 X125.204 Y158.707 E13.3403
G1 X124.787 Y157.886 E13.37093
G1 X124.444 Y157.032 E13.40154
G1 X124.175 Y156.151 E13.43218
G1 X123.985 Y155.25 E13.4628
G1 X123.873 Y154.337 E13.4934
G1 X123.842 Y153.72 E13.51394
G1 X123.829 Y152.974 E13.53876
G1 X123.822 Y147.233 E13.72971
G1 X123.832 Y146.385 E13.75791
G1 X123.884 Y145.466 E13.78853
G1 X124.015 Y144.555 E13.81914
G1 X124.225 Y143.659 E13.84975
G1 X124.512 Y142.784 E13.88038
G1 X124.874 Y141.937 E13.91101
G1 X125.308 Y141.125 E13.94163
G1 X125.81 Y140.354 E13.97223
G1 X126.378 Y139.629 E14.00287
G1 X126.788 Y139.177 E14.02316
G1 X127.158 Y138.792 E14.04092
G1 X131.463 Y134.473 E14.24375
G0 F6000 X131.637 Y134.864
G1 F1200 X132.246 Y134.27 E14.27204
G1 X132.92 Y133.669 E14.30208
G1 X133.644 Y133.13 E14.3321
G1 X134.414 Y132.657 E14.36216
G1 X135.222 Y132.254 E14.39219
G1 X136.063 Y131.925 E14.42222
G1 X136.93 Y131.671 E14.45227
G1 X137.815 Y131.494 E14.48229
G1 X139.153 Y131.378 E14.52696
G1 X139.878 Y131.365 E14.55108
G1 X145.673 Y131.355 E14.74382
G1 X146.501 Y131.365 E14.77136
G1 X147.403 Y131.417 E14.80141
G1 X148.218 Y131.534 E14.8288
G1 X149.062 Y131.69 E14.85734
G1 X151.623 Y132.124 E14.94374
G1 X154.142 Y132.478 E15.02834
G1 X156.672 Y132.76 E15.11301
G1 X159.195 Y132.97 E15.19722
G1 X161.756 Y133.109 E15.28252
G1 X164.262 Y133.176 E15.3659
G1 X166.83 Y133.17 E15.45131
G1 X169.354 Y133.094 E15.5353
G1 X171.864 Y132.947 E15.61893
G1 X174.445 Y132.722 E15.7051
G1 X176.941 Y132.434 E15.78866
G1 X179.439 Y132.073 E15.87261
G1 X182.604 Y131.526 E15.97944
G1 X183.499 Y131.408 E16.00946
G1 X184.192 Y131.372 E16.03255
G1 X184.88 Y131.361 E16.05543
G1 X190.801 Y131.369 E16.25236
G1 X191.512 Y131.38 E16.27602
G1 X192.413 Y131.434 E16.30604
G1 X193.306 Y131.568 E16.33607
G1 X194.184 Y131.78 E16.36611
G1 X195.04 Y132.068 E16.39615
G1 X195.867 Y132.432 E16.4262
G1 X196.658 Y132.867 E16.45623
G1 X197.408 Y133.37 E16.48626
G1 X198.412 Y134.216 E16.52993
G1 X198.889 Y134.676 E16.55197
G1 X203.024 Y138.821 E16.7467
G1 X203.606 Y139.42 E16.77448
G1 X204.206 Y140.096 E16.80455
G1 X204.743 Y140.821 E16.83455
G1 X205.214 Y141.592 E16.8646
G1 X205.615 Y142.401 E16.89464
G1 X205.943 Y143.243 E16.92469
G1 X206.195 Y144.11 E16.95472
G1 X206.369 Y144.996 E16.98475
G1 X206.465 Y145.894 E17.01479
G1 X206.483 Y146.359 E17.03027
G1 X206.492 Y147.04 E17.05292
G1 X206.483 Y152.957 E17.24972
G1 X206.472 Y153.659 E17.27307
G1 X206.418 Y154.56 E17.30309
G1 X206.284 Y155.453 E17.33313
G1 X206.072 Y156.331 E17.36317
G1 X205.783 Y157.187 E17.39322
G1 X205.419 Y158.014 E17.42327
G1 X204.984 Y158.805 E17.45329
G1 X204.481 Y159.555 E17.48333
G1 X203.618 Y160.577 E17.52782
G1 X203.106 Y161.105 E17.55228
G1 X199.031 Y165.17 E17.74372
G1 X198.424 Y165.759 E17.77185
G1 X197.748 Y166.357 E17.80187
G1 X197.022 Y166.894 E17.83191
G1 X196.251 Y167.364 E17.86194
G1 X195.441 Y167.764 E17.89199
G1 X194.599 Y168.091 E17.92203
G1 X193.732 Y168.342 E17.95205
G1 X192.845 Y168.516 E17.98211
G1 X191.512 Y168.627 E18.0266
G1 X190.811 Y168.638 E18.04992
G1 X184.897 Y168.63 E18.24662
G1 X184.176 Y168.618 E18.27061
G1 X183.275 Y168.563 E18.30063
G1 X182.467 Y168.445 E18.32779
G1 X181.994 Y168.356 E18.3438
G1 X179.476 Y167.92 E18.42879
G1 X176.963 Y167.558 E18.51324
G1 X174.428 Y167.266 E18.59811
G1 X171.911 Y167.048 E18.68214
G1 X169.347 Y166.899 E18.76756
G1 X166.844 Y166.824 E18.85085
G1 X164.275 Y166.82 E18.93629
G1 X161.75 Y166.887 E19.0203
G1 X159.24 Y167.026 E19.10392
G1 X156.692 Y167.238 E19.18896
G1 X154.125 Y167.526 E19.27487
G1 X151.649 Y167.874 E19.35803
G1 X149.455 Y168.243 E19.43203
G1 X148.181 Y168.472 E19.47508
G1 X147.286 Y168.592 E19.50512
G1 X146.556 Y168.631 E19.52943
G1 X145.827 Y168.643 E19.55368
G1 X140.096 Y168.65 E19.74429
G1 X139.256 Y168.64 E19.77223
G1 X138.354 Y168.589 E19.80228
G1 X137.461 Y168.457 E19.83231
G1 X136.583 Y168.248 E19.86233
G1 X135.726 Y167.961 E19.89239
G1 X134.898 Y167.6 E19.92243
G1 X134.106 Y167.167 E19.95245
G1 X133.355 Y166.665 E19.98249
G1 X132.335 Y165.81 E20.02676
G1 X131.786 Y165.281 E20.05212
G1 X127.64 Y161.142 E20.24697
G1 X127.142 Y160.632 E20.27068
G1 X126.54 Y159.959 E20.30071
G1 X126.001 Y159.235 E20.33073
G1 X125.527 Y158.466 E20.36078
G1 X125.123 Y157.658 E20.39082
G1 X124.793 Y156.818 E20.42084
G1 X124.537 Y155.951 E20.45091
G1 X124.36 Y155.066 E20.48093
G1 X124.262 Y154.168 E20.51097
G1 X124.242 Y153.712 E20.52615
G1 X124.229 Y152.973 E20.55074
G1 X124.222 Y147.232 E20.74168
G1 X124.232 Y146.39 E20.76969
G1 X124.283 Y145.489 E20.7997
G1 X124.415 Y144.595 E20.82976
G1 X124.624 Y143.717 E20.85978
G1 X124.911 Y142.86 E20.88984
G1 X125.272 Y142.033 E20.91985
G1 X125.705 Y141.24 E20.9499
G1 X126.206 Y140.489 E20.97993
G1 X127.077 Y139.454 E21.02492
G1 X127.578 Y138.935 E21.04891
G1 X131.637 Y134.864 E21.24012
G1 F1500 E14.74012
;MESH:ring-pop-53-brittleFix.stl
G0 F6000 X138.386 Y141.6
G0 X139.141 Y142.352
G0 X137.71 Y144.866
G0 X135.586 Y147
G0 X135.594 Y153.025
G0 X139.865 Y157.286
G0 X145.965 Y157.442
;TYPE:WALL-INNER
G1 F1500 E21.24012
G1 F1200 X150.324 Y153.074 E21.44536
G1 X150.321 Y149.994 E21.54781
G1 X150.316 Y146.912 E21.65031
G1 X145.946 Y142.555 E21.85556
G1 X139.777 Y142.566 E22.06074
G1 X135.422 Y146.932 E22.26585
G1 X135.43 Y153.093 E22.47076
G1 X139.797 Y157.45 E22.67594
G1 X145.965 Y157.442 E22.88109
G0 F6000 X146.131 Y157.842
G1 F1200 X150.724 Y153.24 E23.09734
G1 X150.721 Y149.993 E23.20533
G1 X150.716 Y146.746 E23.31333
G1 X146.112 Y142.155 E23.52958
G1 X139.611 Y142.166 E23.74581
G1 X135.022 Y146.767 E23.96194
G1 X135.03 Y153.259 E24.17787
G1 X139.632 Y157.85 E24.39407
G1 X146.131 Y157.842 E24.61023
G0 F6000 X146.297 Y158.242
;TYPE:WALL-OUTER
G1 F1200 X151.124 Y153.405 E24.83751
G1 X151.121 Y149.993 E24.951
G1 X151.116 Y146.58 E25.06451
G1 X146.277 Y141.755 E25.2918
G1 X139.445 Y141.766 E25.51903
G1 X134.622 Y146.602 E25.74619
G1 X134.63 Y153.425 E25.97313
G1 X139.467 Y158.25 E26.20036
G1 X146.297 Y158.242 E26.42753
G0 F6000 X146.012 Y157.55
G0 X145.814 Y157.343
G0 X145.814 Y157.082
;TYPE:SKIN
G1 F1200 X149.963 Y152.925 E26.62288
G1 X149.956 Y147.063 E26.81785
G1 X147.88 Y144.993 E26.91535
G1 X145.797 Y142.916 E27.01319
G1 X139.928 Y142.926 E27.2084
G1 X135.783 Y147.082 E27.40362
G1 X135.79 Y152.942 E27.59853
G1 X139.947 Y157.089 E27.79382
G1 X145.814 Y157.082 E27.98896
G0 F6000 X145.814 Y157.343
G0 X140.483 Y157.35
G0 X140.483 Y156.887
G1 F1200 X135.989 Y152.394 E28.20032
G0 F6000 X135.988 Y151.827
G1 F1200 X141.048 Y156.887 E28.43833
G0 F6000 X141.612 Y156.885
G1 F1200 X135.987 Y151.261 E28.70289
G0 F6000 X135.987 Y150.695
G1 F1200 X142.177 Y156.885 E28.99405
G0 F6000 X142.742 Y156.884
G1 F1200 X135.986 Y150.128 E29.31183
G0 F6000 X135.985 Y149.562
G1 F1200 X143.307 Y156.883 E29.65621
G0 F6000 X143.872 Y156.882
G1 F1200 X135.985 Y148.995 E30.02719
G0 F6000 X135.984 Y148.429
G1 F1200 X144.437 Y156.882 E30.42479
G0 F6000 X145.002 Y156.881
G1 F1200 X135.983 Y147.863 E30.849
G0 F6000 X135.982 Y147.296
G1 F1200 X145.567 Y156.88 E31.29982
G0 F6000 X145.931 Y156.68
G1 F1200 X136.198 Y146.946 E31.75766
G0 F6000 X136.481 Y146.663
G1 F1200 X146.214 Y156.397 E32.21549
G0 F6000 X146.497 Y156.114
G1 F1200 X136.763 Y146.38 E32.67335
G0 F6000 X137.046 Y146.097
G1 F1200 X146.779 Y155.83 E33.13116
G0 F6000 X147.062 Y155.547
G1 F1200 X137.328 Y145.813 E33.58901
G0 F6000 X137.611 Y145.531
G1 F1200 X147.344 Y155.264 E34.04683
G0 F6000 X147.627 Y154.981
G1 F1200 X137.893 Y145.247 E34.50468
