;FLAVOR:Marlin
;TIME:9608
;Filament used: 6.96217m
;Layer height: 0.16
;MINX:84.628
;MINY:63.436
;MINZ:0.2
;MAXX:215.375
;MAXY:186.288
;MAXZ:19
;Generated with Cura_SteamEngine 5.2.2
M140 S60
M105
M190 S60
M104 S200
M105
M109 S200
M82 ;absolute extrusion mode
; Ender 3 Max Custom Start G-code
G92 E0 ; Reset Extruder
G28 ; Home all axes
G1 Z2.0 F3000 ; Move Z Axis up little to prevent scratching of Heat Bed
G1 X0.1 Y20 Z0.3 F5000.0 ; Move to start position
G1 X0.1 Y200.0 Z0.3 F1500.0 E15 ; Draw the first line
G1 X0.4 Y200.0 Z0.3 F5000.0 ; Move to side a little
G1 X0.4 Y20 Z0.3 F1500.0 E30 ; Draw the second line
G92 E0 ; Reset Extruder
G1 Z2.0 F3000 ; Move Z Axis up little to prevent scratching of Heat Bed
G1 X5 Y20 Z0.3 F5000.0 ; Move over to prevent blob squish
G92 E0
G92 E0
G1 F1500 E-6.9
;LAYER_COUNT:99
;LAYER:0
M107
G1 F300 Z0.4
G0 F6000 X92.357 Y82.099 Z0.4
;TYPE:SKIRT
G1 F300 Z0.2
G1 F1500 E0
G1 F1200 X93.278 Y81.122 E0.04466
G1 X93.549 Y80.847 E0.0575
G1 X94.24 Y80.177 E0.08951
G1 X95.118 Y79.373 E0.12911
G1 X95.932 Y78.671 E0.16486
G1 X96.614 Y78.113 E0.19417
G1 X97.44 Y77.469 E0.229
G1 X98.367 Y76.785 E0.26732
G1 X99.599 Y75.931 E0.31718
G1 X100.473 Y75.359 E0.35192
G1 X101.287 Y74.85 E0.38385
G1 X102.288 Y74.254 E0.4226
G1 X103.601 Y73.514 E0.47273
G1 X104.383 Y73.095 E0.50224
G1 X105.761 Y72.393 E0.55367
G1 X106.635 Y71.971 E0.58595
G1 X107.72 Y71.469 E0.62572
G1 X108.858 Y70.967 E0.66708
G1 X109.846 Y70.552 E0.70273
G1 X111.188 Y70.016 E0.75079
G1 X112.333 Y69.581 E0.79153
G1 X113.705 Y69.088 E0.84002
G1 X114.977 Y68.655 E0.88471
G1 X115.804 Y68.386 E0.91363
G1 X116.999 Y68.014 E0.95526
G1 X118.299 Y67.63 E1.00035
G1 X119.554 Y67.279 E1.04369
G1 X121.193 Y66.849 E1.10005
G1 X122.54 Y66.517 E1.14619
G1 X123.722 Y66.243 E1.18655
G1 X125.328 Y65.894 E1.24121
G1 X126.671 Y65.622 E1.28678
G1 X128.162 Y65.341 E1.33725
G1 X129.416 Y65.121 E1.37959
G1 X130.779 Y64.9 E1.42552
G1 X132.673 Y64.619 E1.4892
G1 X134.971 Y64.32 E1.56628
G1 X136.435 Y64.154 E1.61528
G1 X138.304 Y63.967 E1.67776
G1 X139.259 Y63.883 E1.70964
G1 X140.745 Y63.767 E1.75922
G1 X142.19 Y63.671 E1.80739
G1 X144.106 Y63.569 E1.8712
G1 X145.432 Y63.515 E1.91534
G1 X147.649 Y63.457 E1.9891
G1 X149.737 Y63.436 E2.05855
G1 X151.184 Y63.441 E2.10668
G1 X153.45 Y63.482 E2.18206
G1 X155.591 Y63.559 E2.25332
G1 X156.981 Y63.628 E2.29961
G1 X158.431 Y63.716 E2.34792
G1 X160.498 Y63.869 E2.41686
G1 X161.68 Y63.973 E2.45632
G1 X163.379 Y64.143 E2.51312
G1 X164.67 Y64.288 E2.55632
G1 X166.225 Y64.482 E2.60845
G1 X168.189 Y64.755 E2.6744
G1 X169.596 Y64.973 E2.72175
G1 X170.858 Y65.183 E2.7643
G1 X172.375 Y65.456 E2.81557
G1 X174.199 Y65.813 E2.87739
G1 X175.69 Y66.13 E2.92809
G1 X176.837 Y66.39 E2.9672
G1 X178.994 Y66.915 E3.04104
G1 X180.018 Y67.183 E3.07625
G1 X182.09 Y67.764 E3.14782
G1 X182.962 Y68.025 E3.17809
G1 X184.084 Y68.374 E3.21717
G1 X185.264 Y68.761 E3.25848
G1 X186.68 Y69.249 E3.30829
G1 X188.049 Y69.751 E3.35679
G1 X189.104 Y70.158 E3.3944
G1 X190.397 Y70.681 E3.44079
G1 X191.202 Y71.022 E3.46987
G1 X192.468 Y71.585 E3.51595
G1 X193.639 Y72.131 E3.55892
G1 X194.615 Y72.611 E3.5951
G1 X195.887 Y73.27 E3.64275
G1 X196.695 Y73.709 E3.67333
G1 X197.814 Y74.347 E3.71617
G1 X198.723 Y74.891 E3.75141
G1 X199.584 Y75.43 E3.78519
G1 X200.85 Y76.271 E3.83575
G1 X201.761 Y76.914 E3.87283
G1 X202.45 Y77.423 E3.90132
G1 X203.378 Y78.144 E3.94041
G1 X204.24 Y78.854 E3.97755
G1 X205.089 Y79.594 E4.01501
G1 X205.801 Y80.252 E4.04726
G1 X206.728 Y81.167 E4.09058
G1 X207.501 Y81.982 E4.12794
G1 X207.766 Y82.274 E4.14106
G1 X208.404 Y83.013 E4.17353
G1 X208.838 Y83.543 E4.19631
G1 X209.126 Y83.91 E4.21183
G1 X209.691 Y84.663 E4.24314
G1 X209.94 Y85.009 E4.25732
G1 X210.368 Y85.628 E4.28235
G1 X210.697 Y86.127 E4.30223
G1 X211 Y86.624 E4.32159
G1 X211.567 Y87.612 E4.35947
G1 X211.893 Y88.216 E4.3823
G1 X212.103 Y88.637 E4.39795
G1 X212.381 Y89.224 E4.41955
G1 X212.598 Y89.712 E4.43732
G1 X212.841 Y90.297 E4.45839
G1 X213.033 Y90.791 E4.47601
G1 X213.249 Y91.391 E4.49722
G1 X213.43 Y91.94 E4.51645
G1 X213.614 Y92.55 E4.53764
G1 X213.756 Y93.064 E4.55538
G1 X213.882 Y93.569 E4.57269
G1 X213.989 Y94.043 E4.58885
G1 X214.095 Y94.565 E4.60657
G1 X214.192 Y95.117 E4.62521
G1 X214.279 Y95.695 E4.64465
G1 X214.353 Y96.297 E4.66482
G1 X214.424 Y97.048 E4.68991
G1 X214.467 Y97.732 E4.71271
G1 X214.486 Y98.327 E4.73251
G1 X214.488 Y98.975 E4.75406
G1 X214.471 Y99.605 E4.77502
G1 X214.442 Y100.153 E4.79327
G1 X214.397 Y100.737 E4.81275
G1 X214.341 Y101.291 E4.83127
G1 X214.277 Y101.79 E4.84801
G1 X214.197 Y102.31 E4.86551
G1 X214.057 Y103.077 E4.89144
G1 X213.842 Y104.124 E4.92699
G1 X213.814 Y104.291 E4.93262
G1 X213.511 Y105.769 E4.9828
G1 X213.075 Y108.241 E5.06629
G1 X212.704 Y110.76 E5.15098
G1 X212.41 Y113.244 E5.23417
G1 X212.183 Y115.771 E5.31856
G1 X212.031 Y118.254 E5.4013
G1 X211.948 Y120.777 E5.48526
G1 X211.936 Y123.302 E5.56924
G1 X211.996 Y125.822 E5.65308
G1 X212.125 Y128.307 E5.73584
G1 X212.33 Y130.86 E5.82103
G1 X212.598 Y133.317 E5.90323
G1 X212.946 Y135.854 E5.9884
G1 X213.353 Y138.293 E6.07065
G1 X213.845 Y140.81 E6.15595
G1 X214.389 Y143.229 E6.23841
G1 X214.688 Y144.414 E6.27906
G1 X214.845 Y145.094 E6.30227
G1 X214.943 Y145.564 E6.31824
G1 X215.037 Y146.071 E6.33539
G1 X215.159 Y146.856 E6.36181
G1 X215.232 Y147.488 E6.38298
G1 X215.335 Y148.688 E6.42303
G1 X215.375 Y149.69 E6.45639
G1 X215.371 Y150.415 E6.4805
G1 X215.358 Y150.879 E6.49594
G1 X215.313 Y151.723 E6.52405
G1 X215.242 Y152.484 E6.54947
G1 X215.176 Y153.023 E6.56753
G1 X215.079 Y153.688 E6.58989
G1 X214.998 Y154.154 E6.60562
G1 X214.875 Y154.736 E6.6254
G1 X214.644 Y155.717 E6.65892
G1 X214.453 Y156.423 E6.68325
G1 X214.217 Y157.192 E6.71
G1 X213.999 Y157.83 E6.73243
G1 X213.719 Y158.576 E6.75893
G1 X213.48 Y159.164 E6.78004
G1 X213.148 Y159.914 E6.80732
G1 X212.971 Y160.293 E6.82123
G1 X212.676 Y160.886 E6.84326
G1 X212.293 Y161.601 E6.87024
G1 X211.906 Y162.279 E6.8962
G1 X211.655 Y162.698 E6.91245
G1 X211.239 Y163.357 E6.93837
G1 X210.937 Y163.809 E6.95645
G1 X210.455 Y164.495 E6.98434
G1 X210.168 Y164.885 E7.00044
G1 X209.728 Y165.456 E7.02442
G1 X209.388 Y165.876 E7.04239
G1 X208.616 Y166.782 E7.08198
G1 X207.819 Y167.662 E7.12147
G1 X207.529 Y167.967 E7.13547
G1 X206.648 Y168.849 E7.17693
G1 X205.783 Y169.662 E7.21641
G1 X204.986 Y170.369 E7.25185
G1 X204.336 Y170.917 E7.28012
G1 X203.792 Y171.357 E7.3034
G1 X202.62 Y172.257 E7.35254
G1 X201.584 Y173.003 E7.39501
G1 X200.751 Y173.574 E7.4286
G1 X199.917 Y174.118 E7.46171
G1 X199.015 Y174.679 E7.49704
G1 X197.158 Y175.765 E7.56859
G1 X195.676 Y176.566 E7.62462
G1 X194.476 Y177.176 E7.6694
G1 X192.388 Y178.162 E7.7462
G1 X190.632 Y178.927 E7.8099
G1 X188.879 Y179.635 E7.87279
G1 X187.123 Y180.295 E7.93518
G1 X185.591 Y180.834 E7.9892
G1 X184.161 Y181.305 E8.03927
G1 X182.72 Y181.753 E8.08946
G1 X181.83 Y182.016 E8.12033
G1 X180.114 Y182.497 E8.1796
G1 X178.293 Y182.97 E8.24218
G1 X176.563 Y183.384 E8.30134
G1 X175.025 Y183.726 E8.35375
G1 X173.054 Y184.128 E8.42065
G1 X171.204 Y184.472 E8.48324
G1 X169.571 Y184.748 E8.53832
G1 X168.67 Y184.891 E8.56867
G1 X167.073 Y185.124 E8.62234
G1 X165.952 Y185.274 E8.65996
G1 X164.251 Y185.482 E8.71696
G1 X162.621 Y185.657 E8.77148
G1 X161.792 Y185.738 E8.79919
G1 X159.891 Y185.901 E8.86265
G1 X158.207 Y186.022 E8.9188
G1 X156.42 Y186.126 E8.97834
G1 X154.829 Y186.197 E9.03131
G1 X153.12 Y186.25 E9.08818
G1 X152.173 Y186.27 E9.11968
G1 X150.281 Y186.288 E9.18261
G1 X148.543 Y186.279 E9.24042
G1 X146.134 Y186.23 E9.32056
G1 X144.422 Y186.167 E9.37754
G1 X143.319 Y186.114 E9.41427
G1 X141.532 Y186.007 E9.47381
G1 X139.784 Y185.878 E9.53211
G1 X138.305 Y185.748 E9.58149
G1 X136.626 Y185.581 E9.63761
G1 X135.339 Y185.435 E9.68069
G1 X133.175 Y185.159 E9.75325
G1 X131.419 Y184.905 E9.81226
G1 X129.899 Y184.662 E9.86346
G1 X128.484 Y184.418 E9.91121
G1 X126.697 Y184.082 E9.97169
G1 X124.468 Y183.618 E10.04742
G1 X122.616 Y183.194 E10.11061
G1 X120.537 Y182.672 E10.1819
G1 X119.233 Y182.32 E10.22683
G1 X117.815 Y181.914 E10.27588
G1 X116.736 Y181.589 E10.31336
G1 X115.178 Y181.091 E10.36777
G1 X113.65 Y180.571 E10.42145
G1 X112.131 Y180.021 E10.47518
G1 X110.637 Y179.445 E10.52844
G1 X108.902 Y178.73 E10.59085
G1 X107.451 Y178.091 E10.64358
G1 X106.225 Y177.518 E10.6886
G1 X104.418 Y176.615 E10.75578
G1 X103.174 Y175.949 E10.80272
G1 X101.572 Y175.033 E10.86409
G1 X100.332 Y174.277 E10.9124
G1 X99.736 Y173.897 E10.93591
G1 X98.698 Y173.202 E10.97745
G1 X97.967 Y172.689 E11.00716
G1 X97.358 Y172.244 E11.03224
G1 X96.489 Y171.583 E11.06856
G1 X95.839 Y171.063 E11.09624
G1 X95.101 Y170.446 E11.12824
G1 X94.397 Y169.829 E11.15937
G1 X93.68 Y169.169 E11.19179
G1 X92.954 Y168.463 E11.22547
G1 X92.234 Y167.723 E11.25981
G1 X91.489 Y166.907 E11.29656
G1 X90.815 Y166.119 E11.33105
G1 X90.553 Y165.798 E11.34483
G1 X90.005 Y165.098 E11.3744
G1 X89.204 Y164.001 E11.41957
G1 X88.73 Y163.308 E11.4475
G1 X88.464 Y162.892 E11.46392
G1 X88.091 Y162.279 E11.48779
G1 X87.853 Y161.867 E11.50361
G1 X87.511 Y161.246 E11.52719
G1 X87.273 Y160.789 E11.54433
G1 X86.968 Y160.168 E11.56734
G1 X86.742 Y159.68 E11.58523
G1 X86.46 Y159.027 E11.60889
G1 X86.259 Y158.528 E11.62678
G1 X86.034 Y157.928 E11.64809
G1 X85.879 Y157.484 E11.66373
G1 X85.708 Y156.961 E11.68203
G1 X85.54 Y156.407 E11.70129
G1 X85.252 Y155.299 E11.73937
G1 X85.127 Y154.746 E11.75822
G1 X85.018 Y154.198 E11.77681
G1 X84.914 Y153.584 E11.79752
G1 X84.796 Y152.745 E11.8257
G1 X84.717 Y151.995 E11.85078
G1 X84.661 Y151.209 E11.87699
G1 X84.633 Y150.503 E11.90049
G1 X84.628 Y149.775 E11.92471
G1 X84.649 Y149.017 E11.94993
G1 X84.702 Y148.164 E11.97835
G1 X84.771 Y147.446 E12.00234
G1 X84.862 Y146.737 E12.02612
G1 X84.972 Y146.051 E12.04923
G1 X85.196 Y144.925 E12.08741
G1 X85.353 Y144.242 E12.11072
G1 X85.814 Y142.357 E12.17526
G1 X86.347 Y139.875 E12.2597
G1 X86.8 Y137.434 E12.34227
G1 X87.194 Y134.918 E12.42697
G1 X87.507 Y132.462 E12.50932
G1 X87.758 Y129.925 E12.59411
G1 X87.934 Y127.414 E12.67783
G1 X88.039 Y124.917 E12.76096
G1 X88.074 Y122.385 E12.84518
G1 X88.037 Y119.87 E12.92884
G1 X87.929 Y117.349 E13.01276
G1 X87.753 Y114.869 E13.09546
G1 X87.499 Y112.328 E13.18039
G1 X87.182 Y109.862 E13.26309
G1 X86.786 Y107.342 E13.34793
G1 X86.327 Y104.877 E13.43133
G1 X86.017 Y103.41 E13.4812
G1 X85.885 Y102.733 E13.50414
G1 X85.804 Y102.26 E13.5201
G1 X85.72 Y101.7 E13.53893
G1 X85.647 Y101.102 E13.55897
G1 X85.576 Y100.35 E13.58409
G1 X85.532 Y99.643 E13.60765
G1 X85.513 Y99.005 E13.62888
G1 X85.513 Y98.348 E13.65073
G1 X85.531 Y97.748 E13.6707
G1 X85.56 Y97.214 E13.68849
G1 X85.605 Y96.643 E13.70754
G1 X85.658 Y96.126 E13.72482
G1 X85.721 Y95.628 E13.74152
G1 X85.819 Y95.002 E13.76259
G1 X85.95 Y94.296 E13.78648
G1 X86.07 Y93.729 E13.80575
G1 X86.193 Y93.218 E13.82323
G1 X86.33 Y92.704 E13.84093
G1 X86.502 Y92.116 E13.8613
G1 X86.672 Y91.586 E13.87981
G1 X86.897 Y90.94 E13.90257
G1 X87.093 Y90.419 E13.92108
G1 X87.318 Y89.865 E13.94097
G1 X87.516 Y89.408 E13.95753
G1 X87.774 Y88.847 E13.97807
G1 X87.999 Y88.387 E13.9951
G1 X88.249 Y87.904 E14.01319
G1 X88.533 Y87.389 E14.03275
G1 X88.987 Y86.616 E14.06257
G1 X89.217 Y86.242 E14.07717
G1 X89.614 Y85.624 E14.1016
G1 X89.872 Y85.241 E14.11696
G1 X90.49 Y84.374 E14.15237
G1 X90.941 Y83.781 E14.17715
G1 X91.213 Y83.438 E14.19171
G1 X91.676 Y82.877 E14.21591
G1 X92.357 Y82.099 E14.2503
G0 F6000 X92.905 Y82.094
G1 F1200 X93.568 Y81.397 E14.28229
G1 X93.829 Y81.133 E14.29464
G1 X94.511 Y80.471 E14.32625
G1 X95.38 Y79.675 E14.36545
G1 X96.186 Y78.981 E14.40082
G1 X96.868 Y78.423 E14.43013
G1 X97.908 Y77.618 E14.47387
G1 X98.835 Y76.943 E14.51201
G1 X99.819 Y76.265 E14.55176
G1 X100.685 Y75.698 E14.58619
G1 X101.719 Y75.055 E14.62668
G1 X102.491 Y74.598 E14.65652
G1 X103.592 Y73.975 E14.6986
G1 X104.768 Y73.345 E14.74297
G1 X105.748 Y72.846 E14.77955
G1 X106.648 Y72.408 E14.81284
G1 X107.882 Y71.835 E14.85809
G1 X109.013 Y71.336 E14.89921
G1 X110.174 Y70.85 E14.94107
G1 X111.33 Y70.39 E14.98245
G1 X112.475 Y69.955 E15.02319
G1 X114.003 Y69.408 E15.07717
G1 X115.101 Y69.036 E15.11573
G1 X116.059 Y68.725 E15.14923
G1 X117.117 Y68.396 E15.18608
G1 X118.547 Y67.975 E15.23566
G1 X119.655 Y67.666 E15.27392
G1 X121.45 Y67.196 E15.33563
G1 X122.49 Y66.94 E15.37125
G1 X123.812 Y66.633 E15.41639
G1 X125.407 Y66.286 E15.47068
G1 X126.745 Y66.015 E15.51609
G1 X128.231 Y65.735 E15.56638
G1 X129.615 Y65.493 E15.61312
G1 X130.691 Y65.318 E15.64937
G1 X132.921 Y64.988 E15.72435
G1 X135.017 Y64.717 E15.79464
G1 X136.332 Y64.567 E15.83867
G1 X138.22 Y64.377 E15.90178
G1 X139.29 Y64.282 E15.93751
G1 X140.772 Y64.166 E15.98695
G1 X142.212 Y64.07 E16.03495
G1 X143.988 Y63.975 E16.0941
G1 X145.449 Y63.915 E16.14274
G1 X147.831 Y63.853 E16.22199
G1 X149.597 Y63.836 E16.28073
G1 X151.183 Y63.841 E16.33348
G1 X153.436 Y63.882 E16.40843
G1 X155.572 Y63.959 E16.47952
G1 X156.957 Y64.027 E16.52564
G1 X158.257 Y64.105 E16.56896
G1 X160.463 Y64.268 E16.64253
G1 X161.774 Y64.384 E16.6863
G1 X163.463 Y64.554 E16.74276
G1 X164.621 Y64.685 E16.78152
G1 X166.17 Y64.878 E16.83344
G1 X168.128 Y65.15 E16.89919
G1 X169.409 Y65.348 E16.9423
G1 X170.923 Y65.6 E16.99335
G1 X172.139 Y65.818 E17.03444
G1 X174.116 Y66.204 E17.10144
G1 X175.456 Y66.488 E17.147
G1 X176.748 Y66.78 E17.19105
G1 X178.893 Y67.302 E17.26448
G1 X179.917 Y67.57 E17.29968
G1 X181.811 Y68.1 E17.3651
G1 X182.843 Y68.407 E17.40091
G1 X183.965 Y68.756 E17.43999
G1 X185.135 Y69.139 E17.48094
G1 X186.349 Y69.556 E17.52363
G1 X187.905 Y70.124 E17.57872
G1 X189.122 Y70.595 E17.62212
G1 X190.083 Y70.984 E17.65661
G1 X191.046 Y71.391 E17.69138
G1 X192.46 Y72.021 E17.74287
G1 X193.462 Y72.49 E17.77966
G1 X194.438 Y72.97 E17.81584
G1 X195.696 Y73.622 E17.86297
G1 X196.693 Y74.166 E17.90074
G1 X197.608 Y74.69 E17.93581
G1 X198.517 Y75.234 E17.97105
G1 X199.58 Y75.904 E18.01284
G1 X200.62 Y76.598 E18.05442
G1 X201.314 Y77.085 E18.08262
G1 X202.212 Y77.745 E18.11969
G1 X203.131 Y78.459 E18.1584
G1 X204.217 Y79.36 E18.20533
G1 X205.048 Y80.096 E18.24225
G1 X205.788 Y80.794 E18.27608
G1 X206.692 Y81.703 E18.31872
G1 X207.21 Y82.255 E18.3439
G1 X207.878 Y83.01 E18.37743
G1 X208.528 Y83.796 E18.41135
G1 X208.806 Y84.15 E18.42632
G1 X209.371 Y84.903 E18.45763
G1 X210.039 Y85.856 E18.49634
G1 X210.361 Y86.344 E18.51579
G1 X210.653 Y86.823 E18.53445
G1 X211.22 Y87.811 E18.57234
G1 X211.539 Y88.402 E18.59467
G1 X211.742 Y88.808 E18.60977
G1 X212.02 Y89.395 E18.63137
G1 X212.229 Y89.866 E18.64851
G1 X212.472 Y90.451 E18.66958
G1 X212.656 Y90.927 E18.68655
G1 X212.872 Y91.527 E18.70776
G1 X213.047 Y92.056 E18.7263
G1 X213.231 Y92.666 E18.74749
G1 X213.368 Y93.161 E18.76457
G1 X213.494 Y93.666 E18.78188
G1 X213.597 Y94.123 E18.79746
G1 X213.703 Y94.645 E18.81518
G1 X213.797 Y95.176 E18.83311
G1 X213.884 Y95.754 E18.85256
G1 X213.955 Y96.334 E18.87199
G1 X214.026 Y97.085 E18.89708
G1 X214.068 Y97.745 E18.91908
G1 X214.087 Y98.34 E18.93888
G1 X214.088 Y98.964 E18.95963
G1 X214.071 Y99.594 E18.98059
G1 X214.044 Y100.122 E18.99818
G1 X213.999 Y100.706 E19.01766
G1 X213.944 Y101.24 E19.03551
G1 X213.88 Y101.739 E19.05225
G1 X213.803 Y102.241 E19.06914
G1 X213.665 Y102.996 E19.09466
G1 X213.48 Y103.898 E19.12529
G1 X213.423 Y104.21 E19.13584
G1 X213.113 Y105.719 E19.18708
G1 X212.679 Y108.185 E19.27036
G1 X212.309 Y110.692 E19.35464
G1 X212.01 Y113.229 E19.43961
G1 X211.786 Y115.714 E19.52259
G1 X211.631 Y118.25 E19.6071
G1 X211.548 Y120.762 E19.69069
G1 X211.536 Y123.31 E19.77544
G1 X211.595 Y125.817 E19.85885
G1 X211.727 Y128.359 E19.94351
G1 X211.93 Y130.871 E20.02733
G1 X212.207 Y133.418 E20.11254
G1 X212.544 Y135.869 E20.19483
G1 X212.965 Y138.399 E20.28014
G1 X213.448 Y140.869 E20.36385
G1 X214.003 Y143.335 E20.44792
G1 X214.298 Y144.504 E20.48802
G1 X214.455 Y145.184 E20.51123
G1 X214.549 Y145.637 E20.52662
G1 X214.643 Y146.144 E20.54377
G1 X214.763 Y146.913 E20.56965
G1 X214.833 Y147.522 E20.59004
G1 X214.936 Y148.722 E20.6301
G1 X214.975 Y149.687 E20.66222
G1 X214.971 Y150.412 E20.68634
G1 X214.935 Y151.362 E20.71796
G1 X214.891 Y151.982 E20.73863
G1 X214.845 Y152.435 E20.75377
