;FLAVOR:Marlin
;TIME:1683
;Filament used: 1.09412m
;Layer height: 0.2
;MINX:213.779
;MINY:79.347
;MINZ:0.2
;MAXX:255.779
;MAXY:121.347
;MAXZ:20
;Generated with Cura_SteamEngine 5.2.2
M140 S60
M105
M190 S60
M104 S200
M105
M109 S200
M82 ;absolute extrusion mode
; Ender 3 Max Custom Start G-code
G92 E0 ; Reset Extruder
G28 ; Home all axes
G1 Z2.0 F3000 ; Move Z Axis up little to prevent scratching of Heat Bed
G1 X0.1 Y20 Z0.3 F5000.0 ; Move to start position
G1 X0.1 Y200.0 Z0.3 F1500.0 E15 ; Draw the first line
G1 X0.4 Y200.0 Z0.3 F5000.0 ; Move to side a little
G1 X0.4 Y20 Z0.3 F1500.0 E30 ; Draw the second line
G92 E0 ; Reset Extruder
G1 Z2.0 F3000 ; Move Z Axis up little to prevent scratching of Heat Bed
G1 X5 Y20 Z0.3 F5000.0 ; Move over to prevent blob squish
G92 E0
G92 E0
G1 F1500 E-6.5
;LAYER_COUNT:100
;LAYER:0
M107
G0 F6000 X214.473 Y86.536 Z0.2
;TYPE:SKIRT
G1 F1500 E0
G1 F1200 X214.836 Y85.671 E0.0312
G1 X215.271 Y84.84 E0.0624
G1 X215.775 Y84.05 E0.09356
G1 X216.345 Y83.305 E0.12476
G1 X216.977 Y82.611 E0.15598
G1 X217.665 Y81.974 E0.18717
G1 X218.405 Y81.398 E0.21836
G1 X219.191 Y80.886 E0.24956
G1 X220.018 Y80.444 E0.28075
G1 X220.88 Y80.074 E0.31195
G1 X221.77 Y79.778 E0.34314
G1 X222.682 Y79.56 E0.37433
G1 X223.609 Y79.419 E0.40552
G1 X224.48 Y79.36 E0.43455
G1 X225.109 Y79.347 E0.45548
G1 X244.23 Y79.348 E1.09144
G1 X244.928 Y79.358 E1.11466
G1 X245.864 Y79.412 E1.14585
G1 X246.792 Y79.544 E1.17702
G1 X247.706 Y79.756 E1.20823
G1 X248.598 Y80.045 E1.23942
G1 X249.463 Y80.408 E1.27062
G1 X250.293 Y80.844 E1.3018
G1 X251.084 Y81.349 E1.33301
G1 X251.828 Y81.92 E1.36421
G1 X252.521 Y82.552 E1.3954
G1 X253.158 Y83.24 E1.42659
G1 X253.733 Y83.981 E1.45778
G1 X254.244 Y84.767 E1.48896
G1 X254.686 Y85.595 E1.52018
G1 X255.055 Y86.457 E1.55137
G1 X255.35 Y87.347 E1.58255
G1 X255.568 Y88.259 E1.61374
G1 X255.708 Y89.187 E1.64495
G1 X255.766 Y90.048 E1.67366
G1 X255.779 Y90.677 E1.69458
G1 X255.778 Y109.747 E2.32885
G1 X255.769 Y110.474 E2.35303
G1 X255.718 Y111.411 E2.38425
G1 X255.586 Y112.339 E2.41542
G1 X255.377 Y113.253 E2.44661
G1 X255.09 Y114.146 E2.4778
G1 X254.728 Y115.012 E2.50902
G1 X254.294 Y115.843 E2.5402
G1 X253.79 Y116.634 E2.5714
G1 X253.221 Y117.379 E2.60258
G1 X252.59 Y118.074 E2.6338
G1 X251.903 Y118.712 E2.66498
G1 X251.164 Y119.289 E2.69617
G1 X250.378 Y119.801 E2.72737
G1 X249.552 Y120.244 E2.75854
G1 X248.69 Y120.616 E2.78977
G1 X247.801 Y120.912 E2.82093
G1 X246.889 Y121.132 E2.85213
G1 X245.962 Y121.273 E2.88332
G1 X245.078 Y121.334 E2.91279
G1 X244.449 Y121.347 E2.93372
G1 X225.344 Y121.346 E3.56915
G1 X224.646 Y121.337 E3.59237
G1 X223.71 Y121.285 E3.62355
G1 X222.781 Y121.153 E3.65476
G1 X221.867 Y120.943 E3.68595
G1 X220.974 Y120.656 E3.71715
G1 X220.109 Y120.293 E3.74835
G1 X219.278 Y119.859 E3.77953
G1 X218.487 Y119.355 E3.81073
G1 X217.742 Y118.785 E3.84193
G1 X217.048 Y118.154 E3.87312
G1 X216.411 Y117.467 E3.90428
G1 X215.834 Y116.727 E3.93549
G1 X215.322 Y115.941 E3.96669
G1 X214.879 Y115.114 E3.9979
G1 X214.508 Y114.253 E4.02908
G1 X214.212 Y113.363 E4.06028
G1 X213.993 Y112.451 E4.09147
G1 X213.852 Y111.524 E4.12266
G1 X213.792 Y110.635 E4.15229
G1 X213.779 Y110.005 E4.17325
G1 X213.78 Y90.872 E4.80962
G1 X213.789 Y90.207 E4.83174
G1 X213.842 Y89.271 E4.86292
G1 X213.974 Y88.342 E4.89413
G1 X214.185 Y87.428 E4.92533
G1 X214.473 Y86.536 E4.9565
G0 F6000 X214.871 Y86.611
G1 F1200 X215.234 Y85.765 E4.98712
G1 X215.668 Y84.953 E5.01775
G1 X216.171 Y84.182 E5.04836
G1 X216.74 Y83.458 E5.07899
G1 X217.368 Y82.786 E5.10958
G1 X218.053 Y82.17 E5.14022
G1 X218.789 Y81.617 E5.17084
G1 X219.57 Y81.129 E5.20147
G1 X220.39 Y80.711 E5.23208
G1 X221.244 Y80.366 E5.26272
G1 X222.124 Y80.096 E5.29333
G1 X223.024 Y79.904 E5.32394
G1 X223.938 Y79.79 E5.35458
G1 X224.491 Y79.76 E5.373
G1 X225.109 Y79.747 E5.39356
G1 X244.072 Y79.747 E6.02427
G1 X244.922 Y79.758 E6.05254
G1 X245.841 Y79.811 E6.08316
G1 X246.752 Y79.944 E6.11378
G1 X247.648 Y80.155 E6.1444
G1 X248.522 Y80.443 E6.175
G1 X249.369 Y80.806 E6.20565
G1 X250.18 Y81.241 E6.23626
G1 X250.95 Y81.745 E6.26687
G1 X251.674 Y82.314 E6.2975
G1 X252.346 Y82.944 E6.32813
G1 X252.961 Y83.629 E6.35875
G1 X253.514 Y84.365 E6.38937
G1 X254.001 Y85.146 E6.41999
G1 X254.418 Y85.967 E6.45061
G1 X254.763 Y86.821 E6.48125
G1 X255.032 Y87.701 E6.51185
G1 X255.224 Y88.602 E6.54249
G1 X255.337 Y89.515 E6.57309
G1 X255.366 Y90.059 E6.59121
G1 X255.379 Y90.677 E6.61177
G1 X255.378 Y109.742 E7.24587
G1 X255.369 Y110.469 E7.27006
G1 X255.318 Y111.388 E7.30067
G1 X255.187 Y112.3 E7.33131
G1 X254.977 Y113.196 E7.36192
G1 X254.691 Y114.071 E7.39254
G1 X254.33 Y114.918 E7.42316
G1 X253.896 Y115.73 E7.45379
G1 X253.394 Y116.502 E7.48441
G1 X252.826 Y117.227 E7.51505
G1 X252.198 Y117.9 E7.54566
G1 X251.514 Y118.516 E7.57628
G1 X250.779 Y119.07 E7.60689
G1 X249.999 Y119.559 E7.63751
G1 X249.179 Y119.978 E7.66814
G1 X248.326 Y120.324 E7.69875
G1 X247.446 Y120.595 E7.72938
G1 X246.546 Y120.788 E7.75999
G1 X245.632 Y120.903 E7.79063
G1 X245.067 Y120.934 E7.80945
G1 X244.449 Y120.947 E7.83001
G1 X225.349 Y120.946 E8.46528
G1 X224.651 Y120.937 E8.4885
G1 X223.732 Y120.885 E8.51911
G1 X222.821 Y120.754 E8.54973
G1 X221.925 Y120.544 E8.58033
G1 X221.05 Y120.257 E8.61096
G1 X220.203 Y119.895 E8.6416
G1 X219.391 Y119.461 E8.67222
G1 X218.62 Y118.959 E8.70282
G1 X217.895 Y118.391 E8.73345
G1 X217.222 Y117.762 E8.76409
G1 X216.607 Y117.078 E8.79469
G1 X216.053 Y116.343 E8.8253
G1 X215.565 Y115.562 E8.85593
G1 X215.146 Y114.742 E8.88656
G1 X214.8 Y113.889 E8.91717
G1 X214.53 Y113.009 E8.94779
G1 X214.337 Y112.108 E8.97844
G1 X214.223 Y111.195 E9.00904
G1 X214.192 Y110.624 E9.02806
G1 X214.179 Y110.005 E9.04865
G1 X214.18 Y90.878 E9.68482
G1 X214.189 Y90.213 E9.70694
G1 X214.241 Y89.293 E9.73759
G1 X214.373 Y88.382 E9.7682
G1 X214.584 Y87.486 E9.79882
G1 X214.871 Y86.611 E9.82945
G0 F6000 X215.27 Y86.688
G1 F1200 X215.632 Y85.861 E9.85947
G1 X216.065 Y85.069 E9.88949
G1 X216.567 Y84.318 E9.91954
G1 X217.134 Y83.614 E9.9496
G1 X217.76 Y82.964 E9.97962
G1 X218.441 Y82.371 E10.00965
G1 X219.173 Y81.841 E10.03971
G1 X219.948 Y81.378 E10.06974
G1 X220.761 Y80.985 E10.09977
G1 X221.606 Y80.665 E10.12982
G1 X222.475 Y80.422 E10.15984
G1 X223.363 Y80.256 E10.18988
G1 X224.502 Y80.16 E10.2279
G1 X225.109 Y80.147 E10.24809
G1 X244.072 Y80.147 E10.87881
G1 X244.916 Y80.158 E10.90688
G1 X245.818 Y80.211 E10.93693
G1 X246.711 Y80.343 E10.96696
G1 X247.589 Y80.554 E10.99699
G1 X248.445 Y80.842 E11.02703
G1 X249.272 Y81.204 E11.05705
G1 X250.064 Y81.639 E11.08711
G1 X250.815 Y82.141 E11.11715
G1 X251.518 Y82.708 E11.14719
G1 X252.168 Y83.335 E11.17723
G1 X252.76 Y84.017 E11.20727
G1 X253.29 Y84.748 E11.2373
G1 X253.752 Y85.524 E11.26734
G1 X254.145 Y86.337 E11.29737
G1 X254.463 Y87.182 E11.3274
G1 X254.706 Y88.052 E11.35744
G1 X254.871 Y88.94 E11.38748
G1 X254.966 Y90.07 E11.4252
G1 X254.979 Y90.677 E11.44539
G1 X254.978 Y109.737 E12.07933
G1 X254.969 Y110.464 E12.10351
G1 X254.918 Y111.366 E12.13356
G1 X254.787 Y112.26 E12.16361
G1 X254.578 Y113.138 E12.19363
G1 X254.292 Y113.995 E12.22368
G1 X253.931 Y114.823 E12.25373
G1 X253.499 Y115.615 E12.28373
G1 X252.998 Y116.367 E12.31379
G1 X252.432 Y117.071 E12.34383
G1 X251.807 Y117.722 E12.37385
G1 X251.126 Y118.316 E12.4039
G1 X250.395 Y118.847 E12.43395
G1 X249.621 Y119.311 E12.46397
G1 X248.808 Y119.705 E12.49401
G1 X247.964 Y120.025 E12.52404
G1 X247.094 Y120.27 E12.5541
G1 X246.207 Y120.436 E12.58411
G1 X245.056 Y120.534 E12.62253
G1 X244.449 Y120.547 E12.64273
G1 X225.354 Y120.546 E13.27783
G1 X224.656 Y120.537 E13.30105
G1 X223.755 Y120.486 E13.33106
G1 X222.861 Y120.354 E13.36112
G1 X221.983 Y120.145 E13.39114
G1 X221.126 Y119.858 E13.4212
G1 X220.299 Y119.497 E13.45121
G1 X219.506 Y119.064 E13.48126
G1 X218.755 Y118.563 E13.51129
G1 X218.051 Y117.997 E13.54133
G1 X217.4 Y117.371 E13.57137
G1 X216.807 Y116.69 E13.6014
G1 X216.277 Y115.959 E13.63144
G1 X215.813 Y115.184 E13.66148
G1 X215.419 Y114.371 E13.69153
G1 X215.099 Y113.527 E13.72155
G1 X214.855 Y112.657 E13.7516
G1 X214.689 Y111.769 E13.78165
G1 X214.592 Y110.614 E13.8202
G1 X214.579 Y110.005 E13.84046
G1 X214.58 Y90.883 E14.47646
G1 X214.589 Y90.218 E14.49858
G1 X214.641 Y89.316 E14.52863
G1 X214.773 Y88.423 E14.55865
G1 X214.983 Y87.545 E14.58868
G1 X215.27 Y86.688 E14.61874
G1 F1500 E8.11874
;MESH:xyzCalibration_cube.stl
G0 F6000 X224.114 Y90.761
G0 X225.379 Y109.747
;TYPE:WALL-INNER
G1 F1500 E14.61874
G1 F1200 X244.179 Y109.747 E15.24403
G1 X244.179 Y90.947 E15.86932
G1 X225.379 Y90.947 E16.49461
G1 X225.379 Y109.747 E17.1199
G0 F6000 X224.979 Y110.147
;TYPE:WALL-OUTER
G1 F1200 X244.579 Y110.147 E17.7718
G1 X244.579 Y90.547 E18.4237
G1 X224.979 Y90.547 E19.0756
G1 X224.979 Y110.147 E19.7275
G0 F6000 X225.249 Y109.877
G0 X225.479 Y109.387
G0 X225.739 Y109.387
;TYPE:SKIN
G1 F1200 X243.819 Y109.387 E20.32884
G1 X243.819 Y100.347 E20.62951
G1 X243.819 Y91.307 E20.93018
G1 X225.739 Y91.307 E21.53153
G1 X225.739 Y109.387 E22.13287
G0 F6000 X226.283 Y109.186
G1 F1200 X225.938 Y108.841 E22.1491
G0 F6000 X225.938 Y108.275
G1 F1200 X226.849 Y109.186 E22.19195
G0 F6000 X227.414 Y109.186
G1 F1200 X225.938 Y107.71 E22.26137
G0 F6000 X225.938 Y107.144
G1 F1200 X227.98 Y109.186 E22.35742
G0 F6000 X228.546 Y109.186
G1 F1200 X225.938 Y106.578 E22.4801
G0 F6000 X225.938 Y106.012
G1 F1200 X229.111 Y109.186 E22.62937
G0 F6000 X229.677 Y109.186
G1 F1200 X225.938 Y105.447 E22.80524
G0 F6000 X225.938 Y104.881
G1 F1200 X230.243 Y109.186 E23.00773
G0 F6000 X230.808 Y109.186
G1 F1200 X225.938 Y104.315 E23.23683
G0 F6000 X225.938 Y103.75
G1 F1200 X231.374 Y109.186 E23.49252
G0 F6000 X231.94 Y109.186
G1 F1200 X225.938 Y103.184 E23.77483
G0 F6000 X225.938 Y102.618
G1 F1200 X232.505 Y109.186 E24.08375
G0 F6000 X233.071 Y109.186
G1 F1200 X225.938 Y102.053 E24.41926
G0 F6000 X225.938 Y101.487
G1 F1200 X233.637 Y109.186 E24.7814
G0 F6000 X234.202 Y109.186
G1 F1200 X225.938 Y100.921 E25.17014
G0 F6000 X225.938 Y100.356
G1 F1200 X234.768 Y109.186 E25.58547
G0 F6000 X235.334 Y109.186
G1 F1200 X225.938 Y99.79 E26.02743
G0 F6000 X225.938 Y99.224
G1 F1200 X235.9 Y109.186 E26.49602
G0 F6000 X236.465 Y109.186
G1 F1200 X225.938 Y98.659 E26.99117
G0 F6000 X225.938 Y98.093
G1 F1200 X237.031 Y109.186 E27.51295
G0 F6000 X237.597 Y109.186
G1 F1200 X225.938 Y97.527 E28.06136
G0 F6000 X225.938 Y96.962
G1 F1200 X238.162 Y109.186 E28.63634
G0 F6000 X238.728 Y109.186
G1 F1200 X225.938 Y96.396 E29.23794
G0 F6000 X225.938 Y95.83
G1 F1200 X239.294 Y109.186 E29.86616
G0 F6000 X239.859 Y109.186
G1 F1200 X225.938 Y95.264 E30.52099
G0 F6000 X225.938 Y94.699
G1 F1200 X240.425 Y109.186 E31.20241
G0 F6000 X240.991 Y109.186
G1 F1200 X225.938 Y94.133 E31.91046
G0 F6000 X225.938 Y93.567
G1 F1200 X241.556 Y109.186 E32.64511
G0 F6000 X242.122 Y109.186
G1 F1200 X225.938 Y93.002 E33.40635
G0 F6000 X225.938 Y92.436
G1 F1200 X242.688 Y109.186 E34.19422
G0 F6000 X243.253 Y109.186
G1 F1200 X225.938 Y91.87 E35.00869
G0 F6000 X226.14 Y91.507
G1 F1200 X243.618 Y108.984 E35.83078
G0 F6000 X243.618 Y108.419
G1 F1200 X226.706 Y91.507 E36.62627
G0 F6000 X227.271 Y91.507
G1 F1200 X243.618 Y107.853 E37.39515
G0 F6000 X243.618 Y107.287
G1 F1200 X227.837 Y91.507 E38.13742
G0 F6000 X228.403 Y91.507
G1 F1200 X243.618 Y106.722 E38.85309
G0 F6000 X243.618 Y106.156
G1 F1200 X228.968 Y91.507 E39.54216
G0 F6000 X229.534 Y91.507
G1 F1200 X243.618 Y105.59 E40.2046
G0 F6000 X243.618 Y105.025
G1 F1200 X230.1 Y91.507 E40.84045
G0 F6000 X230.666 Y91.507
G1 F1200 X243.618 Y104.459 E41.44967
G0 F6000 X243.618 Y103.893
G1 F1200 X231.231 Y91.507 E42.03229
G0 F6000 X231.797 Y91.507
G1 F1200 X243.618 Y103.328 E42.58831
G0 F6000 X243.618 Y102.762
G1 F1200 X232.363 Y91.507 E43.11772
G0 F6000 X232.928 Y91.507
G1 F1200 X243.618 Y102.196 E43.62052
G0 F6000 X243.618 Y101.631
G1 F1200 X233.494 Y91.507 E44.09672
G0 F6000 X234.06 Y91.507
G1 F1200 X243.618 Y101.065 E44.5463
G0 F6000 X243.618 Y100.499
G1 F1200 X234.625 Y91.507 E44.96928
G0 F6000 X235.191 Y91.507
G1 F1200 X243.618 Y99.933 E45.36563
G0 F6000 X243.618 Y99.368
G1 F1200 X235.757 Y91.507 E45.73539
G0 F6000 X236.322 Y91.507
G1 F1200 X243.618 Y98.802 E46.07855
G0 F6000 X243.618 Y98.236
G1 F1200 X236.888 Y91.507 E46.39508
G0 F6000 X237.454 Y91.507
G1 F1200 X243.618 Y97.671 E46.68502
G0 F6000 X243.618 Y97.105
G1 F1200 X238.019 Y91.507 E46.94836
G0 F6000 X238.585 Y91.507
G1 F1200 X243.618 Y96.539 E47.18507
G0 F6000 X243.618 Y95.974
G1 F1200 X239.151 Y91.507 E47.39518
G0 F6000 X239.716 Y91.507
G1 F1200 X243.618 Y95.408 E47.5787
G0 F6000 X243.618 Y94.842
G1 F1200 X240.282 Y91.507 E47.73559
G0 F6000 X240.848 Y91.507
G1 F1200 X243.618 Y94.277 E47.86588
G0 F6000 X243.618 Y93.711
G1 F1200 X241.414 Y91.507 E47.96955
G0 F6000 X241.979 Y91.507
G1 F1200 X243.618 Y93.145 E48.04662
G0 F6000 X243.618 Y92.58
G1 F1200 X242.545 Y91.507 E48.09709
G0 F6000 X243.111 Y91.507
G1 F1200 X243.618 Y92.014 E48.12094
G1 F1500 E41.62094
;MESH:NONMESH
G0 F300 X243.618 Y92.014 Z0.4
G0 F6000 X244.079 Y92.014
G0 X244.007 Y109.575
G0 X225.379 Y109.747
;TIME_ELAPSED:87.913071
;LAYER:1
M106 S85
;TYPE:WALL-INNER
;MESH:xyzCalibration_cube.stl
G1 F1500 E48.12094
G1 F1350 X244.179 Y109.747 E48.74623
G1 X244.179 Y100.347 E49.05888
G1 X244.179 Y90.947 E49.37152
G1 X225.379 Y90.947 E49.99681
G1 X225.379 Y109.747 E50.6221
G0 F7500 X224.979 Y110.147
;TYPE:WALL-OUTER
G1 F1350 X244.579 Y110.147 E51.274
G1 X244.579 Y100.347 E51.59995
G1 X244.579 Y90.547 E51.9259
G1 X224.979 Y90.547 E52.5778
G1 X224.979 Y110.147 E53.2297
G0 F7500 X225.249 Y109.877
G0 X225.479 Y109.387
G0 X225.739 Y109.387
;TYPE:SKIN
G1 F1350 X243.819 Y109.387 E53.83104
G1 X243.819 Y100.347 E54.13171
G1 X243.819 Y91.307 E54.43238
G1 X225.739 Y91.307 E55.03373
G1 X225.739 Y109.387 E55.63507
G0 F7500 X225.479 Y109.387
G0 X225.479 Y91.976
G0 X225.938 Y91.976
G1 F1350 X226.408 Y91.506 E55.65718
G0 F7500 X226.974 Y91.506
G1 F1350 X225.938 Y92.542 E55.70591
G0 F7500 X225.938 Y93.108
G1 F1350 X227.539 Y91.506 E55.78124
G0 F7500 X228.105 Y91.506
G1 F1350 X225.938 Y93.673 E55.88317
G0 F7500 X225.938 Y94.239
G1 F1350 X228.671 Y91.506 E56.01172
G0 F7500 X229.236 Y91.506
G1 F1350 X225.938 Y94.805 E56.16687
G0 F7500 X225.938 Y95.371
G1 F1350 X229.802 Y91.506 E56.34864
G0 F7500 X230.368 Y91.506
G1 F1350 X225.938 Y95.936 E56.55702
G0 F7500 X225.938 Y96.502
G1 F1350 X230.934 Y91.506 E56.79201
G0 F7500 X231.499 Y91.506
G1 F1350 X225.938 Y97.068 E57.05361
G0 F7500 X225.938 Y97.633
G1 F1350 X232.065 Y91.506 E57.3418
G0 F7500 X232.631 Y91.506
G1 F1350 X225.938 Y98.199 E57.65662
G0 F7500 X225.938 Y98.765
G1 F1350 X233.196 Y91.506 E57.99804
G0 F7500 X233.762 Y91.506
G1 F1350 X225.938 Y99.33 E58.36606
G0 F7500 X225.938 Y99.896
G1 F1350 X234.328 Y91.506 E58.7607
G0 F7500 X234.893 Y91.506
G1 F1350 X225.938 Y100.462 E59.18194
G0 F7500 X225.938 Y101.027
G1 F1350 X235.459 Y91.506 E59.62978
G0 F7500 X236.025 Y91.506
G1 F1350 X225.938 Y101.593 E60.10424
G0 F7500 X225.938 Y102.159
G1 F1350 X236.59 Y91.506 E60.6053
G0 F7500 X237.156 Y91.506
G1 F1350 X225.938 Y102.724 E61.13296
G0 F7500 X225.938 Y103.29
G1 F1350 X237.722 Y91.506 E61.68724
G0 F7500 X238.287 Y91.506
G1 F1350 X225.938 Y103.856 E62.26812
G0 F7500 X225.938 Y104.421
G1 F1350 X238.853 Y91.506 E62.87561
G0 F7500 X239.419 Y91.506
G1 F1350 X225.938 Y104.987 E63.50971
G0 F7500 X225.938 Y105.553
G1 F1350 X239.984 Y91.506 E64.17042
G0 F7500 X240.55 Y91.506
G1 F1350 X225.938 Y106.119 E64.85774
G0 F7500 X225.938 Y106.684
G1 F1350 X241.116 Y91.506 E65.57167
G0 F7500 X241.682 Y91.506
G1 F1350 X225.938 Y107.25 E66.31222
G0 F7500 X225.938 Y107.816
G1 F1350 X242.247 Y91.506 E67.07937
G0 F7500 X242.813 Y91.506
G1 F1350 X225.938 Y108.381 E67.87312
G0 F7500 X225.938 Y108.947
G1 F1350 X243.379 Y91.506 E68.69349
G0 F7500 X243.618 Y91.833
G1 F1350 X226.264 Y109.187 E69.50977
G0 F7500 X226.829 Y109.187
G1 F1350 X243.618 Y92.399 E70.29945
G0 F7500 X243.618 Y92.964
G1 F1350 X227.395 Y109.187 E71.06253
G0 F7500 X227.961 Y109.187
G1 F1350 X243.618 Y93.53 E71.79898
G0 F7500 X243.618 Y94.096
G1 F1350 X228.527 Y109.187 E72.50882
G0 F7500 X229.092 Y109.187
G1 F1350 X243.618 Y94.661 E73.19208
