;FLAVOR:Marlin
;TIME:6666
;Filament used: 1.56051m
;Layer height: 0.12
;MINX:120.532
;MINY:117.525
;MINZ:0.12
;MAXX:185.409
;MAXY:176.371
;MAXZ:31.56
;Generated with Cura_SteamEngine 5.2.2
M140 S60
M105
M190 S60
M104 S200
M105
M109 S200
M82 ;absolute extrusion mode
; Ender 3 Max Custom Start G-code
G92 E0 ; Reset Extruder
G28 ; Home all axes
G1 Z2.0 F3000 ; Move Z Axis up little to prevent scratching of Heat Bed
G1 X0.1 Y20 Z0.3 F5000.0 ; Move to start position
G1 X0.1 Y200.0 Z0.3 F1500.0 E15 ; Draw the first line
G1 X0.4 Y200.0 Z0.3 F5000.0 ; Move to side a little
G1 X0.4 Y20 Z0.3 F1500.0 E30 ; Draw the second line
G92 E0 ; Reset Extruder
G1 Z2.0 F3000 ; Move Z Axis up little to prevent scratching of Heat Bed
G1 X5 Y20 Z0.3 F5000.0 ; Move over to prevent blob squish
G92 E0
G92 E0
G1 F1500 E-6.5
;LAYER_COUNT:263
;LAYER:0
M107
G0 F6000 X125.211 Y133.4 Z0.12
;TYPE:SKIRT
G1 F1500 E0
G1 F1200 X125.721 Y132.947 E0.01361
G1 X126.665 Y132.16 E0.03814
G1 X128.629 Y130.47 E0.08985
G1 X130.469 Y128.794 E0.13951
G1 X132.304 Y127.025 E0.19038
G1 X134.05 Y125.243 E0.24017
G1 X136.438 Y122.641 E0.31064
G1 X136.712 Y122.33 E0.31892
G1 X137.692 Y121.35 E0.34657
G1 X138.169 Y120.93 E0.35926
G1 X138.898 Y120.341 E0.37796
G1 X139.9 Y119.681 E0.4019
G1 X140.487 Y119.339 E0.41546
G1 X141.317 Y118.902 E0.43418
G1 X142.059 Y118.584 E0.45029
G1 X142.78 Y118.32 E0.46561
G1 X143.175 Y118.19 E0.47391
G1 X144.078 Y117.935 E0.49264
G1 X144.769 Y117.795 E0.50671
G1 X145.445 Y117.68 E0.52039
G1 X146.376 Y117.562 E0.53912
G1 X147.425 Y117.525 E0.56007
G1 X148.078 Y117.533 E0.5731
G1 X149.014 Y117.584 E0.5918
G1 X149.705 Y117.674 E0.60571
G1 X150.33 Y117.782 E0.61837
G1 X150.681 Y117.851 E0.62551
G1 X151.592 Y118.071 E0.64421
G1 X152.171 Y118.254 E0.65633
G1 X153.033 Y118.554 E0.67454
G1 X155.494 Y119.374 E0.72631
G1 X157.914 Y120.105 E0.77676
G1 X160.36 Y120.77 E0.82734
G1 X162.805 Y121.36 E0.87753
G1 X165.262 Y121.879 E0.92765
G1 X167.73 Y122.33 E0.97772
G1 X170.182 Y122.705 E1.02722
G1 X172.846 Y123.022 E1.08075
G1 X173.622 Y123.122 E1.09637
G1 X174.546 Y123.282 E1.11508
G1 X175.453 Y123.519 E1.13379
G1 X176.337 Y123.833 E1.15251
G1 X177.191 Y124.221 E1.17123
G1 X178.009 Y124.681 E1.18996
G1 X178.784 Y125.208 E1.20866
G1 X179.512 Y125.8 E1.22739
G1 X180.187 Y126.451 E1.2461
G1 X180.803 Y127.158 E1.26481
G1 X181.358 Y127.914 E1.28353
G1 X181.846 Y128.715 E1.30225
G1 X182.264 Y129.555 E1.32097
G1 X182.608 Y130.427 E1.33968
G1 X182.878 Y131.325 E1.35839
G1 X183.07 Y132.243 E1.37711
G1 X183.161 Y132.937 E1.39108
G1 X183.428 Y135.611 E1.4447
G1 X183.752 Y138.128 E1.49535
G1 X184.143 Y140.603 E1.54535
G1 X184.606 Y143.083 E1.5957
G1 X185.151 Y145.609 E1.64727
G1 X185.31 Y146.534 E1.666
G1 X185.394 Y147.595 E1.68724
G1 X185.409 Y148.258 E1.70047
G1 X185.408 Y154.314 E1.82132
G1 X185.398 Y155.016 E1.83534
G1 X185.345 Y155.952 E1.85404
G1 X185.212 Y156.88 E1.87275
G1 X185 Y157.794 E1.89148
G1 X184.712 Y158.687 E1.9102
G1 X184.348 Y159.551 E1.92891
G1 X183.912 Y160.382 E1.94764
G1 X183.407 Y161.172 E1.96635
G1 X182.837 Y161.916 E1.98505
G1 X182.205 Y162.609 E2.00377
G1 X181.516 Y163.246 E2.0225
G1 X180.571 Y163.964 E2.04618
G1 X179.488 Y164.697 E2.07228
G1 X179.004 Y165.015 E2.08383
G1 X176.979 Y166.431 E2.13315
G1 X174.916 Y167.963 E2.18443
G1 X172.962 Y169.501 E2.23405
G1 X171.013 Y171.125 E2.28468
G1 X169.179 Y172.742 E2.33347
G1 X168.312 Y173.527 E2.35681
G1 X167.59 Y174.127 E2.37554
G1 X166.82 Y174.662 E2.39426
G1 X166.007 Y175.13 E2.41298
G1 X165.158 Y175.527 E2.43168
G1 X164.277 Y175.85 E2.45041
G1 X163.373 Y176.097 E2.46911
G1 X162.45 Y176.266 E2.48783
G1 X161.516 Y176.356 E2.50656
G1 X160.579 Y176.366 E2.52526
G1 X159.867 Y176.321 E2.53949
G1 X157.482 Y176.089 E2.58731
G1 X154.966 Y175.913 E2.63765
G1 X152.48 Y175.809 E2.6873
G1 X149.956 Y175.775 E2.73767
G1 X147.434 Y175.813 E2.78801
G1 X144.911 Y175.922 E2.83841
G1 X142.377 Y176.103 E2.8891
G1 X140.146 Y176.32 E2.93384
G1 X139.21 Y176.371 E2.95254
G1 X138.272 Y176.342 E2.97127
G1 X137.341 Y176.233 E2.98998
G1 X136.422 Y176.046 E3.00869
G1 X135.522 Y175.78 E3.02742
G1 X134.648 Y175.439 E3.04614
G1 X133.807 Y175.025 E3.06485
G1 X133.004 Y174.541 E3.08356
G1 X132.245 Y173.99 E3.10228
G1 X131.536 Y173.376 E3.12099
G1 X130.775 Y172.584 E3.14291
G1 X130.137 Y171.847 E3.16236
G1 X129.492 Y171.081 E3.18235
G1 X127.824 Y169.207 E3.23241
G1 X126.092 Y167.37 E3.2828
G1 X124.625 Y165.891 E3.32437
G1 X123.84 Y165.118 E3.34636
G1 X123.2 Y164.432 E3.36508
G1 X122.622 Y163.694 E3.38379
G1 X122.108 Y162.909 E3.40251
G1 X121.663 Y162.083 E3.42123
G1 X121.29 Y161.223 E3.43994
G1 X120.992 Y160.334 E3.45865
G1 X120.77 Y159.422 E3.47738
G1 X120.627 Y158.495 E3.4961
G1 X120.565 Y157.605 E3.51391
G1 X120.551 Y156.818 E3.52961
G1 X120.568 Y155.357 E3.55877
G1 X120.566 Y152.636 E3.61307
G1 X120.542 Y151.3 E3.63974
G1 X120.532 Y143.781 E3.78979
G1 X120.542 Y142.936 E3.80665
G1 X120.594 Y141.999 E3.82538
G1 X120.726 Y141.071 E3.84408
G1 X120.937 Y140.157 E3.8628
G1 X121.224 Y139.264 E3.88152
G1 X121.587 Y138.399 E3.90024
G1 X122.022 Y137.568 E3.91896
G1 X122.54 Y136.757 E3.93817
G1 X123.116 Y135.937 E3.95816
G1 X123.963 Y134.799 E3.98647
G1 X124.557 Y134.073 E4.00519
G1 X125.211 Y133.4 E4.02392
G0 F6000 X125.51 Y133.668
G1 F1200 X125.977 Y133.255 E4.03636
G1 X126.895 Y132.49 E4.06021
G1 X128.876 Y130.785 E4.11237
G1 X130.77 Y129.061 E4.16348
G1 X132.585 Y127.31 E4.21381
G1 X134.318 Y125.542 E4.26321
G1 X136.75 Y122.891 E4.335
G1 X137.012 Y122.594 E4.34291
G1 X137.956 Y121.65 E4.36955
G1 X138.433 Y121.23 E4.38223
G1 X139.15 Y120.653 E4.4006
G1 X140.102 Y120.027 E4.42334
G1 X140.689 Y119.685 E4.43689
G1 X141.504 Y119.257 E4.45526
G1 X142.203 Y118.957 E4.47044
G1 X142.905 Y118.7 E4.48536
G1 X143.3 Y118.57 E4.49366
G1 X144.186 Y118.321 E4.51203
G1 X144.836 Y118.189 E4.52526
G1 X145.512 Y118.074 E4.53895
G1 X146.426 Y117.959 E4.55733
G1 X147.42 Y117.925 E4.57718
G1 X148.073 Y117.933 E4.59021
G1 X148.992 Y117.984 E4.60858
G1 X149.641 Y118.069 E4.62164
G1 X150.253 Y118.174 E4.63403
G1 X150.604 Y118.243 E4.64117
G1 X151.498 Y118.46 E4.65953
G1 X152.04 Y118.632 E4.67088
G1 X152.925 Y118.94 E4.68958
G1 X155.368 Y119.754 E4.74097
G1 X157.798 Y120.488 E4.79162
G1 X160.266 Y121.159 E4.84266
G1 X162.7 Y121.746 E4.89263
G1 X165.178 Y122.27 E4.94317
G1 X167.669 Y122.725 E4.99371
G1 X170.135 Y123.102 E5.04349
G1 X172.795 Y123.419 E5.09695
G1 X173.571 Y123.519 E5.11256
G1 X174.478 Y123.676 E5.13093
G1 X175.368 Y123.911 E5.1493
G1 X176.234 Y124.223 E5.16767
G1 X177.07 Y124.609 E5.18605
G1 X177.87 Y125.066 E5.20443
G1 X178.626 Y125.59 E5.22279
G1 X179.335 Y126.178 E5.24117
G1 X179.989 Y126.825 E5.25953
G1 X180.585 Y127.527 E5.27791
G1 X181.118 Y128.278 E5.29628
G1 X181.584 Y129.072 E5.31466
G1 X181.979 Y129.904 E5.33304
G1 X182.3 Y130.766 E5.35139
G1 X182.546 Y131.654 E5.36978
G1 X182.763 Y132.977 E5.39654
G1 X183.032 Y135.666 E5.45047
G1 X183.355 Y138.176 E5.50097
G1 X183.747 Y140.662 E5.55119
G1 X184.217 Y143.177 E5.60225
G1 X184.76 Y145.694 E5.65364
G1 X184.915 Y146.601 E5.672
G1 X184.994 Y147.607 E5.69214
G1 X185.009 Y148.258 E5.70513
G1 X185.008 Y154.308 E5.82586
G1 X184.998 Y155.01 E5.83988
G1 X184.945 Y155.929 E5.85825
G1 X184.812 Y156.84 E5.87662
G1 X184.601 Y157.736 E5.89499
G1 X184.313 Y158.611 E5.91337
G1 X183.95 Y159.457 E5.93174
G1 X183.515 Y160.268 E5.95011
G1 X183.011 Y161.039 E5.96849
G1 X182.443 Y161.763 E5.98685
G1 X181.813 Y162.435 E6.00524
G1 X181.128 Y163.049 E6.02359
G1 X180.347 Y163.633 E6.04305
G1 X179.397 Y164.277 E6.06596
G1 X178.801 Y164.67 E6.08021
G1 X176.694 Y166.143 E6.13151
G1 X174.716 Y167.612 E6.18068
G1 X172.704 Y169.195 E6.23177
G1 X170.738 Y170.834 E6.28285
G1 X168.93 Y172.428 E6.33095
G1 X168.043 Y173.231 E6.35482
G1 X167.334 Y173.818 E6.37319
G1 X166.577 Y174.342 E6.39157
G1 X165.778 Y174.799 E6.40993
G1 X164.941 Y175.184 E6.42832
G1 X164.075 Y175.495 E6.44668
G1 X163.185 Y175.729 E6.46505
G1 X162.277 Y175.886 E6.48344
G1 X161.36 Y175.963 E6.5018
G1 X160.439 Y175.961 E6.52018
G1 X159.906 Y175.922 E6.53084
G1 X157.549 Y175.693 E6.5781
G1 X155.01 Y175.515 E6.6289
G1 X152.467 Y175.409 E6.67969
G1 X149.956 Y175.375 E6.7298
G1 X147.41 Y175.413 E6.78062
G1 X144.903 Y175.521 E6.83069
G1 X142.346 Y175.704 E6.88185
G1 X140.107 Y175.922 E6.92674
G1 X139.188 Y175.971 E6.94511
G1 X138.268 Y175.941 E6.96348
G1 X137.354 Y175.83 E6.98185
G1 X136.453 Y175.641 E7.00022
G1 X135.572 Y175.374 E7.0186
G1 X134.717 Y175.032 E7.03697
G1 X133.895 Y174.617 E7.05535
G1 X133.113 Y174.132 E7.07371
G1 X132.375 Y173.581 E7.09209
G1 X131.688 Y172.968 E7.11047
G1 X131.077 Y172.321 E7.12822
G1 X130.443 Y171.589 E7.14755
G1 X129.813 Y170.84 E7.16708
G1 X128.112 Y168.931 E7.21811
G1 X126.384 Y167.097 E7.26839
G1 X124.851 Y165.552 E7.31183
G1 X124.121 Y164.833 E7.33227
G1 X123.493 Y164.159 E7.35066
G1 X122.927 Y163.433 E7.36903
G1 X122.426 Y162.661 E7.38739
G1 X121.994 Y161.848 E7.40577
G1 X121.634 Y161 E7.42415
G1 X121.348 Y160.125 E7.44252
G1 X121.14 Y159.228 E7.4609
G1 X121.011 Y158.317 E7.47926
G1 X120.965 Y157.594 E7.49372
G1 X120.951 Y156.822 E7.50913
G1 X120.968 Y155.356 E7.53838
G1 X120.966 Y152.628 E7.59282
G1 X120.942 Y151.299 E7.61935
G1 X120.932 Y143.78 E7.7694
G1 X120.942 Y142.941 E7.78614
G1 X120.994 Y142.022 E7.80451
G1 X121.126 Y141.111 E7.82288
G1 X121.336 Y140.214 E7.84127
G1 X121.623 Y139.34 E7.85962
G1 X121.985 Y138.493 E7.87801
G1 X122.419 Y137.681 E7.89638
G1 X122.867 Y136.987 E7.91287
G1 X123.443 Y136.167 E7.93286
G1 X124.283 Y135.039 E7.96093
G1 X124.867 Y134.327 E7.97931
G1 X125.51 Y133.668 E7.99768
G0 F6000 X125.809 Y133.936
G1 F1200 X126.233 Y133.562 E8.00896
G1 X127.2 Y132.756 E8.03408
G1 X129.141 Y131.086 E8.08518
G1 X131.016 Y129.378 E8.1358
G1 X132.847 Y127.613 E8.18655
G1 X134.63 Y125.793 E8.23739
G1 X137.06 Y123.144 E8.30913
G1 X137.312 Y122.859 E8.31672
G1 X138.22 Y121.951 E8.34235
G1 X138.697 Y121.531 E8.35503
G1 X139.401 Y120.964 E8.37307
G1 X140.303 Y120.373 E8.39459
G1 X140.89 Y120.031 E8.40815
G1 X141.69 Y119.611 E8.42618
G1 X142.347 Y119.33 E8.44044
G1 X143.03 Y119.08 E8.45495
G1 X143.425 Y118.95 E8.46325
G1 X144.295 Y118.706 E8.48128
G1 X144.903 Y118.583 E8.49366
G1 X145.579 Y118.468 E8.50735
G1 X146.476 Y118.357 E8.52539
G1 X147.415 Y118.325 E8.54413
G1 X148.068 Y118.333 E8.55717
G1 X148.97 Y118.384 E8.5752
G1 X149.577 Y118.464 E8.58741
G1 X150.175 Y118.567 E8.59952
G1 X150.526 Y118.636 E8.60666
G1 X151.404 Y118.849 E8.62469
G1 X151.908 Y119.01 E8.63525
G1 X152.747 Y119.302 E8.65298
G1 X155.263 Y120.14 E8.7059
G1 X157.682 Y120.871 E8.75633
G1 X160.14 Y121.539 E8.80716
G1 X162.662 Y122.148 E8.85894
G1 X165.089 Y122.661 E8.90844
G1 X167.608 Y123.121 E8.95954
G1 X170.059 Y123.496 E9.00902
G1 X172.744 Y123.816 E9.06298
G1 X173.52 Y123.916 E9.0786
G1 X174.409 Y124.071 E9.09661
G1 X175.282 Y124.304 E9.11464
G1 X176.13 Y124.613 E9.13265
G1 X176.948 Y124.996 E9.15067
G1 X177.729 Y125.45 E9.1687
G1 X178.466 Y125.971 E9.18671
G1 X179.155 Y126.556 E9.20475
G1 X179.789 Y127.199 E9.22277
G1 X180.364 Y127.896 E9.2408
G1 X180.874 Y128.64 E9.2588
G1 X181.317 Y129.427 E9.27683
G1 X181.689 Y130.25 E9.29485
G1 X181.986 Y131.103 E9.31287
G1 X182.207 Y131.979 E9.3309
G1 X182.365 Y133.017 E9.35186
G1 X182.632 Y135.685 E9.40537
G1 X182.962 Y138.252 E9.45701
G1 X183.354 Y140.732 E9.50712
G1 X183.825 Y143.256 E9.55836
G1 X184.369 Y145.778 E9.60985
G1 X184.521 Y146.668 E9.62786
G1 X184.594 Y147.619 E9.6469
G1 X184.609 Y148.258 E9.65965
G1 X184.608 Y154.302 E9.78027
G1 X184.598 Y155.004 E9.79428
G1 X184.545 Y155.906 E9.81231
G1 X184.413 Y156.799 E9.83032
G1 X184.202 Y157.677 E9.84834
G1 X183.914 Y158.533 E9.86637
G1 X183.552 Y159.361 E9.8844
G1 X183.118 Y160.153 E9.90242
G1 X182.615 Y160.903 E9.92045
G1 X182.049 Y161.606 E9.93846
G1 X181.422 Y162.256 E9.95648
G1 X180.74 Y162.848 E9.9745
G1 X180.122 Y163.302 E9.9898
G1 X179.172 Y163.946 E10.01271
G1 X178.565 Y164.346 E10.02722
G1 X176.488 Y165.798 E10.07779
G1 X174.436 Y167.322 E10.1288
G1 X172.463 Y168.875 E10.1789
G1 X170.501 Y170.51 E10.22987
G1 X168.64 Y172.151 E10.27939
G1 X167.775 Y172.934 E10.30267
G1 X167.079 Y173.51 E10.3207
G1 X166.335 Y174.022 E10.33872
G1 X165.549 Y174.466 E10.35674
G1 X164.726 Y174.839 E10.37477
G1 X163.874 Y175.138 E10.39279
G1 X162.999 Y175.36 E10.4108
G1 X162.107 Y175.504 E10.42883
G1 X161.206 Y175.568 E10.44686
G1 X159.944 Y175.524 E10.47206
G1 X157.576 Y175.294 E10.51954
G1 X155.021 Y175.115 E10.57065
G1 X152.488 Y175.009 E10.62124
G1 X149.955 Y174.975 E10.6718
G1 X147.422 Y175.013 E10.72235
G1 X144.855 Y175.124 E10.77363
G1 X142.322 Y175.305 E10.8243
G1 X140.069 Y175.524 E10.86948
G1 X139.167 Y175.572 E10.8875
G1 X138.264 Y175.539 E10.90554
G1 X137.368 Y175.427 E10.92356
G1 X136.485 Y175.236 E10.94158
G1 X135.623 Y174.968 E10.9596
G1 X134.788 Y174.624 E10.97762
G1 X133.986 Y174.208 E10.99565
G1 X133.225 Y173.723 E11.01366
G1 X132.509 Y173.172 E11.03169
G1 X131.845 Y172.561 E11.0497
G1 X131.379 Y172.059 E11.06336
G1 X130.749 Y171.332 E11.08256
G1 X130.102 Y170.563 E11.10262
G1 X128.419 Y168.674 E11.15311
G1 X126.658 Y166.804 E11.20437
G1 X125.188 Y165.324 E11.24599
G1 X124.401 Y164.548 E11.26805
G1 X123.787 Y163.886 E11.28607
G1 X123.233 Y163.173 E11.30409
G1 X122.745 Y162.413 E11.32211
G1 X122.325 Y161.613 E11.34014
G1 X121.978 Y160.779 E11.35817
G1 X121.707 Y159.918 E11.37618
G1 X121.512 Y159.036 E11.39421
G1 X121.396 Y158.141 E11.41222
G1 X121.364 Y157.582 E11.42339
G1 X121.351 Y156.827 E11.43846
G1 X121.368 Y155.356 E11.46782
G1 X121.366 Y152.619 E11.52244
G1 X121.342 Y151.299 E11.54879
G1 X121.332 Y143.78 E11.69884
G1 X121.342 Y142.946 E11.71548
G1 X121.394 Y142.045 E11.73349
G1 X121.525 Y141.151 E11.75152
G1 X121.735 Y140.273 E11.76954
G1 X122.022 Y139.416 E11.78757
G1 X122.383 Y138.589 E11.80558
G1 X122.816 Y137.796 E11.82361
G1 X123.194 Y137.217 E11.83741
G1 X123.77 Y136.397 E11.85741
G1 X124.603 Y135.279 E11.88523
G1 X125.176 Y134.581 E11.90325
G1 X125.809 Y133.936 E11.92129
G1 F1500 E5.42129
G0 F6000 X147.173 Y138.666
G0 X159.628 Y144.142
G0 X161.797 Y144.491
G0 X162.661 Y144.489
;TYPE:SUPPORT-INTERFACE
G1 F1500 E11.92129
G1 F1200 X163.428 Y144.489 E11.93659
G1 X163.431 Y157.251 E12.19127
G1 X162.683 Y157.251 E12.2062
G1 X162.661 Y144.489 E12.46088
G1 F1500 E5.96088
G0 F6000 X161.797 Y144.491
G0 X161.831 Y158.104
G0 X164.284 Y158.104
G0 X164.288 Y147.65
G0 X170.398 Y146.928
G0 X171.263 Y146.928
G1 F1500 E12.46088
G1 F1200 X171.264 Y134.223 E12.71442
G1 X172.025 Y134.223 E12.72961
G1 X172.026 Y146.928 E12.98315
G1 X171.263 Y146.928 E12.99838
G0 F6000 X171.824 Y144.671
G1 F1200 X171.462 Y144.309 E13.00859
G1 X171.462 Y144.189
G1 X171.824 Y143.827 E13.01881
G0 F6000 X171.824 Y141.277
G1 F1200 X171.462 Y140.915 E13.02903
G1 X171.462 Y140.795
G1 X171.824 Y140.433 E13.03924
G0 F6000 X171.824 Y137.883
G1 F1200 X171.462 Y137.521 E13.04946
G1 X171.462 Y137.401
G1 X171.824 Y137.039 E13.05968
G0 F6000 X171.824 Y134.489
G1 F1200 X171.758 Y134.423 E13.06154
G1 F1500 E6.56154
G0 F6000 X170.398 Y134.423
G0 X166.579 Y144.142
G0 X164.293 Y145.635
G0 X163.227 Y145.636
G1 F1500 E13.06154
G1 F1200 X162.862 Y146.001 E13.07184
G1 X162.862 Y145.891
G1 X163.228 Y146.257 E13.08217
G0 F6000 X163.228 Y149.029
G1 F1200 X162.868 Y149.389 E13.09233
G1 X162.867 Y149.291
G1 X163.229 Y149.652 E13.10253
G0 F6000 X163.228 Y152.423
G1 F1200 X162.874 Y152.777 E13.11252
G1 X162.874 Y152.691
G1 X163.229 Y153.047 E13.12255
G0 F6000 X163.229 Y155.817
G1 F1200 X162.88 Y156.165 E13.13239
G1 X162.879 Y156.091
G1 X163.229 Y156.441 E13.14227
G1 F1500 E6.64227
;MESH:Ear_Left_Gun_Shaft.stl(2)
G0 F6000 X164.295 Y156.44
G0 X164.284 Y158.104
G0 X161.831 Y158.104
G0 X149.521 Y135.952
G0 X148.965 Y135.022
G0 X147.362 Y134.756
;TYPE:WALL-INNER
G1 F1500 E13.14227
G1 F1200 X147.832 Y134.744 E13.15165
G1 X148.297 Y134.653 E13.16111
G1 X148.712 Y134.497 E13.16995
G1 X148.865 Y134.406 E13.17351
G1 X148.865 Y129.839 E13.26465
G1 X148.725 Y129.757 E13.26788
G1 X148.308 Y129.606 E13.27673
G1 X147.844 Y129.521 E13.28615
G1 X147.376 Y129.515 E13.29549
G1 X146.891 Y129.592 E13.30529
G1 X146.446 Y129.747 E13.31469
G1 X146.03 Y129.984 E13.32425
