;FLAVOR:Marlin
;TIME:1151
;Filament used: 0.307502m
;Layer height: 0.12
;MINX:133.244
;MINY:128.071
;MINZ:0.12
;MAXX:161.624
;MAXY:171.929
;MAXZ:11.64
;Generated with Cura_SteamEngine 5.2.2
M140 S60
M105
M190 S60
M104 S200
M105
M109 S200
M82 ;absolute extrusion mode
; Ender 3 Max Custom Start G-code
G92 E0 ; Reset Extruder
G28 ; Home all axes
G1 Z2.0 F3000 ; Move Z Axis up little to prevent scratching of Heat Bed
G1 X0.1 Y20 Z0.3 F5000.0 ; Move to start position
G1 X0.1 Y200.0 Z0.3 F1500.0 E15 ; Draw the first line
G1 X0.4 Y200.0 Z0.3 F5000.0 ; Move to side a little
G1 X0.4 Y20 Z0.3 F1500.0 E30 ; Draw the second line
G92 E0 ; Reset Extruder
G1 Z2.0 F3000 ; Move Z Axis up little to prevent scratching of Heat Bed
G1 X5 Y20 Z0.3 F5000.0 ; Move over to prevent blob squish
G92 E0
G92 E0
G1 F1500 E-6.5
;LAYER_COUNT:97
;LAYER:0
M107
G0 F6000 X139.612 Y131.548 Z0.12
;TYPE:SKIRT
G1 F1500 E0
G1 F1200 X140.283 Y130.893 E0.01871
G1 X141.008 Y130.298 E0.03743
G1 X141.781 Y129.766 E0.05616
G1 X142.596 Y129.303 E0.07486
G1 X143.448 Y128.91 E0.09359
G1 X144.33 Y128.592 E0.1123
G1 X145.236 Y128.35 E0.13101
G1 X146.16 Y128.186 E0.14974
G1 X147.422 Y128.09 E0.17499
G1 X148.568 Y128.071 E0.19787
G1 X150.11 Y128.073 E0.22864
G1 X150.774 Y128.082 E0.24189
G1 X151.71 Y128.135 E0.2606
G1 X152.639 Y128.267 E0.27933
G1 X153.553 Y128.478 E0.29805
G1 X154.445 Y128.766 E0.31675
G1 X155.31 Y129.129 E0.33547
G1 X156.141 Y129.564 E0.35419
G1 X156.932 Y130.068 E0.37291
G1 X157.676 Y130.638 E0.39161
G1 X158.37 Y131.27 E0.41034
G1 X159.007 Y131.958 E0.42905
G1 X159.583 Y132.698 E0.44777
G1 X160.095 Y133.484 E0.46649
G1 X160.537 Y134.311 E0.4852
G1 X160.907 Y135.173 E0.50392
G1 X161.203 Y136.063 E0.52264
G1 X161.421 Y136.975 E0.54135
G1 X161.562 Y137.902 E0.56006
G1 X161.622 Y138.838 E0.57878
G1 X161.573 Y140.146 E0.6049
G1 X161.345 Y142.485 E0.6518
G1 X161.167 Y145.025 E0.70261
G1 X161.062 Y147.523 E0.75251
G1 X161.028 Y150.039 E0.80272
G1 X161.066 Y152.569 E0.85321
G1 X161.173 Y155.078 E0.90333
G1 X161.355 Y157.611 E0.95401
G1 X161.573 Y159.852 E0.99894
G1 X161.624 Y160.789 E1.01767
G1 X161.595 Y161.726 E1.03638
G1 X161.487 Y162.658 E1.0551
G1 X161.299 Y163.576 E1.0738
G1 X161.034 Y164.476 E1.09252
G1 X160.693 Y165.35 E1.11124
G1 X160.279 Y166.191 E1.12995
G1 X159.795 Y166.995 E1.14868
G1 X159.244 Y167.754 E1.1674
G1 X158.631 Y168.463 E1.1861
G1 X157.959 Y169.118 E1.20483
G1 X157.234 Y169.712 E1.22353
G1 X156.461 Y170.243 E1.24225
G1 X155.645 Y170.707 E1.26098
G1 X154.793 Y171.099 E1.27969
G1 X153.911 Y171.417 E1.2984
G1 X153.005 Y171.659 E1.31712
G1 X152.081 Y171.822 E1.33584
G1 X150.845 Y171.917 E1.36058
G1 X150.125 Y171.929 E1.37495
G1 X148.17 Y171.928 E1.41397
G1 X147.477 Y171.918 E1.4278
G1 X146.541 Y171.864 E1.44651
G1 X145.613 Y171.731 E1.46522
G1 X144.699 Y171.52 E1.48393
G1 X143.807 Y171.231 E1.50265
G1 X142.942 Y170.867 E1.52137
G1 X142.112 Y170.431 E1.54008
G1 X141.322 Y169.926 E1.5588
G1 X140.577 Y169.355 E1.57753
G1 X139.884 Y168.723 E1.59624
G1 X139.248 Y168.035 E1.61494
G1 X138.502 Y167.048 E1.63963
G1 X137.988 Y166.282 E1.65804
G1 X137.748 Y165.908 E1.66691
G1 X137.298 Y165.175 E1.68407
G1 X136.933 Y164.535 E1.69878
G1 X136.808 Y164.297 E1.70414
G1 X136.517 Y163.699 E1.71741
G1 X136.093 Y162.755 E1.73806
G1 X135.44 Y161.242 E1.77095
G1 X135.099 Y160.424 E1.78864
G1 X134.776 Y159.543 E1.80736
G1 X134.586 Y158.88 E1.82112
G1 X133.994 Y156.527 E1.86954
G1 X133.793 Y155.675 E1.88701
G1 X133.617 Y154.754 E1.90573
G1 X133.554 Y154.236 E1.91614
G1 X133.474 Y153.412 E1.93266
G1 X133.328 Y151.621 E1.96852
G1 X133.268 Y150.745 E1.98604
G1 X133.244 Y149.807 E2.00477
G1 X133.264 Y149.308 E2.01473
G1 X133.312 Y148.569 E2.02951
G1 X133.473 Y146.606 E2.06882
G1 X133.553 Y145.772 E2.08554
G1 X133.683 Y144.843 E2.10426
G1 X133.784 Y144.358 E2.11414
G1 X133.952 Y143.637 E2.12892
G1 X134.428 Y141.732 E2.1681
G1 X134.648 Y140.907 E2.18514
G1 X135.082 Y139.615 E2.21234
G1 X135.352 Y138.959 E2.2265
G1 X136.17 Y137.07 E2.26758
G1 X136.485 Y136.368 E2.28293
G1 X136.752 Y135.817 E2.29515
G1 X137.117 Y135.133 E2.31062
G1 X137.562 Y134.381 E2.32806
G1 X137.98 Y133.726 E2.34357
G1 X138.448 Y133.017 E2.36052
G1 X138.999 Y132.257 E2.37925
G1 X139.612 Y131.548 E2.39796
G0 F6000 X139.926 Y131.797
G1 F1200 X140.588 Y131.157 E2.41633
G1 X141.303 Y130.577 E2.43471
G1 X142.065 Y130.061 E2.45307
G1 X142.869 Y129.613 E2.47144
G1 X143.709 Y129.236 E2.48981
G1 X144.579 Y128.934 E2.50819
G1 X145.472 Y128.708 E2.52657
G1 X146.38 Y128.561 E2.54493
G1 X147.429 Y128.49 E2.56591
G1 X148.568 Y128.471 E2.58864
G1 X150.105 Y128.473 E2.61932
G1 X150.769 Y128.482 E2.63257
G1 X151.688 Y128.534 E2.65094
G1 X152.599 Y128.666 E2.66931
G1 X153.495 Y128.877 E2.68768
G1 X154.37 Y129.165 E2.70606
G1 X155.216 Y129.527 E2.72442
G1 X156.028 Y129.961 E2.7428
G1 X156.799 Y130.465 E2.76118
G1 X157.523 Y131.033 E2.77954
G1 X158.196 Y131.662 E2.79793
G1 X158.811 Y132.347 E2.8163
G1 X159.364 Y133.082 E2.83465
G1 X159.852 Y133.863 E2.85303
G1 X160.27 Y134.684 E2.87142
G1 X160.615 Y135.537 E2.88978
G1 X160.885 Y136.417 E2.90815
G1 X161.077 Y137.318 E2.92653
G1 X161.191 Y138.231 E2.94489
G1 X161.225 Y139.151 E2.96326
G1 X161.175 Y140.108 E2.98239
G1 X160.946 Y142.458 E3.02951
G1 X160.769 Y144.98 E3.07996
G1 X160.662 Y147.535 E3.13099
G1 X160.628 Y150.039 E3.18097
G1 X160.666 Y152.592 E3.23192
G1 X160.773 Y155.09 E3.28182
G1 X160.956 Y157.639 E3.33282
G1 X161.175 Y159.891 E3.37797
G1 X161.224 Y160.81 E3.39634
G1 X161.194 Y161.73 E3.4147
G1 X161.084 Y162.644 E3.43308
G1 X160.894 Y163.545 E3.45145
G1 X160.628 Y164.427 E3.46984
G1 X160.286 Y165.281 E3.48819
G1 X159.871 Y166.103 E3.50657
G1 X159.386 Y166.886 E3.52495
G1 X158.835 Y167.624 E3.54333
G1 X158.223 Y168.311 E3.56169
G1 X157.552 Y168.942 E3.58007
G1 X156.83 Y169.513 E3.59844
G1 X156.061 Y170.019 E3.61681
G1 X155.251 Y170.456 E3.63518
G1 X154.406 Y170.822 E3.65356
G1 X153.532 Y171.112 E3.67193
G1 X152.637 Y171.326 E3.6903
G1 X151.726 Y171.462 E3.70868
G1 X150.837 Y171.517 E3.72645
G1 X150.125 Y171.529 E3.74066
G1 X148.176 Y171.528 E3.77956
G1 X147.483 Y171.518 E3.79339
G1 X146.564 Y171.465 E3.81176
G1 X145.653 Y171.332 E3.83013
G1 X144.757 Y171.12 E3.84851
G1 X143.883 Y170.832 E3.86687
G1 X143.036 Y170.469 E3.88526
G1 X142.225 Y170.034 E3.90363
G1 X141.455 Y169.53 E3.92199
G1 X140.731 Y168.961 E3.94037
G1 X140.059 Y168.332 E3.95874
G1 X139.444 Y167.646 E3.97712
G1 X138.834 Y166.825 E3.99753
G1 X138.32 Y166.059 E4.01594
G1 X138.089 Y165.699 E4.02448
G1 X137.639 Y164.966 E4.04164
G1 X137.288 Y164.349 E4.05581
G1 X137.163 Y164.111 E4.06117
G1 X136.882 Y163.535 E4.07396
G1 X136.528 Y162.749 E4.09117
G1 X135.754 Y160.957 E4.13012
G1 X135.468 Y160.27 E4.14497
G1 X135.152 Y159.405 E4.16335
G1 X134.974 Y158.782 E4.17628
G1 X134.382 Y156.429 E4.2247
G1 X134.182 Y155.583 E4.24205
G1 X134.011 Y154.679 E4.26041
G1 X133.952 Y154.196 E4.27012
G1 X133.873 Y153.379 E4.2865
G1 X133.727 Y151.588 E4.32236
G1 X133.667 Y150.717 E4.33978
G1 X133.644 Y149.797 E4.35815
G1 X133.663 Y149.333 E4.36741
G1 X133.71 Y148.602 E4.38203
G1 X133.871 Y146.639 E4.42134
G1 X133.951 Y145.811 E4.43794
G1 X134.079 Y144.899 E4.45632
G1 X134.173 Y144.448 E4.46551
G1 X134.34 Y143.734 E4.48014
G1 X134.816 Y141.829 E4.51933
G1 X135.034 Y141.011 E4.53622
G1 X135.452 Y139.766 E4.56243
G1 X135.626 Y139.338 E4.57165
G1 X136.599 Y137.088 E4.62057
G1 X136.849 Y136.533 E4.63272
G1 X137.107 Y136.001 E4.64452
G1 X137.464 Y135.332 E4.65965
G1 X137.899 Y134.597 E4.67669
G1 X138.317 Y133.942 E4.6922
G1 X138.782 Y133.238 E4.70904
G1 X139.323 Y132.493 E4.72741
G1 X139.926 Y131.797 E4.74579
G0 F6000 X140.24 Y132.048
G1 F1200 X140.892 Y131.422 E4.76382
G1 X141.597 Y130.857 E4.78185
G1 X142.348 Y130.357 E4.79986
G1 X143.141 Y129.924 E4.81789
G1 X143.969 Y129.564 E4.83591
G1 X144.826 Y129.278 E4.85394
G1 X145.705 Y129.07 E4.87196
G1 X146.598 Y128.939 E4.88997
G1 X147.436 Y128.89 E4.90673
G1 X148.567 Y128.871 E4.9293
G1 X150.099 Y128.873 E4.95987
G1 X150.763 Y128.882 E4.97312
G1 X151.665 Y128.934 E4.99115
G1 X152.558 Y129.066 E5.00917
G1 X153.437 Y129.276 E5.0272
G1 X154.293 Y129.563 E5.04522
G1 X155.12 Y129.925 E5.06324
G1 X155.913 Y130.359 E5.08128
G1 X156.663 Y130.86 E5.09928
G1 X157.367 Y131.427 E5.11731
G1 X158.017 Y132.053 E5.13532
G1 X158.61 Y132.735 E5.15336
G1 X159.14 Y133.466 E5.17138
G1 X159.603 Y134.241 E5.18939
G1 X159.996 Y135.054 E5.20741
G1 X160.316 Y135.899 E5.22545
G1 X160.559 Y136.768 E5.24345
G1 X160.725 Y137.656 E5.26148
G1 X160.811 Y138.555 E5.2795
G1 X160.818 Y139.458 E5.29752
G1 X160.777 Y140.069 E5.30974
G1 X160.548 Y142.427 E5.35702
G1 X160.369 Y144.971 E5.40792
G1 X160.262 Y147.513 E5.45869
G1 X160.228 Y150.04 E5.50912
G1 X160.266 Y152.581 E5.55984
G1 X160.375 Y155.133 E5.61081
G1 X160.557 Y157.67 E5.66157
G1 X160.777 Y159.93 E5.70688
G1 X160.825 Y160.832 E5.72491
G1 X160.792 Y161.734 E5.74292
G1 X160.68 Y162.63 E5.76094
G1 X160.49 Y163.513 E5.77897
G1 X160.222 Y164.375 E5.79698
G1 X159.878 Y165.211 E5.81502
G1 X159.462 Y166.012 E5.83303
G1 X158.977 Y166.774 E5.85106
G1 X158.427 Y167.49 E5.86908
G1 X157.815 Y168.154 E5.8871
G1 X157.147 Y168.762 E5.90512
G1 X156.427 Y169.308 E5.92316
G1 X155.663 Y169.788 E5.94116
G1 X154.858 Y170.199 E5.9592
G1 X154.021 Y170.537 E5.97721
G1 X153.157 Y170.8 E5.99524
G1 X152.273 Y170.985 E6.01326
G1 X151.376 Y171.091 E6.03128
G1 X150.829 Y171.117 E6.04221
G1 X150.125 Y171.129 E6.05626
G1 X148.182 Y171.128 E6.09504
G1 X147.489 Y171.118 E6.10887
G1 X146.587 Y171.065 E6.1269
G1 X145.694 Y170.932 E6.14492
G1 X144.816 Y170.721 E6.16294
G1 X143.96 Y170.434 E6.18096
G1 X143.133 Y170.071 E6.19898
G1 X142.341 Y169.637 E6.217
G1 X141.59 Y169.134 E6.23504
G1 X140.887 Y168.567 E6.25306
G1 X140.237 Y167.94 E6.27109
G1 X139.645 Y167.258 E6.28911
G1 X139.166 Y166.602 E6.30532
G1 X138.652 Y165.836 E6.32373
G1 X138.429 Y165.49 E6.33194
G1 X137.979 Y164.757 E6.34911
G1 X137.642 Y164.163 E6.36273
G1 X137.517 Y163.925 E6.3681
G1 X137.247 Y163.371 E6.3804
G1 X136.828 Y162.438 E6.40081
G1 X136.123 Y160.803 E6.43634
G1 X135.837 Y160.116 E6.45119
G1 X135.528 Y159.268 E6.4692
G1 X135.362 Y158.685 E6.4813
G1 X134.77 Y156.332 E6.52972
G1 X134.572 Y155.492 E6.54694
G1 X134.35 Y154.157 E6.57395
G1 X134.272 Y153.347 E6.59019
G1 X134.116 Y151.422 E6.62873
G1 X134.066 Y150.69 E6.64337
G1 X134.062 Y149.358 E6.66995
G1 X134.109 Y148.634 E6.68443
G1 X134.27 Y146.671 E6.72374
G1 X134.349 Y145.85 E6.7402
G1 X134.563 Y144.538 E6.76672
G1 X134.728 Y143.831 E6.78121
G1 X135.248 Y141.756 E6.8239
G1 X135.42 Y141.115 E6.83715
G1 X135.823 Y139.917 E6.86237
G1 X136.086 Y139.277 E6.87618
G1 X136.964 Y137.252 E6.92022
G1 X137.214 Y136.697 E6.93237
G1 X137.462 Y136.185 E6.94373
G1 X137.811 Y135.531 E6.95852
G1 X137.984 Y135.229 E6.96546
G1 X138.237 Y134.812 E6.9752
G1 X138.747 Y134.014 E6.9941
G1 X139.115 Y133.458 E7.0074
G1 X139.647 Y132.728 E7.02543
G1 X140.24 Y132.048 E7.04343
G1 F1500 E0.54343
;MESH:Kneepad.stl
G0 F6000 X143.854 Y146.643
G0 X144.906 Y146.905
G0 X148.191 Y159.893
;TYPE:WALL-INNER
G1 F1500 E7.04343
G1 F1014.8 X148.734 Y159.892 E7.05625
G1 F977.6 X148.588 Y159.666 E7.06284
G1 F909.1 X148.158 Y158.776 E7.08888
G1 F864.9 X148.003 Y158.439 E7.09915
G1 F824.7 X147.202 Y156.587 E7.15774
G1 F775.4 X146.937 Y155.685 E7.18677
G1 F739.6 X146.35 Y153.342 E7.26498
G1 F717.5 X146.295 Y152.89 E7.28017
G1 F704.8 X146.061 Y150.002 E7.37862
G1 X146.294 Y147.109 E7.47722
G1 F717.5 X146.35 Y146.656 E7.49246
G1 F739.6 X146.936 Y144.315 E7.5706
G1 F775.4 X147.202 Y143.412 E7.59967
G1 F826.2 X148.005 Y141.556 E7.65829
G1 F888.9 X148.584 Y140.338 E7.69462
G1 F967.7 X148.732 Y140.109 E7.70137
G1 F1010.5 X148.188 Y140.109 E7.71426
G1 F939.3 X147.666 Y140.987 E7.7403
G1 F866.4 X147.489 Y141.334 E7.75106
G1 F854.1 X146.722 Y143.11 E7.80531
G1 F800 X146.322 Y144.136 E7.83827
G1 F751.2 X145.753 Y146.41 E7.913
G1 F728.4 X145.619 Y147.027 E7.93376
G1 F704.8 X145.377 Y150.002 E8.03517
G1 X145.62 Y152.972 E8.13641
G1 F728.4 X145.753 Y153.59 E8.1572
G1 F751.2 X146.323 Y155.864 E8.23193
G1 F800 X146.722 Y156.89 E8.26489
G1 F852.6 X147.492 Y158.674 E8.31946
G1 F864.9 X147.666 Y159.014 E8.33004
G1 F941.2 X148.191 Y159.893 E8.35609
G0 F6000 X147.952 Y160.329
G1 F1200 X149.535 Y160.328 E8.38768
G1 X148.958 Y159.434 E8.40891
G1 X147.658 Y156.429 E8.47425
G1 X146.865 Y153.261 E8.53942
G1 X146.599 Y150.002 E8.60468
G1 X146.865 Y146.739 E8.67001
G1 X147.658 Y143.571 E8.73518
G1 X148.954 Y140.572 E8.80038
G1 X149.534 Y139.672 E8.82175
G1 X147.95 Y139.672 E8.85336
G1 X147.263 Y140.737 E8.87865
G1 X147.06 Y141.112 E8.88716
G1 X145.828 Y143.969 E8.94925
G1 X145.085 Y146.939 E9.01034
G1 X144.834 Y150.002 E9.07167
G1 X145.086 Y153.06 E9.13291
G1 X145.829 Y156.031 E9.19402
G1 X147.058 Y158.884 E9.25601
G1 X147.264 Y159.264 E9.26464
G1 X147.952 Y160.329 E9.28994
G0 F6000 X147.732 Y160.729
;TYPE:WALL-OUTER
G1 F1200 X150.269 Y160.728 E9.34057
G1 X149.321 Y159.259 E9.37546
G1 X148.035 Y156.287 E9.44009
G1 X147.265 Y153.212 E9.50334
G1 X147.002 Y149.985 E9.56796
G1 X147.265 Y146.788 E9.63197
G1 X148.035 Y143.713 E9.69523
G1 X149.321 Y140.741 E9.75986
G1 X150.268 Y139.272 E9.79473
G1 X147.732 Y139.272 E9.84534
G1 X146.919 Y140.533 E9.87528
G1 X146.7 Y140.937 E9.88445
G1 X145.448 Y143.84 E9.94755
G1 X144.689 Y146.874 E10.00996
G1 X144.433 Y150.002 E10.07259
G1 X144.69 Y153.126 E10.13514
G1 X145.449 Y156.16 E10.19756
G1 X146.698 Y159.059 E10.26055
G1 X146.898 Y159.43 E10.26896
G1 X147.732 Y160.729 E10.29977
G0 F6000 X148.292 Y159.752
;MESH:NONMESH
G0 F300 X148.292 Y159.752 Z0.24
G0 F6000 X148.4 Y160.229
;TIME_ELAPSED:36.073176
;LAYER:1
M106 S85
;TYPE:WALL-INNER
;MESH:Kneepad.stl
G1 F744.5 X148.956 Y160.229 E10.31272
G1 X148.723 Y159.869 E10.32271
G1 F742.9 X148.579 Y159.641 E10.32901
G1 F700.9 X148.035 Y158.464 E10.36109
G1 F662.2 X147.218 Y156.572 E10.41507
G1 F617.5 X146.963 Y155.704 E10.44048
G1 F571.8 X146.371 Y153.344 E10.51429
G1 F555.4 X146.316 Y152.899 E10.52829
G1 F544.9 X146.082 Y150.002 E10.6208
G1 X146.316 Y147.1 E10.71347
G1 F554.5 X146.369 Y146.665 E10.72718
G1 F572.8 X146.962 Y144.297 E10.80111
G1 F618.6 X147.217 Y143.429 E10.82647
G1 F662.2 X148.037 Y141.532 E10.8806
G1 F702.3 X148.586 Y140.347 E10.91285
G1 F744.5 X148.956 Y139.771 E10.9288
G1 X148.4 Y139.771 E10.94176
G1 F742.9 X148.167 Y140.135 E10.95185
G1 F700.9 X147.561 Y141.314 E10.98465
G1 F659.7 X146.694 Y143.333 E11.04242
G1 F615.3 X146.388 Y144.129 E11.06646
G1 F581.4 X145.813 Y146.425 E11.13708
G1 F563.5 X145.683 Y147.024 E11.15595
G1 F544.9 X145.441 Y150.002 E11.25105
G1 X145.684 Y152.976 E11.34603
G1 F563.5 X145.813 Y153.575 E11.36489
G1 F581.4 X146.388 Y155.872 E11.43553
G1 F619.7 X146.776 Y156.867 E11.46542
G1 F664.7 X147.559 Y158.682 E11.517
G1 F700.9 X148.167 Y159.864 E11.54989
G1 F742.9 X148.4 Y160.229 E11.56
G0 F7500 X148.164 Y160.662
G1 F869.2 X149.75 Y160.662 E11.59165
G1 X149.088 Y159.634 E11.61605
G1 X148.961 Y159.434 E11.62078
G1 X147.658 Y156.429 E11.68614
G1 X146.865 Y153.261 E11.75131
G1 X146.599 Y150.002 E11.81657
G1 X146.865 Y146.739 E11.8819
G1 X147.661 Y143.565 E11.9472
G1 X148.965 Y140.559 E12.01259
G1 X149.749 Y139.338 E12.04155
G1 X148.164 Y139.338 E12.07318
G1 X147.807 Y139.893 E12.08635
G1 X147.146 Y141.112 E12.11402
G1 X145.913 Y143.969 E12.17612
G1 X145.17 Y146.939 E12.23721
G1 X144.92 Y150.002 E12.29854
G1 X145.171 Y153.06 E12.35977
G1 X145.913 Y156.032 E12.4209
G1 X147.143 Y158.884 E12.48289
G1 X147.786 Y160.071 E12.50983
G1 X148.164 Y160.662 E12.52383
G0 F7500 X147.946 Y161.062
;TYPE:WALL-OUTER
G1 F869.2 X150.484 Y161.062 E12.57447
G1 X149.424 Y159.418 E12.61351
G1 X149.314 Y159.245 E12.6176
G1 X148.035 Y156.287 E12.68191
G1 X147.265 Y153.212 E12.74517
G1 X147.002 Y149.985 E12.80979
G1 X147.265 Y146.788 E12.8738
G1 X148.046 Y143.682 E12.93771
G1 X149.32 Y140.744 E13.00162
G1 X150.483 Y138.938 E13.04449
G1 X147.946 Y138.938 E13.09512
G1 X147.462 Y139.689 E13.11294
G1 X146.785 Y140.937 E13.14128
G1 X145.533 Y143.84 E13.20437
G1 X144.774 Y146.874 E13.26678
G1 X144.518 Y150.002 E13.32941
G1 X144.775 Y153.126 E13.39197
G1 X145.533 Y156.16 E13.45437
G1 X146.783 Y159.059 E13.51738
G1 X147.463 Y160.312 E13.54583
