;FLAVOR:Marlin
;TIME:6221
;Filament used: 1.6505m
;Layer height: 0.12
;MINX:109.996
;MINY:114.547
;MINZ:0.12
;MAXX:193.186
;MAXY:189.28
;MAXZ:7.76
;Generated with Cura_SteamEngine 5.2.2
M140 S60
M105
M190 S60
M104 S200
M105
M109 S200
M82 ;absolute extrusion mode
; Ender 3 Max Custom Start G-code
G92 E0 ; Reset Extruder
G28 ; Home all axes
G1 Z2.0 F3000 ; Move Z Axis up little to prevent scratching of Heat Bed
G1 X0.1 Y20 Z0.3 F5000.0 ; Move to start position
G1 X0.1 Y200.0 Z0.3 F1500.0 E15 ; Draw the first line
G1 X0.4 Y200.0 Z0.3 F5000.0 ; Move to side a little
G1 X0.4 Y20 Z0.3 F1500.0 E30 ; Draw the second line
G92 E0 ; Reset Extruder
G1 Z2.0 F3000 ; Move Z Axis up little to prevent scratching of Heat Bed
G1 X5 Y20 Z0.3 F5000.0 ; Move over to prevent blob squish
G92 E0
G92 E0
G1 F1500 E-6.9
;LAYER_COUNT:63
;LAYER:0
M107
G1 F300 Z0.32
G0 F6000 X118.572 Y119.085 Z0.32
;TYPE:SKIRT
G1 F300 Z0.12
G1 F1500 E0
G1 F1200 X119.239 Y118.426 E0.01871
G1 X119.96 Y117.826 E0.03743
G1 X120.73 Y117.29 E0.05615
G1 X121.542 Y116.822 E0.07486
G1 X122.392 Y116.424 E0.09359
G1 X123.272 Y116.1 E0.1123
G1 X124.176 Y115.852 E0.13101
G1 X125.099 Y115.683 E0.14973
G1 X126.288 Y115.581 E0.17355
G1 X126.951 Y115.566 E0.18678
G1 X150.383 Y115.566 E0.65439
G1 X152.991 Y115.529 E0.70644
G1 X155.512 Y115.422 E0.7568
G1 X158.007 Y115.245 E0.80671
G1 X160.517 Y114.996 E0.85705
G1 X163.246 Y114.646 E0.91196
G1 X164.338 Y114.56 E0.93381
G1 X164.967 Y114.547 E0.94637
G1 X166.439 Y114.548 E0.97575
G1 X167.156 Y114.559 E0.99006
G1 X168.414 Y114.651 E1.01523
G1 X169.848 Y114.839 E1.04409
G1 X172.413 Y115.13 E1.0956
G1 X174.922 Y115.342 E1.14585
G1 X177.401 Y115.482 E1.1954
G1 X181.44 Y115.568 E1.27602
G1 X182.291 Y115.577 E1.29301
G1 X183.228 Y115.626 E1.31173
G1 X184.157 Y115.755 E1.33045
G1 X185.071 Y115.963 E1.34916
G1 X185.965 Y116.248 E1.36788
G1 X186.831 Y116.608 E1.3866
G1 X187.663 Y117.041 E1.40531
G1 X188.455 Y117.543 E1.42403
G1 X189.202 Y118.11 E1.44274
G1 X189.897 Y118.739 E1.46145
G1 X190.537 Y119.426 E1.48018
G1 X191.116 Y120.164 E1.4989
G1 X191.629 Y120.948 E1.5176
G1 X192.074 Y121.774 E1.53633
G1 X192.447 Y122.634 E1.55503
G1 X192.746 Y123.523 E1.57375
G1 X192.968 Y124.435 E1.59248
G1 X193.111 Y125.362 E1.6112
G1 X193.174 Y126.267 E1.6293
G1 X193.186 Y127.038 E1.64469
G1 X193.177 Y127.737 E1.65864
G1 X193.177 Y130.404 E1.71186
G1 X193.186 Y131.009 E1.72394
G1 X193.186 Y133.369 E1.77104
G1 X193.175 Y134.076 E1.78515
G1 X193.12 Y135.012 E1.80386
G1 X192.929 Y136.221 E1.82828
G1 X192.655 Y137.495 E1.85429
G1 X192.135 Y140.098 E1.90726
G1 X191.722 Y142.514 E1.95617
G1 X191.36 Y145.06 E2.00749
G1 X191.082 Y147.517 E2.05684
G1 X190.867 Y150.047 E2.10751
G1 X190.726 Y152.563 E2.1578
G1 X190.655 Y155.088 E2.20821
G1 X190.655 Y157.57 E2.25774
G1 X190.708 Y159.092 E2.28813
G1 X190.705 Y159.466 E2.29559
G1 X190.747 Y160.889 E2.324
G1 X190.751 Y161.354 E2.33328
G1 X190.742 Y162.053 E2.34723
G1 X190.742 Y164.713 E2.40032
G1 X190.749 Y165.123 E2.4085
G1 X190.751 Y167.636 E2.45865
G1 X190.741 Y168.366 E2.47322
G1 X190.688 Y169.302 E2.49193
G1 X190.556 Y170.231 E2.51065
G1 X190.345 Y171.144 E2.52935
G1 X190.057 Y172.037 E2.54808
G1 X189.694 Y172.902 E2.5668
G1 X189.258 Y173.732 E2.58551
G1 X188.754 Y174.523 E2.60422
G1 X188.184 Y175.268 E2.62294
G1 X187.552 Y175.961 E2.64166
G1 X186.864 Y176.598 E2.66037
G1 X186.124 Y177.174 E2.67909
G1 X185.388 Y177.656 E2.69664
G1 X184.642 Y178.101 E2.71398
G1 X183.542 Y178.738 E2.73934
G1 X181.398 Y180.061 E2.78962
G1 X179.295 Y181.442 E2.83983
G1 X177.24 Y182.877 E2.88985
G1 X175.222 Y184.372 E2.93997
G1 X172.736 Y186.34 E3.00324
G1 X172.216 Y186.767 E3.01667
G1 X171.466 Y187.331 E3.03539
G1 X170.672 Y187.829 E3.0541
G1 X169.838 Y188.258 E3.07281
G1 X168.97 Y188.614 E3.09154
G1 X168.075 Y188.895 E3.11026
G1 X167.16 Y189.099 E3.12896
G1 X166.23 Y189.224 E3.14769
G1 X165.446 Y189.267 E3.16336
G1 X164.669 Y189.28 E3.17887
G1 X161.541 Y189.279 E3.24129
G1 X160.843 Y189.269 E3.25522
G1 X159.619 Y189.183 E3.27971
G1 X159.232 Y189.134 E3.28749
G1 X158.308 Y188.977 E3.3062
G1 X156.99 Y188.607 E3.33352
G1 X153.953 Y187.547 E3.39771
G1 X151.548 Y186.781 E3.44808
G1 X149.123 Y186.084 E3.49843
G1 X146.723 Y185.467 E3.54788
G1 X144.246 Y184.903 E3.59858
G1 X141.758 Y184.412 E3.64919
G1 X139.279 Y183.994 E3.69936
G1 X136.801 Y183.648 E3.74929
G1 X134.306 Y183.372 E3.79938
G1 X131.781 Y183.164 E3.84994
G1 X129.205 Y183.026 E3.90142
G1 X128.008 Y182.977 E3.92533
G1 X127.073 Y182.899 E3.94405
G1 X126.149 Y182.742 E3.96276
G1 X124.893 Y182.393 E3.98877
G1 X123.605 Y181.952 E4.01594
G1 X122.367 Y181.554 E4.04189
G1 X121.438 Y181.241 E4.06145
G1 X120.562 Y180.904 E4.08018
G1 X119.719 Y180.494 E4.09889
G1 X118.914 Y180.013 E4.11761
G1 X118.153 Y179.465 E4.13632
G1 X117.457 Y178.869 E4.15461
G1 X116.262 Y177.748 E4.1873
G1 X113.9 Y175.616 E4.2508
G1 X113.231 Y174.959 E4.26951
G1 X112.621 Y174.247 E4.28822
G1 X112.073 Y173.485 E4.30695
G1 X111.593 Y172.68 E4.32566
G1 X111.182 Y171.837 E4.34437
G1 X110.845 Y170.961 E4.3631
G1 X110.584 Y170.061 E4.38181
G1 X110.401 Y169.141 E4.40052
G1 X110.274 Y167.752 E4.42836
G1 X110.261 Y167.122 E4.44093
G1 X110.261 Y164.177 E4.4997
G1 X110.19 Y161.626 E4.55063
G1 X110.106 Y160.146 E4.58021
G1 X110.104 Y160.007 E4.58299
G1 X110.031 Y158.747 E4.60818
G1 X110.008 Y158.089 E4.62132
G1 X110.013 Y156.997 E4.64311
G1 X109.996 Y154.665 E4.68965
G1 X110.009 Y154.298 E4.69697
G1 X110.005 Y151.379 E4.75523
G1 X110.016 Y150.673 E4.76932
G1 X110.071 Y149.736 E4.78805
G1 X110.256 Y148.552 E4.81196
G1 X110.371 Y148.02 E4.82282
G1 X110.793 Y146.191 E4.86028
G1 X111.29 Y143.72 E4.91058
G1 X111.716 Y141.239 E4.96082
G1 X112.069 Y138.771 E5.01057
G1 X112.356 Y136.256 E5.06109
G1 X112.571 Y133.742 E5.11144
G1 X112.724 Y131.067 E5.16491
G1 X112.817 Y130.134 E5.18362
G1 X112.99 Y129.212 E5.20234
G1 X113.24 Y128.308 E5.22106
G1 X113.567 Y127.429 E5.23977
G1 X113.967 Y126.581 E5.25848
G1 X114.246 Y126.081 E5.26991
G1 X115.415 Y124.111 E5.31563
G1 X116.692 Y121.826 E5.36786
G1 X116.938 Y121.368 E5.37824
G1 X117.417 Y120.561 E5.39697
G1 X117.963 Y119.799 E5.41567
G1 X118.572 Y119.085 E5.4344
G0 F6000 X118.899 Y119.32
G1 F1200 X119.558 Y118.677 E5.45277
G1 X120.27 Y118.094 E5.47114
G1 X121.03 Y117.574 E5.48952
G1 X121.832 Y117.122 E5.50789
G1 X122.671 Y116.742 E5.52627
G1 X123.539 Y116.436 E5.54463
G1 X124.43 Y116.206 E5.563
G1 X125.339 Y116.055 E5.58139
G1 X126.3 Y115.981 E5.60062
G1 X126.951 Y115.966 E5.61362
G1 X150.389 Y115.966 E6.08135
G1 X153.014 Y115.929 E6.13374
G1 X155.522 Y115.822 E6.18383
G1 X158.042 Y115.644 E6.23425
G1 X160.537 Y115.396 E6.28428
G1 X163.297 Y115.042 E6.33981
G1 X164.349 Y114.96 E6.36087
G1 X164.967 Y114.947 E6.37321
G1 X166.433 Y114.948 E6.40246
G1 X167.15 Y114.959 E6.41677
G1 X168.362 Y115.048 E6.44102
G1 X169.807 Y115.237 E6.47011
G1 X172.37 Y115.528 E6.52158
G1 X174.902 Y115.743 E6.57229
G1 X177.369 Y115.882 E6.6216
G1 X181.431 Y115.968 E6.70268
G1 X182.287 Y115.977 E6.71976
G1 X183.206 Y116.026 E6.73813
G1 X184.118 Y116.155 E6.75651
G1 X185.015 Y116.363 E6.77489
G1 X185.89 Y116.647 E6.79325
G1 X186.738 Y117.007 E6.81163
G1 X187.551 Y117.439 E6.83
G1 X188.324 Y117.939 E6.84837
G1 X189.05 Y118.505 E6.86675
G1 X189.724 Y119.132 E6.88512
G1 X190.342 Y119.815 E6.9035
G1 X190.898 Y120.549 E6.92187
G1 X191.388 Y121.328 E6.94024
G1 X191.808 Y122.147 E6.95861
G1 X192.156 Y122.999 E6.97697
G1 X192.429 Y123.879 E6.99536
G1 X192.624 Y124.778 E7.01372
G1 X192.741 Y125.692 E7.03211
G1 X192.774 Y126.278 E7.04382
G1 X192.786 Y127.032 E7.05887
G1 X192.777 Y127.731 E7.07282
G1 X192.777 Y130.41 E7.12628
G1 X192.786 Y131.015 E7.13835
G1 X192.786 Y133.363 E7.18521
G1 X192.775 Y134.07 E7.19932
G1 X192.72 Y134.989 E7.21769
G1 X192.538 Y136.137 E7.24089
G1 X192.264 Y137.411 E7.2669
G1 X191.742 Y140.023 E7.32005
G1 X191.326 Y142.456 E7.36931
G1 X190.965 Y144.996 E7.42051
G1 X190.681 Y147.509 E7.47098
G1 X190.467 Y150.025 E7.52137
G1 X190.326 Y152.53 E7.57144
G1 X190.255 Y155.077 E7.62228
G1 X190.255 Y157.555 E7.67174
G1 X190.309 Y159.106 E7.70271
G1 X190.306 Y159.492 E7.71041
G1 X190.347 Y160.901 E7.73854
G1 X190.351 Y161.348 E7.74746
G1 X190.342 Y162.047 E7.76141
G1 X190.342 Y164.722 E7.81479
G1 X190.349 Y165.123 E7.8228
G1 X190.352 Y167.471 E7.86965
G1 X190.341 Y168.36 E7.8874
G1 X190.288 Y169.279 E7.90577
G1 X190.156 Y170.19 E7.92414
G1 X189.946 Y171.087 E7.94252
G1 X189.658 Y171.961 E7.96088
G1 X189.295 Y172.808 E7.97927
G1 X188.861 Y173.619 E7.99763
G1 X188.358 Y174.39 E8.016
G1 X187.789 Y175.114 E8.03438
G1 X187.16 Y175.787 E8.05276
G1 X186.475 Y176.402 E8.07113
G1 X185.739 Y176.955 E8.0895
G1 X185.183 Y177.312 E8.10269
G1 X184.571 Y177.678 E8.11692
G1 X183.353 Y178.384 E8.14501
G1 X181.174 Y179.728 E8.1961
G1 X179.092 Y181.096 E8.24582
G1 X176.995 Y182.56 E8.29686
G1 X175.005 Y184.034 E8.34628
G1 X172.457 Y186.051 E8.41113
G1 X171.962 Y186.458 E8.42392
G1 X171.226 Y187.011 E8.44229
G1 X170.444 Y187.498 E8.46067
G1 X169.624 Y187.916 E8.47904
G1 X168.77 Y188.261 E8.49742
G1 X167.89 Y188.53 E8.51578
G1 X166.99 Y188.722 E8.53415
G1 X166.076 Y188.835 E8.55253
G1 X165.438 Y188.867 E8.56528
G1 X164.669 Y188.88 E8.58062
G1 X161.547 Y188.879 E8.64293
G1 X160.849 Y188.869 E8.65686
G1 X159.67 Y188.786 E8.68044
G1 X159.283 Y188.737 E8.68823
G1 X158.375 Y188.582 E8.70661
G1 X157.121 Y188.229 E8.73261
G1 X154.09 Y187.171 E8.79668
G1 X151.665 Y186.399 E8.84746
G1 X149.237 Y185.701 E8.89788
G1 X146.805 Y185.076 E8.94799
G1 X144.306 Y184.507 E8.99913
G1 X141.859 Y184.024 E9.04891
G1 X139.33 Y183.597 E9.10009
G1 X136.868 Y183.254 E9.1497
G1 X134.312 Y182.971 E9.20102
G1 X131.836 Y182.767 E9.2506
G1 X129.165 Y182.623 E9.30398
G1 X128.024 Y182.577 E9.32677
G1 X127.107 Y182.5 E9.34513
G1 X126.2 Y182.343 E9.3635
G1 X125.022 Y182.015 E9.3879
G1 X123.682 Y181.556 E9.41617
G1 X122.49 Y181.173 E9.44115
G1 X121.565 Y180.862 E9.46063
G1 X120.707 Y180.531 E9.47898
G1 X119.88 Y180.126 E9.49736
G1 X119.091 Y179.65 E9.51575
G1 X118.347 Y179.109 E9.5341
G1 X117.729 Y178.576 E9.55039
G1 X116.524 Y177.445 E9.58337
G1 X114.168 Y175.319 E9.6467
G1 X113.512 Y174.673 E9.66507
G1 X112.915 Y173.973 E9.68343
G1 X112.38 Y173.223 E9.70182
G1 X111.913 Y172.43 E9.72018
G1 X111.516 Y171.599 E9.73856
G1 X111.193 Y170.737 E9.75693
G1 X110.945 Y169.851 E9.77529
G1 X110.776 Y168.946 E9.79366
G1 X110.674 Y167.741 E9.8178
G1 X110.661 Y167.122 E9.83015
G1 X110.661 Y164.166 E9.88914
G1 X110.59 Y161.626 E9.93985
G1 X110.505 Y160.123 E9.96989
G1 X110.503 Y159.964 E9.97307
G1 X110.431 Y158.724 E9.99785
G1 X110.408 Y158.078 E10.01075
G1 X110.413 Y156.998 E10.03231
G1 X110.396 Y154.662 E10.07892
G1 X110.409 Y154.3 E10.08615
G1 X110.405 Y151.385 E10.14432
G1 X110.416 Y150.679 E10.15842
G1 X110.471 Y149.76 E10.17679
G1 X110.648 Y148.635 E10.19951
G1 X110.761 Y148.11 E10.21023
G1 X111.181 Y146.288 E10.24755
G1 X111.683 Y143.796 E10.29827
G1 X112.113 Y141.292 E10.34898
G1 X112.463 Y138.841 E10.39838
G1 X112.757 Y136.264 E10.45015
G1 X112.968 Y133.798 E10.49954
G1 X113.123 Y131.09 E10.55367
G1 X113.216 Y130.174 E10.57204
G1 X113.387 Y129.269 E10.59042
G1 X113.636 Y128.383 E10.60879
G1 X113.962 Y127.522 E10.62716
G1 X114.361 Y126.692 E10.64554
G1 X114.59 Y126.285 E10.65486
G1 X115.758 Y124.316 E10.70054
G1 X117.061 Y121.985 E10.75383
G1 X117.291 Y121.557 E10.76353
G1 X117.761 Y120.766 E10.78189
G1 X118.299 Y120.018 E10.80028
G1 X118.899 Y119.32 E10.81865
G0 F6000 X119.226 Y119.557
G1 F1200 X119.876 Y118.93 E10.83667
G1 X120.579 Y118.362 E10.85471
G1 X121.329 Y117.86 E10.87272
G1 X122.121 Y117.425 E10.89075
G1 X122.948 Y117.063 E10.90876
G1 X123.804 Y116.774 E10.92679
G1 X124.682 Y116.563 E10.94481
G1 X125.575 Y116.43 E10.96283
G1 X126.312 Y116.381 E10.97757
G1 X126.951 Y116.366 E10.99033
G1 X150.395 Y116.366 E11.45818
G1 X153.001 Y116.329 E11.51019
G1 X155.566 Y116.22 E11.56142
G1 X158.073 Y116.042 E11.61158
G1 X160.594 Y115.793 E11.66213
G1 X163.348 Y115.439 E11.71754
G1 X164.36 Y115.36 E11.7378
G1 X164.967 Y115.347 E11.74992
G1 X166.426 Y115.348 E11.77903
G1 X167.143 Y115.359 E11.79334
G1 X168.31 Y115.444 E11.81669
G1 X169.767 Y115.635 E11.84602
G1 X172.324 Y115.925 E11.89737
G1 X174.882 Y116.142 E11.9486
G1 X177.367 Y116.282 E11.99827
G1 X181.423 Y116.368 E12.07923
G1 X182.283 Y116.377 E12.0964
G1 X183.185 Y116.426 E12.11442
G1 X184.079 Y116.555 E12.13245
G1 X184.958 Y116.762 E12.15047
G1 X185.815 Y117.046 E12.16849
G1 X186.643 Y117.405 E12.1865
G1 X187.437 Y117.836 E12.20453
G1 X188.189 Y118.336 E12.22255
G1 X188.895 Y118.9 E12.24058
G1 X189.547 Y119.524 E12.25859
G1 X190.142 Y120.203 E12.27661
G1 X190.675 Y120.933 E12.29464
G1 X191.141 Y121.707 E12.31267
G1 X191.536 Y122.518 E12.33068
G1 X191.858 Y123.362 E12.3487
G1 X192.105 Y124.231 E12.36673
G1 X192.273 Y125.118 E12.38475
G1 X192.374 Y126.289 E12.4082
G1 X192.386 Y127.027 E12.42293
G1 X192.377 Y127.726 E12.43688
G1 X192.377 Y130.416 E12.49057
G1 X192.386 Y131.021 E12.50264
G1 X192.386 Y133.357 E12.54926
G1 X192.375 Y134.064 E12.56337
G1 X192.321 Y134.965 E12.58138
G1 X192.147 Y136.053 E12.60337
G1 X191.875 Y137.314 E12.62911
G1 X191.349 Y139.95 E12.68275
G1 X190.923 Y142.443 E12.73323
G1 X190.57 Y144.927 E12.78329
G1 X190.286 Y147.431 E12.83358
G1 X190.068 Y150.004 E12.88512
G1 X189.926 Y152.531 E12.93562
G1 X189.855 Y155.066 E12.98623
G1 X189.855 Y157.569 E13.03618
G1 X189.909 Y159.12 E13.06715
G1 X189.906 Y159.467 E13.07408
G1 X189.948 Y160.913 E13.10295
G1 X189.951 Y161.343 E13.11153
G1 X189.942 Y162.042 E13.12548
G1 X189.942 Y164.685 E13.17822
G1 X189.949 Y165.124 E13.18698
G1 X189.952 Y167.472 E13.23384
G1 X189.941 Y168.355 E13.25146
G1 X189.889 Y169.256 E13.26947
G1 X189.757 Y170.15 E13.28751
G1 X189.546 Y171.028 E13.30553
G1 X189.259 Y171.884 E13.32355
G1 X188.897 Y172.712 E13.34158
G1 X188.464 Y173.504 E13.35959
G1 X187.962 Y174.255 E13.37762
G1 X187.395 Y174.958 E13.39564
G1 X186.769 Y175.608 E13.41365
G1 X186.087 Y176.201 E13.43169
G1 X184.977 Y176.969 E13.45862
G1 X184.241 Y177.408 E13.47573
G1 X183.149 Y178.04 E13.5009
G1 X180.966 Y179.387 E13.55209
G1 X178.849 Y180.777 E13.60263
G1 X176.78 Y182.222 E13.653
G1 X174.734 Y183.738 E13.70381
G1 X172.238 Y185.714 E13.76734
G1 X171.708 Y186.149 E13.78103
G1 X170.985 Y186.691 E13.79906
G1 X170.218 Y187.167 E13.81707
G1 X169.411 Y187.573 E13.8351
G1 X168.572 Y187.906 E13.85311
G1 X167.706 Y188.164 E13.87115
G1 X166.821 Y188.344 E13.88917
G1 X165.924 Y188.445 E13.90718
G1 X165.431 Y188.467 E13.91703
G1 X164.669 Y188.48 E13.93224
G1 X161.553 Y188.479 E13.99442
G1 X160.855 Y188.469 E14.00835
G1 X159.72 Y188.389 E14.03106
G1 X159.333 Y188.34 E14.03885
G1 X158.443 Y188.187 E14.05687
G1 X157.253 Y187.851 E14.08154
G1 X154.239 Y186.799 E14.14525
G1 X151.759 Y186.009 E14.19719
G1 X149.366 Y185.321 E14.24688
G1 X146.889 Y184.684 E14.29792
G1 X144.401 Y184.118 E14.34884
G1 X141.903 Y183.625 E14.39965
G1 X139.415 Y183.206 E14.45
G1 X136.896 Y182.854 E14.50076
G1 X134.39 Y182.577 E14.55107
G1 X131.817 Y182.365 E14.60259
G1 X129.279 Y182.228 E14.65332
G1 X128.041 Y182.178 E14.67804
G1 X127.141 Y182.101 E14.69607
G1 X126.251 Y181.945 E14.7141
G1 X125.152 Y181.636 E14.73688
G1 X123.84 Y181.187 E14.76455
G1 X122.612 Y180.792 E14.7903
G1 X121.693 Y180.483 E14.80965
G1 X120.851 Y180.157 E14.82766
G1 X120.041 Y179.758 E14.84568
G1 X119.269 Y179.288 E14.86372
G1 X118.543 Y178.753 E14.88172
G1 X118.002 Y178.283 E14.89602
G1 X116.803 Y177.158 E14.92883
G1 X114.436 Y175.022 E14.99246
G1 X113.793 Y174.388 E15.01048
G1 X113.209 Y173.7 E15.02848
G1 X112.688 Y172.962 E15.04651
G1 X112.234 Y172.181 E15.06454
G1 X111.851 Y171.364 E15.08255
G1 X111.541 Y170.515 E15.10058
G1 X111.308 Y169.642 E15.11862
G1 X111.154 Y168.753 E15.13662
G1 X111.074 Y167.73 E15.1571
G1 X111.061 Y167.122 E15.16923
G1 X111.061 Y164.155 E15.22844
G1 X110.99 Y161.626 E15.27893
G1 X110.904 Y160.1 E15.30943
G1 X110.902 Y159.944 E15.31255
G1 X110.83 Y158.701 E15.33739
G1 X110.808 Y158.067 E15.35005
G1 X110.813 Y157 E15.37135
G1 X110.796 Y154.659 E15.41807
G1 X110.809 Y154.303 E15.42517
G1 X110.805 Y151.391 E15.48329
G1 X110.816 Y150.685 E15.49738
G1 X110.87 Y149.784 E15.51539
