;FLAVOR:Marlin
;TIME:12742
;Filament used: 4.8134m
;Layer height: 0.12
;MINX:91.041
;MINY:103.952
;MINZ:0.12
;MAXX:210.913
;MAXY:196.034
;MAXZ:7.92
;Generated with Cura_SteamEngine 5.2.2
M140 S60
M105
M190 S60
M104 S200
M105
M109 S200
M82 ;absolute extrusion mode
; Ender 3 Max Custom Start G-code
G92 E0 ; Reset Extruder
G28 ; Home all axes
G1 Z2.0 F3000 ; Move Z Axis up little to prevent scratching of Heat Bed
G1 X0.1 Y20 Z0.3 F5000.0 ; Move to start position
G1 X0.1 Y200.0 Z0.3 F1500.0 E15 ; Draw the first line
G1 X0.4 Y200.0 Z0.3 F5000.0 ; Move to side a little
G1 X0.4 Y20 Z0.3 F1500.0 E30 ; Draw the second line
G92 E0 ; Reset Extruder
G1 Z2.0 F3000 ; Move Z Axis up little to prevent scratching of Heat Bed
G1 X5 Y20 Z0.3 F5000.0 ; Move over to prevent blob squish
G92 E0
G92 E0
G1 F1500 E-6.5
;LAYER_COUNT:66
;LAYER:0
M107
G0 F6000 X94.927 Y106.579 Z0.12
;TYPE:SKIRT
G1 F1500 E0
G1 F1200 X95.667 Y106.003 E0.01871
G1 X96.453 Y105.491 E0.03743
G1 X97.28 Y105.049 E0.05615
G1 X98.142 Y104.679 E0.07487
G1 X99.032 Y104.383 E0.09358
G1 X99.944 Y104.165 E0.1123
G1 X100.871 Y104.024 E0.13101
G1 X101.742 Y103.965 E0.14843
G1 X102.371 Y103.952 E0.16099
G1 X199.364 Y103.953 E2.09659
G1 X200.062 Y103.963 E2.11052
G1 X200.998 Y104.017 E2.12923
G1 X201.926 Y104.149 E2.14793
G1 X202.84 Y104.361 E2.16666
G1 X203.732 Y104.65 E2.18537
G1 X204.597 Y105.013 E2.20409
G1 X205.427 Y105.449 E2.2228
G1 X206.218 Y105.954 E2.24153
G1 X206.962 Y106.525 E2.26024
G1 X207.655 Y107.157 E2.27896
G1 X208.292 Y107.845 E2.29767
G1 X208.867 Y108.586 E2.31639
G1 X209.378 Y109.372 E2.3351
G1 X209.82 Y110.2 E2.35383
G1 X210.189 Y111.062 E2.37254
G1 X210.484 Y111.952 E2.39125
G1 X210.702 Y112.864 E2.40996
G1 X210.842 Y113.792 E2.42869
G1 X210.9 Y114.653 E2.44591
G1 X210.913 Y115.282 E2.45847
G1 X210.912 Y117.919 E2.51109
G1 X210.901 Y118.648 E2.52564
G1 X210.847 Y119.584 E2.54435
G1 X210.768 Y120.191 E2.55657
G1 X210.636 Y121.027 E2.57346
G1 X210.42 Y122.294 E2.59911
G1 X210.065 Y124.786 E2.64934
G1 X209.782 Y127.279 E2.69941
G1 X209.566 Y129.825 E2.7504
G1 X209.424 Y132.328 E2.80043
G1 X209.348 Y134.621 E2.84621
G1 X209.286 Y135.861 E2.87099
G1 X209.222 Y136.622 E2.88623
G1 X209.092 Y137.706 E2.90802
G1 X208.907 Y138.98 E2.93371
G1 X208.776 Y139.701 E2.94833
G1 X208.539 Y140.793 E2.97063
G1 X208.303 Y141.749 E2.99028
G1 X208.116 Y142.399 E3.00378
G1 X207.782 Y143.44 E3.0256
G1 X207.504 Y144.239 E3.04248
G1 X207.235 Y144.924 E3.05717
G1 X206.771 Y145.998 E3.08051
G1 X206.337 Y146.928 E3.10099
G1 X206.039 Y147.509 E3.11403
G1 X205.638 Y148.223 E3.13037
G1 X205.026 Y149.245 E3.15414
G1 X204.68 Y149.787 E3.16697
G1 X204.306 Y150.326 E3.18006
G1 X203.929 Y150.843 E3.19283
G1 X203.395 Y151.551 E3.21053
G1 X203.025 Y152.014 E3.22236
G1 X202.629 Y152.474 E3.23447
G1 X202.086 Y153.077 E3.25066
G1 X201.662 Y153.534 E3.2631
G1 X201.198 Y154.004 E3.27628
G1 X200.29 Y154.865 E3.30126
G1 X199.862 Y155.249 E3.31273
G1 X199.361 Y155.672 E3.32582
G1 X198.581 Y156.292 E3.3457
G1 X197.843 Y156.848 E3.36414
G1 X197.324 Y157.212 E3.37679
G1 X196.504 Y157.752 E3.39638
G1 X195.799 Y158.191 E3.41296
G1 X194.257 Y159.072 E3.4484
G1 X193.795 Y159.322 E3.45888
G1 X191.629 Y160.543 E3.5085
G1 X189.439 Y161.86 E3.5595
G1 X187.336 Y163.205 E3.60932
G1 X185.272 Y164.612 E3.65916
G1 X183.214 Y166.1 E3.70984
G1 X181.217 Y167.633 E3.76009
G1 X179.27 Y169.216 E3.81016
G1 X177.357 Y170.861 E3.86051
G1 X175.508 Y172.549 E3.91047
G1 X173.676 Y174.317 E3.96128
G1 X171.938 Y176.092 E4.01086
G1 X170.212 Y177.957 E4.06157
G1 X168.569 Y179.837 E4.11139
G1 X166.958 Y181.79 E4.16192
G1 X165.42 Y183.763 E4.21184
G1 X163.912 Y185.817 E4.26269
G1 X162.505 Y187.851 E4.31205
G1 X160.489 Y190.986 E4.38643
G1 X159.949 Y191.753 E4.40515
G1 X159.345 Y192.47 E4.42385
G1 X158.683 Y193.134 E4.44257
G1 X157.966 Y193.739 E4.46129
G1 X157.2 Y194.28 E4.48
G1 X156.391 Y194.755 E4.49872
G1 X155.544 Y195.159 E4.51745
G1 X154.667 Y195.489 E4.53615
G1 X153.764 Y195.743 E4.55487
G1 X152.843 Y195.919 E4.57358
G1 X151.91 Y196.016 E4.5923
G1 X150.972 Y196.034 E4.61102
G1 X149.7 Y195.929 E4.63649
G1 X148.892 Y195.815 E4.65278
G1 X147.623 Y195.619 E4.6784
G1 X145.12 Y195.302 E4.72875
G1 X142.625 Y195.058 E4.77878
G1 X140.09 Y194.882 E4.82949
G1 X137.58 Y194.78 E4.87962
G1 X135.051 Y194.748 E4.93009
G1 X132.344 Y194.781 E4.98412
G1 X126.953 Y194.78 E5.0917
G1 X125.777 Y194.763 E5.11517
G1 X122.798 Y194.767 E5.17462
G1 X121.9 Y194.781 E5.19255
G1 X116.544 Y194.78 E5.29943
G1 X115.842 Y194.77 E5.31344
G1 X114.906 Y194.717 E5.33215
G1 X113.978 Y194.584 E5.35086
G1 X113.064 Y194.372 E5.36958
G1 X112.171 Y194.084 E5.38831
G1 X111.307 Y193.72 E5.40702
G1 X110.476 Y193.284 E5.42574
G1 X109.686 Y192.779 E5.44446
G1 X108.942 Y192.209 E5.46316
G1 X108.249 Y191.577 E5.48188
G1 X107.612 Y190.888 E5.5006
G1 X107.036 Y190.148 E5.51932
G1 X106.395 Y189.134 E5.54326
G1 X106.103 Y188.612 E5.55519
G1 X104.792 Y186.345 E5.60745
G1 X103.477 Y184.214 E5.65742
G1 X102.091 Y182.103 E5.70782
G1 X100.428 Y179.723 E5.76576
G1 X99.924 Y178.932 E5.78448
G1 X99.489 Y178.101 E5.8032
G1 X99.127 Y177.236 E5.82191
G1 X98.839 Y176.344 E5.84061
G1 X98.558 Y174.998 E5.86805
G1 X98.435 Y174.147 E5.88521
G1 X97.741 Y168.829 E5.99224
G1 X97.54 Y167.102 E6.02694
G1 X97.199 Y164.491 E6.07948
G1 X97.085 Y163.771 E6.09403
G1 X96.863 Y162.215 E6.1254
G1 X96.128 Y156.487 E6.24064
G1 X96.054 Y155.838 E6.25368
G1 X95.987 Y154.903 E6.27239
G1 X95.987 Y154.283 E6.28476
G1 X96.012 Y153.392 E6.30255
G1 X96.057 Y152.312 E6.32412
G1 X96.091 Y149.779 E6.37467
G1 X96.053 Y147.262 E6.42491
G1 X95.945 Y144.743 E6.47522
G1 X95.767 Y142.24 E6.5253
G1 X95.516 Y139.731 E6.57562
G1 X95.197 Y137.251 E6.62552
G1 X94.804 Y134.755 E6.67594
G1 X94.345 Y132.294 E6.7259
G1 X93.813 Y129.823 E6.77634
G1 X93.209 Y127.369 E6.82677
G1 X92.538 Y124.937 E6.87712
G1 X91.767 Y122.425 E6.92956
G1 X91.585 Y121.862 E6.94137
G1 X91.334 Y120.958 E6.96009
G1 X91.162 Y120.036 E6.97881
G1 X91.056 Y118.812 E7.00332
G1 X91.041 Y118.149 E7.01656
G1 X91.042 Y115.477 E7.06988
G1 X91.051 Y114.812 E7.08315
G1 X91.104 Y113.876 E7.10186
G1 X91.236 Y112.947 E7.12059
G1 X91.447 Y112.033 E7.13931
G1 X91.735 Y111.141 E7.15801
G1 X92.098 Y110.276 E7.17673
G1 X92.533 Y109.445 E7.19545
G1 X93.037 Y108.655 E7.21415
G1 X93.607 Y107.91 E7.23287
G1 X94.239 Y107.216 E7.2516
G1 X94.927 Y106.579 E7.27031
G0 F6000 X95.315 Y106.775
G1 F1200 X96.051 Y106.222 E7.28869
G1 X96.832 Y105.734 E7.30706
G1 X97.652 Y105.316 E7.32543
G1 X98.506 Y104.971 E7.34381
G1 X99.386 Y104.701 E7.36218
G1 X100.286 Y104.509 E7.38055
G1 X101.2 Y104.395 E7.39893
G1 X101.753 Y104.365 E7.40998
G1 X102.371 Y104.352 E7.42231
G1 X199.358 Y104.353 E9.35779
G1 X200.056 Y104.363 E9.37173
G1 X200.975 Y104.416 E9.3901
G1 X201.886 Y104.549 E9.40847
G1 X202.782 Y104.76 E9.42684
G1 X203.656 Y105.048 E9.4452
G1 X204.503 Y105.411 E9.46359
G1 X205.314 Y105.846 E9.48196
G1 X206.084 Y106.35 E9.50032
G1 X206.808 Y106.919 E9.5187
G1 X207.48 Y107.549 E9.53708
G1 X208.095 Y108.234 E9.55545
G1 X208.648 Y108.97 E9.57382
G1 X209.135 Y109.751 E9.59219
G1 X209.552 Y110.572 E9.61057
G1 X209.897 Y111.426 E9.62895
G1 X210.166 Y112.306 E9.64731
G1 X210.358 Y113.207 E9.6657
G1 X210.471 Y114.12 E9.68405
G1 X210.5 Y114.664 E9.69493
G1 X210.513 Y115.282 E9.70726
G1 X210.512 Y117.913 E9.75977
G1 X210.501 Y118.642 E9.77432
G1 X210.447 Y119.561 E9.79269
G1 X210.373 Y120.129 E9.80412
G1 X210.242 Y120.959 E9.82089
G1 X210.026 Y122.223 E9.84648
G1 X209.665 Y124.751 E9.89744
G1 X209.383 Y127.236 E9.94735
G1 X209.169 Y129.767 E9.99804
G1 X209.023 Y132.335 E10.04937
G1 X208.949 Y134.601 E10.09461
G1 X208.887 Y135.841 E10.11939
G1 X208.825 Y136.574 E10.13407
G1 X208.695 Y137.658 E10.15585
G1 X208.512 Y138.921 E10.18132
G1 X208.385 Y139.616 E10.19542
G1 X208.148 Y140.708 E10.21772
G1 X207.915 Y141.651 E10.2371
G1 X207.735 Y142.276 E10.25008
G1 X207.401 Y143.317 E10.2719
G1 X207.127 Y144.105 E10.28855
G1 X206.868 Y144.765 E10.3027
G1 X206.404 Y145.839 E10.32605
G1 X205.976 Y146.756 E10.34624
G1 X205.689 Y147.316 E10.3588
G1 X205.295 Y148.018 E10.37486
G1 X204.683 Y149.04 E10.39864
G1 X204.349 Y149.562 E10.411
G1 X203.983 Y150.09 E10.42382
G1 X203.606 Y150.607 E10.43659
G1 X203.076 Y151.309 E10.45415
G1 X202.719 Y151.755 E10.46555
G1 X202.331 Y152.207 E10.47743
G1 X201.793 Y152.805 E10.49349
G1 X201.369 Y153.262 E10.50593
G1 X200.922 Y153.715 E10.51863
G1 X200.268 Y154.34 E10.53668
G1 X199.595 Y154.951 E10.55482
G1 X199.112 Y155.359 E10.56744
G1 X198.332 Y155.979 E10.58732
G1 X197.605 Y156.527 E10.60549
G1 X197.104 Y156.878 E10.6177
G1 X196.284 Y157.418 E10.63729
G1 X195.59 Y157.85 E10.6536
G1 X194.059 Y158.724 E10.68879
G1 X193.603 Y158.971 E10.69913
G1 X191.405 Y160.21 E10.74949
G1 X189.254 Y161.503 E10.79957
G1 X187.126 Y162.865 E10.84999
G1 X185.017 Y164.302 E10.90092
G1 X182.981 Y165.775 E10.95107
G1 X180.962 Y167.325 E11.00186
G1 X179.003 Y168.917 E11.05224
G1 X177.111 Y170.544 E11.10204
G1 X175.224 Y172.267 E11.15303
G1 X173.413 Y174.014 E11.20325
G1 X171.624 Y175.842 E11.25429
G1 X169.916 Y177.687 E11.30446
G1 X168.26 Y179.582 E11.35468
G1 X166.649 Y181.534 E11.40519
G1 X165.088 Y183.538 E11.45588
G1 X163.61 Y185.551 E11.50572
G1 X162.173 Y187.629 E11.55614
G1 X160.153 Y190.77 E11.63067
G1 X159.622 Y191.522 E11.64904
G1 X159.028 Y192.225 E11.6674
G1 X158.374 Y192.874 E11.68579
G1 X157.668 Y193.464 E11.70415
G1 X156.912 Y193.99 E11.72253
G1 X156.114 Y194.449 E11.7409
G1 X155.279 Y194.836 E11.75927
G1 X154.413 Y195.15 E11.77765
G1 X153.524 Y195.387 E11.79601
G1 X152.617 Y195.547 E11.81439
G1 X151.7 Y195.627 E11.83276
G1 X150.779 Y195.627 E11.85114
G1 X149.756 Y195.533 E11.87164
G1 X148.799 Y195.397 E11.89093
G1 X147.659 Y195.22 E11.91395
G1 X145.177 Y194.906 E11.96388
G1 X142.658 Y194.66 E12.01439
G1 X140.098 Y194.482 E12.0656
G1 X137.601 Y194.38 E12.11547
G1 X135.051 Y194.348 E12.16636
G1 X132.344 Y194.381 E12.22039
G1 X126.959 Y194.38 E12.32785
G1 X125.783 Y194.363 E12.35132
G1 X122.792 Y194.367 E12.41101
G1 X121.9 Y194.381 E12.42881
G1 X116.55 Y194.38 E12.53558
G1 X115.848 Y194.37 E12.54959
G1 X114.929 Y194.317 E12.56796
G1 X114.018 Y194.184 E12.58633
G1 X113.122 Y193.973 E12.6047
G1 X112.247 Y193.685 E12.62308
G1 X111.401 Y193.322 E12.64146
G1 X110.59 Y192.887 E12.65982
G1 X109.819 Y192.383 E12.6782
G1 X109.095 Y191.815 E12.69657
G1 X108.423 Y191.185 E12.71495
G1 X107.809 Y190.5 E12.73331
G1 X107.256 Y189.764 E12.75168
G1 X106.744 Y188.939 E12.77106
G1 X106.439 Y188.393 E12.78354
G1 X105.13 Y186.129 E12.83572
G1 X103.819 Y184.006 E12.88552
G1 X102.427 Y181.884 E12.93616
G1 X100.756 Y179.494 E12.99436
G1 X100.262 Y178.717 E13.01273
G1 X99.837 Y177.9 E13.03111
G1 X99.485 Y177.05 E13.04947
G1 X99.207 Y176.172 E13.06785
G1 X98.954 Y174.941 E13.09293
G1 X98.832 Y174.096 E13.10997
G1 X98.138 Y168.778 E13.21699
G1 X97.94 Y167.071 E13.25129
G1 X97.597 Y164.447 E13.3041
G1 X97.481 Y163.714 E13.31891
G1 X97.239 Y162.011 E13.35323
G1 X96.543 Y156.591 E13.46228
G1 X96.451 Y155.793 E13.47832
G1 X96.387 Y154.874 E13.4967
G1 X96.387 Y154.295 E13.50825
G1 X96.417 Y153.256 E13.529
G1 X96.457 Y152.299 E13.54811
G1 X96.491 Y149.779 E13.59841
G1 X96.453 Y147.239 E13.6491
G1 X96.346 Y144.733 E13.69915
G1 X96.165 Y142.205 E13.74973
G1 X95.916 Y139.712 E13.79973
G1 X95.59 Y137.174 E13.8508
G1 X95.198 Y134.685 E13.90108
G1 X94.731 Y132.186 E13.95181
G1 X94.204 Y129.74 E14.00174
G1 X93.594 Y127.262 E14.05267
G1 X92.929 Y124.851 E14.10258
G1 X92.15 Y122.312 E14.15558
G1 X91.965 Y121.739 E14.1676
G1 X91.72 Y120.851 E14.18598
G1 X91.553 Y119.946 E14.20435
G1 X91.456 Y118.8 E14.2273
G1 X91.441 Y118.149 E14.24029
G1 X91.442 Y115.483 E14.2935
G1 X91.451 Y114.818 E14.30677
G1 X91.503 Y113.898 E14.32516
G1 X91.635 Y112.987 E14.34353
G1 X91.846 Y112.091 E14.3619
G1 X92.133 Y111.216 E14.38027
G1 X92.496 Y110.37 E14.39864
G1 X92.93 Y109.558 E14.41702
G1 X93.433 Y108.787 E14.43539
G1 X94.002 Y108.063 E14.45377
G1 X94.63 Y107.391 E14.47212
G1 X95.315 Y106.775 E14.49051
G0 F6000 X95.703 Y106.976
G1 F1200 X96.435 Y106.446 E14.50854
G1 X97.21 Y105.983 E14.52656
G1 X98.023 Y105.59 E14.54458
G1 X98.868 Y105.27 E14.56261
G1 X99.737 Y105.027 E14.58061
G1 X100.625 Y104.861 E14.59864
G1 X101.764 Y104.765 E14.62145
G1 X102.371 Y104.752 E14.63357
G1 X199.352 Y104.753 E16.56893
G1 X200.05 Y104.763 E16.58286
G1 X200.952 Y104.816 E16.60089
G1 X201.845 Y104.948 E16.61891
G1 X202.723 Y105.159 E16.63693
G1 X203.579 Y105.447 E16.65495
G1 X204.406 Y105.809 E16.67297
G1 X205.198 Y106.244 E16.691
G1 X205.949 Y106.746 E16.70903
G1 X206.652 Y107.313 E16.72705
G1 X207.302 Y107.94 E16.74507
G1 X207.894 Y108.622 E16.76309
G1 X208.424 Y109.353 E16.78111
G1 X208.886 Y110.129 E16.79914
G1 X209.279 Y110.942 E16.81716
G1 X209.597 Y111.787 E16.83517
G1 X209.84 Y112.657 E16.8532
G1 X210.005 Y113.545 E16.87122
G1 X210.1 Y114.675 E16.89385
G1 X210.113 Y115.282 E16.90597
G1 X210.112 Y117.907 E16.95835
G1 X210.101 Y118.636 E16.9729
G1 X210.047 Y119.537 E16.99092
G1 X209.978 Y120.067 E17.00158
G1 X209.869 Y120.76 E17.01558
G1 X209.631 Y122.154 E17.0438
G1 X209.271 Y124.686 E17.09484
G1 X208.986 Y127.193 E17.14519
G1 X208.77 Y129.746 E17.19632
G1 X208.625 Y132.298 E17.24733
G1 X208.557 Y134.401 E17.28932
G1 X208.487 Y135.821 E17.31769
G1 X208.427 Y136.527 E17.33183
G1 X208.26 Y137.891 E17.35926
G1 X208.116 Y138.863 E17.37887
G1 X207.994 Y139.531 E17.39242
G1 X207.757 Y140.623 E17.41472
G1 X207.527 Y141.552 E17.43382
G1 X207.354 Y142.154 E17.44632
G1 X207.02 Y143.195 E17.46813
G1 X206.75 Y143.971 E17.48453
G1 X206.501 Y144.606 E17.49814
G1 X206.037 Y145.68 E17.52149
G1 X205.614 Y146.585 E17.54142
G1 X205.338 Y147.124 E17.55351
G1 X204.952 Y147.812 E17.56925
G1 X204.34 Y148.834 E17.59302
G1 X204.019 Y149.337 E17.60493
G1 X203.66 Y149.855 E17.61751
G1 X203.283 Y150.372 E17.63028
G1 X202.757 Y151.068 E17.64769
G1 X202.414 Y151.497 E17.65865
G1 X202.034 Y151.939 E17.67028
G1 X201.611 Y152.41 E17.68291
G1 X201.075 Y152.989 E17.69866
G1 X200.645 Y153.426 E17.7109
G1 X199.991 Y154.051 E17.72895
G1 X199.328 Y154.653 E17.74682
G1 X198.863 Y155.046 E17.75897
G1 X198.083 Y155.666 E17.77885
G1 X197.366 Y156.206 E17.79677
G1 X196.884 Y156.544 E17.80851
G1 X196.064 Y157.084 E17.82811
G1 X195.381 Y157.509 E17.84416
G1 X193.862 Y158.376 E17.87906
G1 X193.4 Y158.625 E17.88954
G1 X191.208 Y159.861 E17.93976
G1 X189.038 Y161.166 E17.99029
G1 X186.89 Y162.541 E18.04118
G1 X184.82 Y163.951 E18.09117
G1 X182.732 Y165.462 E18.1426
G1 X180.729 Y166.999 E18.19299
G1 X178.735 Y168.62 E18.24427
G1 X176.846 Y170.245 E18.29399
G1 X174.959 Y171.967 E18.34497
G1 X173.115 Y173.747 E18.39612
G1 X171.362 Y175.537 E18.44612
G1 X169.605 Y177.436 E18.49775
G1 X167.967 Y179.31 E18.54742
G1 X166.327 Y181.297 E18.59883
G1 X164.779 Y183.285 E18.64911
G1 X163.275 Y185.333 E18.69982
G1 X161.845 Y187.4 E18.74998
G1 X159.817 Y190.554 E18.82481
G1 X159.295 Y191.291 E18.84283
G1 X158.71 Y191.979 E18.86085
G1 X158.067 Y192.613 E18.87887
G1 X157.37 Y193.187 E18.89689
G1 X156.625 Y193.698 E18.91492
G1 X155.838 Y194.14 E18.93293
G1 X155.015 Y194.512 E18.95096
G1 X154.162 Y194.809 E18.96898
G1 X153.286 Y195.029 E18.98701
G1 X152.394 Y195.171 E19.00503
G1 X151.493 Y195.234 E19.02306
G1 X150.59 Y195.216 E19.04108
G1 X149.812 Y195.137 E19.05669
G1 X148.861 Y195.002 E19.07585
G1 X147.705 Y194.822 E19.0992
G1 X145.23 Y194.509 E19.14899
G1 X142.653 Y194.257 E19.20066
G1 X140.178 Y194.085 E19.25017
G1 X137.587 Y193.98 E19.30192
G1 X135.051 Y193.948 E19.35253
G1 X132.344 Y193.981 E19.40656
G1 X126.965 Y193.98 E19.5139
G1 X125.788 Y193.963 E19.53739
G1 X122.848 Y193.967 E19.59606
G1 X122.073 Y193.98 E19.61153
G1 X116.556 Y193.98 E19.72163
G1 X115.854 Y193.97 E19.73564
G1 X114.952 Y193.917 E19.75367
G1 X114.059 Y193.785 E19.77168
G1 X113.181 Y193.574 E19.7897
G1 X112.325 Y193.286 E19.80773
G1 X111.497 Y192.924 E19.82576
G1 X110.705 Y192.49 E19.84378
G1 X109.955 Y191.987 E19.86181
G1 X109.252 Y191.421 E19.87982
G1 X108.602 Y190.794 E19.89784
G1 X108.01 Y190.112 E19.91586
G1 X107.48 Y189.38 E19.9339
G1 X107.094 Y188.744 E19.94874
G1 X106.792 Y188.204 E19.96109
G1 X105.489 Y185.951 E20.01303
