;FLAVOR:Marlin
;TIME:2302
;Filament used: 0.757483m
;Layer height: 0.12
;MINX:131.5
;MINY:115
;MINZ:0.12
;MAXX:217.668
;MAXY:168.5
;MAXZ:17.24
;Generated with Cura_SteamEngine 5.2.2
M140 S60
M105
M190 S60
M104 S200
M105
M109 S200
M82 ;absolute extrusion mode
; Ender 3 Max Custom Start G-code
G92 E0 ; Reset Extruder
G28 ; Home all axes
G1 Z2.0 F3000 ; Move Z Axis up little to prevent scratching of Heat Bed
G1 X0.1 Y20 Z0.3 F5000.0 ; Move to start position
G1 X0.1 Y200.0 Z0.3 F1500.0 E15 ; Draw the first line
G1 X0.4 Y200.0 Z0.3 F5000.0 ; Move to side a little
G1 X0.4 Y20 Z0.3 F1500.0 E30 ; Draw the second line
G92 E0 ; Reset Extruder
G1 Z2.0 F3000 ; Move Z Axis up little to prevent scratching of Heat Bed
G1 X5 Y20 Z0.3 F5000.0 ; Move over to prevent blob squish
G92 E0
G92 E0
G1 F1500 E-6.5
;LAYER_COUNT:142
;LAYER:0
M107
G1 F300 Z0.32
G0 F6000 X134.063 Y118.962 Z0.32
;TYPE:SKIRT
G1 F300 Z0.12
G1 F1500 E0
G1 F1200 X134.694 Y118.268 E0.01872
G1 X135.382 Y117.63 E0.03744
G1 X136.121 Y117.054 E0.05614
G1 X136.907 Y116.542 E0.07486
G1 X137.734 Y116.099 E0.09358
G1 X138.596 Y115.729 E0.1123
G1 X139.486 Y115.433 E0.13102
G1 X140.398 Y115.214 E0.14974
G1 X141.325 Y115.073 E0.16845
G1 X142.201 Y115.013 E0.18597
G1 X142.83 Y115 E0.19853
G1 X156.963 Y115.001 E0.48057
G1 X157.673 Y115.012 E0.49474
G1 X158.61 Y115.067 E0.51347
G1 X159.203 Y115.143 E0.5254
G1 X159.931 Y115.258 E0.54011
G1 X161.389 Y115.508 E0.56963
G1 X163.889 Y115.863 E0.62002
G1 X167.166 Y116.233 E0.68583
G1 X167.701 Y116.307 E0.69661
G1 X168.315 Y116.407 E0.70902
G1 X168.923 Y116.52 E0.72136
G1 X169.828 Y116.724 E0.73988
G1 X170.419 Y116.876 E0.75206
G1 X171.241 Y117.118 E0.76916
G1 X171.897 Y117.333 E0.78293
G1 X172.236 Y117.453 E0.79011
G1 X172.907 Y117.708 E0.80443
G1 X173.963 Y118.142 E0.82722
G1 X175.595 Y118.846 E0.86269
G1 X177.982 Y119.795 E0.91395
G1 X180.299 Y120.641 E0.96317
G1 X182.7 Y121.442 E1.01368
G1 X185.108 Y122.171 E1.06389
G1 X187.547 Y122.835 E1.11433
G1 X189.983 Y123.423 E1.16434
G1 X192.451 Y123.946 E1.21469
G1 X194.937 Y124.4 E1.26512
G1 X197.411 Y124.78 E1.31507
G1 X199.907 Y125.092 E1.36527
G1 X202.369 Y125.329 E1.41463
G1 X206.01 Y125.554 E1.48743
G1 X207.144 Y125.603 E1.51008
G1 X208.079 Y125.683 E1.52881
G1 X209.003 Y125.843 E1.54752
G1 X209.91 Y126.08 E1.56623
G1 X210.794 Y126.394 E1.58495
G1 X211.648 Y126.782 E1.60367
G1 X212.465 Y127.242 E1.62238
G1 X213.241 Y127.769 E1.6411
G1 X213.969 Y128.361 E1.65982
G1 X214.643 Y129.012 E1.67852
G1 X215.26 Y129.718 E1.69723
G1 X215.815 Y130.475 E1.71597
G1 X216.303 Y131.276 E1.73468
G1 X216.72 Y132.116 E1.7534
G1 X217.065 Y132.988 E1.77211
G1 X217.335 Y133.886 E1.79083
G1 X217.527 Y134.804 E1.80954
G1 X217.639 Y135.735 E1.82825
G1 X217.668 Y136.908 E1.85167
G1 X217.649 Y137.572 E1.86493
G1 X217.622 Y138.094 E1.87536
G1 X217.575 Y138.71 E1.88769
G1 X217.515 Y139.293 E1.89938
G1 X217.44 Y139.869 E1.91097
G1 X217.371 Y140.326 E1.9202
G1 X217.269 Y140.915 E1.93213
G1 X217.134 Y141.572 E1.94551
G1 X216.924 Y142.459 E1.9637
G1 X216.754 Y143.094 E1.97682
G1 X216.646 Y143.453 E1.9843
G1 X216.386 Y144.245 E2.00094
G1 X216.09 Y145.06 E2.01824
G1 X215.847 Y145.657 E2.0311
G1 X215.521 Y146.397 E2.04724
G1 X215.253 Y146.967 E2.05981
G1 X214.85 Y147.745 E2.07729
G1 X214.46 Y148.439 E2.09318
G1 X214.203 Y148.865 E2.10311
G1 X213.813 Y149.479 E2.11763
G1 X213.476 Y149.979 E2.12966
G1 X213.062 Y150.558 E2.14386
G1 X212.67 Y151.074 E2.15679
G1 X212.249 Y151.595 E2.17016
G1 X211.859 Y152.051 E2.18214
G1 X211.396 Y152.564 E2.19593
G1 X211.055 Y152.925 E2.20584
G1 X210.727 Y153.257 E2.21515
G1 X210.278 Y153.691 E2.22761
G1 X209.673 Y154.239 E2.2439
G1 X209.037 Y154.778 E2.26054
G1 X208.477 Y155.222 E2.2748
G1 X208.181 Y155.446 E2.28221
G1 X207.667 Y155.815 E2.29484
G1 X207.234 Y156.111 E2.3053
G1 X206.69 Y156.465 E2.31825
G1 X206.35 Y156.674 E2.32622
G1 X205.578 Y157.124 E2.34405
G1 X205.012 Y157.428 E2.35687
G1 X204.363 Y157.751 E2.37134
G1 X203.539 Y158.126 E2.38941
G1 X202.949 Y158.374 E2.40218
G1 X202.357 Y158.603 E2.41485
G1 X201.727 Y158.826 E2.42818
G1 X201.037 Y159.051 E2.44267
G1 X200.459 Y159.217 E2.45467
G1 X199.721 Y159.407 E2.46987
G1 X199.303 Y159.505 E2.47844
G1 X198.524 Y159.667 E2.49432
G1 X197.649 Y159.813 E2.51202
G1 X196.965 Y159.905 E2.5258
G1 X196.401 Y159.966 E2.53712
G1 X195.486 Y160.035 E2.55543
G1 X193.906 Y160.112 E2.587
G1 X193.736 Y160.126 E2.5904
G1 X192.378 Y160.189 E2.61753
G1 X189.897 Y160.375 E2.66718
G1 X187.364 Y160.637 E2.718
G1 X184.879 Y160.966 E2.76802
G1 X182.403 Y161.364 E2.81807
G1 X179.907 Y161.839 E2.86877
G1 X177.441 Y162.38 E2.91915
G1 X175.048 Y162.976 E2.96837
G1 X172.6 Y163.662 E3.0191
G1 X170.172 Y164.416 E3.06984
G1 X167.822 Y165.219 E3.1194
G1 X165.422 Y166.116 E3.17053
G1 X163.132 Y167.047 E3.21986
G1 X162.697 Y167.237 E3.22933
G1 X161.706 Y167.65 E3.25076
G1 X160.825 Y167.972 E3.26948
G1 X159.92 Y168.219 E3.2882
G1 X158.998 Y168.387 E3.3069
G1 X157.799 Y168.487 E3.33091
G1 X157.17 Y168.5 E3.34346
G1 X143.065 Y168.499 E3.62495
G1 X142.367 Y168.49 E3.63888
G1 X141.431 Y168.438 E3.65758
G1 X140.502 Y168.306 E3.67631
G1 X139.588 Y168.096 E3.69502
G1 X138.695 Y167.809 E3.71374
G1 X137.83 Y167.446 E3.73246
G1 X136.999 Y167.012 E3.75117
G1 X136.208 Y166.508 E3.76989
G1 X135.463 Y165.938 E3.78861
G1 X134.769 Y165.307 E3.80733
G1 X134.132 Y164.62 E3.82602
G1 X133.555 Y163.88 E3.84475
G1 X133.043 Y163.094 E3.86347
G1 X132.6 Y162.267 E3.88219
G1 X132.229 Y161.406 E3.9009
G1 X131.933 Y160.516 E3.91962
G1 X131.714 Y159.604 E3.93834
G1 X131.573 Y158.677 E3.95705
G1 X131.513 Y157.788 E3.97483
G1 X131.5 Y157.158 E3.9874
G1 X131.501 Y126.554 E4.59814
G1 X131.51 Y125.865 E4.61189
G1 X131.562 Y124.929 E4.6306
G1 X131.694 Y124 E4.64932
G1 X131.904 Y123.086 E4.66804
G1 X132.192 Y122.194 E4.68675
G1 X132.554 Y121.329 E4.70546
G1 X132.989 Y120.498 E4.72418
G1 X133.493 Y119.707 E4.74289
G1 X134.063 Y118.962 E4.76161
G0 F6000 X134.457 Y119.115
G1 F1200 X135.086 Y118.442 E4.78
G1 X135.771 Y117.827 E4.79837
G1 X136.506 Y117.273 E4.81673
G1 X137.287 Y116.785 E4.83511
G1 X138.107 Y116.366 E4.85349
G1 X138.96 Y116.021 E4.87185
G1 X139.84 Y115.75 E4.89023
G1 X140.74 Y115.558 E4.90859
G1 X141.654 Y115.444 E4.92697
G1 X142.212 Y115.413 E4.93813
G1 X142.83 Y115.4 E4.95046
G1 X156.957 Y115.401 E5.23238
G1 X157.667 Y115.412 E5.24655
G1 X158.586 Y115.466 E5.26492
G1 X159.141 Y115.538 E5.27609
G1 X159.71 Y115.627 E5.28758
G1 X161.303 Y115.9 E5.31984
G1 X163.859 Y116.263 E5.37136
G1 X167.121 Y116.631 E5.43687
G1 X167.637 Y116.702 E5.44726
G1 X168.251 Y116.802 E5.45968
G1 X168.847 Y116.913 E5.47177
G1 X169.737 Y117.114 E5.48998
G1 X170.316 Y117.263 E5.50191
G1 X171.126 Y117.501 E5.51876
G1 X172.097 Y117.827 E5.5392
G1 X172.755 Y118.078 E5.55325
G1 X173.616 Y118.43 E5.57182
G1 X175.437 Y119.214 E5.61138
G1 X177.833 Y120.166 E5.66283
G1 X180.183 Y121.025 E5.71276
G1 X182.552 Y121.815 E5.7626
G1 X185.002 Y122.557 E5.81369
G1 X187.453 Y123.224 E5.86438
G1 X189.878 Y123.81 E5.91416
G1 X192.396 Y124.343 E5.96553
G1 X194.842 Y124.79 E6.01515
G1 X197.377 Y125.179 E6.06633
G1 X199.855 Y125.489 E6.11616
G1 X202.334 Y125.727 E6.16586
G1 X206.02 Y125.956 E6.23956
G1 X207.127 Y126.003 E6.26167
G1 X208.044 Y126.082 E6.28004
G1 X208.951 Y126.241 E6.29842
G1 X209.841 Y126.477 E6.31679
G1 X210.707 Y126.79 E6.33517
G1 X211.542 Y127.177 E6.35353
G1 X212.341 Y127.635 E6.37191
G1 X213.097 Y128.161 E6.39029
G1 X213.804 Y128.75 E6.40866
G1 X214.458 Y129.399 E6.42704
G1 X215.053 Y130.101 E6.44541
G1 X215.584 Y130.853 E6.46378
G1 X216.049 Y131.648 E6.48216
G1 X216.442 Y132.48 E6.50052
G1 X216.763 Y133.343 E6.5189
G1 X217.006 Y134.231 E6.53727
G1 X217.172 Y135.136 E6.55563
G1 X217.259 Y136.053 E6.57401
G1 X217.269 Y136.896 E6.59084
G1 X217.25 Y137.56 E6.60409
G1 X217.223 Y138.063 E6.61414
G1 X217.176 Y138.679 E6.62647
G1 X217.118 Y139.242 E6.63777
G1 X216.977 Y140.258 E6.65824
G1 X216.875 Y140.847 E6.67017
G1 X216.745 Y141.48 E6.68306
G1 X216.535 Y142.367 E6.70125
G1 X216.371 Y142.979 E6.7139
G1 X216.263 Y143.338 E6.72138
G1 X216.007 Y144.118 E6.73776
G1 X215.715 Y144.92 E6.75479
G1 X215.481 Y145.495 E6.76718
G1 X214.997 Y146.578 E6.79085
G1 X214.726 Y147.123 E6.803
G1 X214.496 Y147.559 E6.81284
G1 X214.113 Y148.24 E6.82843
G1 X213.866 Y148.65 E6.83798
G1 X213.476 Y149.264 E6.8525
G1 X213.151 Y149.746 E6.8641
G1 X212.737 Y150.325 E6.8783
G1 X212.359 Y150.822 E6.89076
G1 X211.938 Y151.343 E6.90413
G1 X211.562 Y151.783 E6.91568
G1 X211.099 Y152.296 E6.92947
G1 X210.771 Y152.644 E6.93902
G1 X210.205 Y153.209 E6.95498
G1 X209.767 Y153.619 E6.96695
G1 X209.407 Y153.941 E6.97659
G1 X208.781 Y154.47 E6.99294
G1 X207.946 Y155.123 E7.0141
G1 X207.441 Y155.485 E7.0265
G1 X207.008 Y155.781 E7.03696
G1 X206.475 Y156.128 E7.04965
G1 X205.678 Y156.607 E7.06821
G1 X205.129 Y156.914 E7.08076
G1 X204.518 Y157.231 E7.0945
G1 X203.754 Y157.593 E7.11137
G1 X202.794 Y158.005 E7.13222
G1 X202.224 Y158.225 E7.14441
G1 X201.594 Y158.448 E7.15775
G1 X200.917 Y158.669 E7.17196
G1 X200.359 Y158.829 E7.18355
G1 X199.621 Y159.019 E7.19875
G1 X199.219 Y159.114 E7.207
G1 X198.454 Y159.273 E7.22259
G1 X197.596 Y159.416 E7.23995
G1 X196.912 Y159.508 E7.25372
G1 X196.368 Y159.567 E7.26464
G1 X195.467 Y159.635 E7.28267
G1 X194.013 Y159.706 E7.31172
G1 X193.717 Y159.727 E7.31764
G1 X192.33 Y159.791 E7.34535
G1 X189.862 Y159.976 E7.39474
G1 X187.303 Y160.241 E7.44608
G1 X184.834 Y160.567 E7.49578
G1 X182.336 Y160.97 E7.54628
G1 X179.818 Y161.449 E7.59743
G1 X177.364 Y161.988 E7.64757
G1 X174.949 Y162.589 E7.69723
G1 X172.478 Y163.281 E7.74844
G1 X170.06 Y164.031 E7.79896
G1 X167.669 Y164.849 E7.84939
G1 X165.298 Y165.735 E7.8999
G1 X162.951 Y166.689 E7.95046
G1 X162.355 Y166.948 E7.96343
G1 X161.553 Y167.281 E7.98076
G1 X160.688 Y167.596 E7.99913
G1 X159.799 Y167.836 E8.01751
G1 X158.893 Y167.998 E8.03587
G1 X157.788 Y168.087 E8.058
G1 X157.17 Y168.1 E8.07033
G1 X143.07 Y168.099 E8.35171
G1 X142.372 Y168.09 E8.36564
G1 X141.453 Y168.038 E8.38401
G1 X140.542 Y167.907 E8.40238
G1 X139.646 Y167.697 E8.42074
G1 X138.771 Y167.41 E8.43912
G1 X137.924 Y167.048 E8.4575
G1 X137.112 Y166.614 E8.47588
G1 X136.341 Y166.112 E8.49424
G1 X135.616 Y165.544 E8.51262
G1 X134.943 Y164.915 E8.531
G1 X134.328 Y164.231 E8.54936
G1 X133.774 Y163.496 E8.56772
G1 X133.286 Y162.715 E8.5861
G1 X132.867 Y161.895 E8.60448
G1 X132.521 Y161.042 E8.62285
G1 X132.251 Y160.162 E8.64122
G1 X132.058 Y159.261 E8.65961
G1 X131.944 Y158.348 E8.67797
G1 X131.913 Y157.777 E8.68938
G1 X131.9 Y157.158 E8.70173
G1 X131.901 Y126.56 E9.31235
G1 X131.91 Y125.871 E9.3261
G1 X131.962 Y124.951 E9.34449
G1 X132.093 Y124.04 E9.36286
G1 X132.304 Y123.144 E9.38123
G1 X132.591 Y122.269 E9.3996
G1 X132.953 Y121.423 E9.41797
G1 X133.387 Y120.611 E9.43634
G1 X133.889 Y119.839 E9.45472
G1 X134.457 Y119.115 E9.47308
G0 F6000 X134.851 Y119.271
G1 F1200 X135.477 Y118.62 E9.4911
G1 X136.159 Y118.027 E9.50914
G1 X136.89 Y117.497 E9.52716
G1 X137.664 Y117.033 E9.54517
G1 X138.477 Y116.64 E9.56319
G1 X139.322 Y116.32 E9.58122
G1 X140.192 Y116.076 E9.59925
G1 X141.079 Y115.91 E9.61726
G1 X142.223 Y115.813 E9.64017
G1 X142.83 Y115.8 E9.65229
G1 X156.951 Y115.801 E9.93409
G1 X157.661 Y115.812 E9.94826
G1 X158.563 Y115.866 E9.96629
G1 X159.079 Y115.934 E9.97668
G1 X159.796 Y116.047 E9.99116
G1 X161.283 Y116.302 E10.02127
G1 X163.755 Y116.653 E10.0711
G1 X167.076 Y117.028 E10.13779
G1 X167.573 Y117.097 E10.1478
G1 X168.187 Y117.197 E10.16022
G1 X168.77 Y117.305 E10.17205
G1 X169.646 Y117.503 E10.18997
G1 X170.213 Y117.649 E10.20166
G1 X170.54 Y117.742 E10.20844
G1 X171.303 Y117.977 E10.22437
G1 X171.957 Y118.202 E10.23818
G1 X172.604 Y118.449 E10.252
G1 X173.646 Y118.877 E10.27448
G1 X175.285 Y119.584 E10.3101
G1 X177.697 Y120.543 E10.3619
G1 X180.025 Y121.393 E10.41136
G1 X182.458 Y122.205 E10.46254
G1 X184.886 Y122.94 E10.51317
G1 X187.327 Y123.604 E10.56365
G1 X189.807 Y124.203 E10.61456
G1 X192.313 Y124.734 E10.66568
G1 X194.78 Y125.185 E10.71573
G1 X197.298 Y125.572 E10.76657
G1 X199.839 Y125.889 E10.81767
G1 X202.329 Y126.128 E10.86759
G1 X205.927 Y126.351 E10.93953
G1 X207.11 Y126.402 E10.96316
G1 X208.01 Y126.481 E10.98119
G1 X208.899 Y126.639 E10.99921
G1 X209.771 Y126.875 E11.01724
G1 X210.618 Y127.187 E11.03525
G1 X211.435 Y127.573 E11.05328
G1 X212.214 Y128.029 E11.0713
G1 X212.95 Y128.553 E11.08933
G1 X213.636 Y129.14 E11.10734
G1 X214.268 Y129.785 E11.12536
G1 X214.841 Y130.483 E11.14339
G1 X215.349 Y131.23 E11.16141
G1 X215.789 Y132.018 E11.17942
G1 X216.158 Y132.842 E11.19744
G1 X216.453 Y133.696 E11.21547
G1 X216.671 Y134.572 E11.23349
G1 X216.81 Y135.465 E11.25152
G1 X216.87 Y136.366 E11.26954
G1 X216.869 Y136.885 E11.2799
G1 X216.85 Y137.549 E11.29316
G1 X216.824 Y138.033 E11.30283
G1 X216.777 Y138.649 E11.31516
G1 X216.722 Y139.19 E11.32601
G1 X216.647 Y139.766 E11.3376
G1 X216.48 Y140.778 E11.35807
G1 X216.356 Y141.388 E11.37049
G1 X216.146 Y142.275 E11.38868
G1 X215.988 Y142.863 E11.40083
G1 X215.787 Y143.516 E11.41447
G1 X215.628 Y143.992 E11.42448
G1 X215.34 Y144.781 E11.44124
G1 X215.115 Y145.334 E11.45316
G1 X214.637 Y146.404 E11.47654
G1 X214.373 Y146.936 E11.4884
G1 X214.143 Y147.372 E11.49823
G1 X213.766 Y148.041 E11.51356
G1 X213.528 Y148.436 E11.52276
G1 X213.138 Y149.05 E11.53728
G1 X212.825 Y149.514 E11.54845
G1 X212.411 Y150.093 E11.56265
G1 X212.048 Y150.571 E11.57463
G1 X211.627 Y151.092 E11.588
G1 X211.265 Y151.515 E11.59911
G1 X210.802 Y152.028 E11.6129
G1 X210.486 Y152.363 E11.62209
G1 X209.929 Y152.919 E11.63779
G1 X209.5 Y153.321 E11.64953
G1 X209.14 Y153.643 E11.65916
G1 X208.525 Y154.163 E11.67524
G1 X207.71 Y154.8 E11.69588
G1 X207.215 Y155.155 E11.70804
G1 X206.782 Y155.451 E11.7185
G1 X206.259 Y155.791 E11.73095
G1 X205.474 Y156.263 E11.74923
G1 X204.936 Y156.564 E11.76153
G1 X204.337 Y156.874 E11.77499
G1 X203.585 Y157.231 E11.7916
G1 X202.639 Y157.636 E11.81214
G1 X202.091 Y157.848 E11.82387
G1 X201.461 Y158.071 E11.8372
G1 X200.796 Y158.288 E11.85116
G1 X200.259 Y158.442 E11.86231
G1 X199.521 Y158.632 E11.87752
G1 X199.134 Y158.723 E11.88545
G1 X198.383 Y158.879 E11.90076
G1 X197.543 Y159.02 E11.91776
G1 X196.859 Y159.112 E11.93153
G1 X196.335 Y159.169 E11.94205
G1 X195.448 Y159.236 E11.9598
G1 X193.814 Y159.315 E11.99245
G1 X193.699 Y159.327 E11.99475
G1 X192.351 Y159.39 E12.02168
G1 X189.792 Y159.581 E12.07289
G1 X187.281 Y159.841 E12.12327
G1 X184.749 Y160.176 E12.17424
G1 X182.275 Y160.574 E12.22425
G1 X179.729 Y161.058 E12.27596
G1 X177.288 Y161.595 E12.32584
G1 X174.841 Y162.204 E12.37616
G1 X172.356 Y162.9 E12.42766
G1 X169.928 Y163.653 E12.47839
G1 X167.537 Y164.471 E12.52882
G1 X165.156 Y165.361 E12.57955
G1 X162.821 Y166.31 E12.62985
G1 X162.377 Y166.504 E12.63952
G1 X161.399 Y166.911 E12.66066
G1 X160.551 Y167.22 E12.67867
G1 X159.678 Y167.453 E12.6967
G1 X158.788 Y167.608 E12.71473
G1 X157.777 Y167.687 E12.73497
G1 X157.17 Y167.7 E12.74708
G1 X143.075 Y167.699 E13.02836
G1 X142.377 Y167.69 E13.04229
G1 X141.476 Y167.639 E13.0603
G1 X140.582 Y167.507 E13.07834
G1 X139.704 Y167.298 E13.09635
G1 X138.847 Y167.011 E13.11438
G1 X138.02 Y166.65 E13.13239
G1 X137.227 Y166.217 E13.15042
G1 X136.476 Y165.716 E13.16844
G1 X135.772 Y165.15 E13.18646
G1 X135.121 Y164.524 E13.20449
G1 X134.528 Y163.843 E13.22251
G1 X133.998 Y163.112 E13.24053
G1 X133.534 Y162.337 E13.25855
G1 X133.14 Y161.524 E13.27658
G1 X132.82 Y160.68 E13.29459
G1 X132.576 Y159.81 E13.31263
G1 X132.41 Y158.922 E13.33065
G1 X132.313 Y157.767 E13.35378
G1 X132.3 Y157.158 E13.36594
G1 X132.301 Y126.565 E13.97646
G1 X132.31 Y125.876 E13.99021
G1 X132.362 Y124.974 E14.00824
G1 X132.493 Y124.081 E14.02625
G1 X132.703 Y123.202 E14.04428
G1 X132.989 Y122.346 E14.0623
G1 X133.351 Y121.518 E14.08033
G1 X133.784 Y120.726 E14.09834
G1 X134.285 Y119.975 E14.11636
G1 X134.851 Y119.271 E14.13438
G1 F1500 E7.63438
G1 F300 Z0.32
;MESH:dot8ThickSquare.stl
G0 F6000 X143.9 Y139.6 Z0.32
;TYPE:WALL-INNER
G1 F300 Z0.12
G1 F1500 E14.13438
G1 F1200 X156.1 Y139.6 E14.37785
G1 X156.1 Y133.5 E14.49958
G1 X156.1 Y127.4 E14.62131
G1 X143.9 Y127.4 E14.86478
G1 X143.9 Y139.6 E15.10824
G0 F6000 X143.5 Y140
