;FLAVOR:Marlin
;TIME:3756
;Filament used: 1.13134m
;Layer height: 0.12
;MINX:141.477
;MINY:116.338
;MINZ:0.12
;MAXX:203.661
;MAXY:185.175
;MAXZ:5.16
;Generated with Cura_SteamEngine 5.2.2
M140 S60
M105
M190 S60
M104 S200
M105
M109 S200
M82 ;absolute extrusion mode
; Ender 3 Max Custom Start G-code
G92 E0 ; Reset Extruder
G28 ; Home all axes
G1 Z2.0 F3000 ; Move Z Axis up little to prevent scratching of Heat Bed
G1 X0.1 Y20 Z0.3 F5000.0 ; Move to start position
G1 X0.1 Y200.0 Z0.3 F1500.0 E15 ; Draw the first line
G1 X0.4 Y200.0 Z0.3 F5000.0 ; Move to side a little
G1 X0.4 Y20 Z0.3 F1500.0 E30 ; Draw the second line
G92 E0 ; Reset Extruder
G1 Z2.0 F3000 ; Move Z Axis up little to prevent scratching of Heat Bed
G1 X5 Y20 Z0.3 F5000.0 ; Move over to prevent blob squish
G92 E0
G92 E0
G1 F1500 E-6.5
;LAYER_COUNT:43
;LAYER:0
M107
G0 F6000 X148.883 Y116.664 Z0.12
;TYPE:SKIRT
G1 F1500 E0
G1 F1200 X149.101 Y116.484 E0.00564
G1 X149.359 Y116.372 E0.01125
G1 X149.685 Y116.338 E0.0178
G1 X150.381 Y116.381 E0.03171
G1 X152.197 Y116.546 E0.0681
G1 X154.925 Y116.755 E0.1227
G1 X156.904 Y116.88 E0.16227
G1 X157.631 Y116.947 E0.17684
G1 X158.443 Y117.114 E0.19339
G1 X161.206 Y117.645 E0.24953
G1 X163.977 Y118.097 E0.30556
G1 X166.733 Y118.466 E0.36105
G1 X169.546 Y118.762 E0.4175
G1 X172.317 Y118.975 E0.47296
G1 X175.119 Y119.111 E0.52894
G1 X177.926 Y119.168 E0.58497
G1 X180.733 Y119.145 E0.64099
G1 X183.503 Y119.044 E0.6963
G1 X186.305 Y118.862 E0.75234
G1 X189.1 Y118.602 E0.80836
G1 X191.893 Y118.262 E0.86451
G1 X194.729 Y117.84 E0.92172
G1 X195.523 Y117.89 E0.9376
G1 X197.33 Y118.054 E0.97381
G1 X200.132 Y118.268 E1.02989
G1 X202.02 Y118.386 E1.06764
G1 X202.719 Y118.448 E1.08164
G1 X202.994 Y118.512 E1.08728
G1 X203.24 Y118.651 E1.09292
G1 X203.437 Y118.852 E1.09853
G1 X203.57 Y119.101 E1.10417
G1 X203.638 Y119.445 E1.11117
G1 X203.661 Y123.698 E1.19604
G1 X203.649 Y124.965 E1.22133
G1 X203.608 Y126.698 E1.25592
G1 X203.604 Y128.36 E1.28909
G1 X203.588 Y128.701 E1.2959
G1 X203.26 Y132.997 E1.38188
G1 X203.158 Y134.117 E1.40432
G1 X202.942 Y136.923 E1.46049
G1 X202.881 Y137.951 E1.48104
G1 X202.207 Y146.791 E1.65796
G1 X202.141 Y147.512 E1.67241
G1 X201.828 Y150.474 E1.73185
G1 X201.615 Y153.266 E1.78773
G1 X201.48 Y156.093 E1.84421
G1 X201.425 Y158.891 E1.90005
G1 X201.45 Y161.691 E1.95593
G1 X201.546 Y164.347 E2.00897
G1 X201.513 Y164.997 E2.02196
G1 X201.198 Y169.141 E2.1049
G1 X201.133 Y169.859 E2.11928
G1 X200.995 Y170.85 E2.13925
G1 X200.792 Y172.151 E2.16553
G1 X200.44 Y174.929 E2.22141
G1 X200.136 Y178.103 E2.28504
G1 X200.054 Y179.122 E2.30544
G1 X199.997 Y179.643 E2.3159
G1 X199.843 Y180.238 E2.32817
G1 X199.696 Y180.749 E2.33878
G1 X199.414 Y181.37 E2.35239
G1 X199.195 Y181.817 E2.36232
G1 X198.848 Y182.326 E2.37461
G1 X198.528 Y182.767 E2.38549
G1 X198.062 Y183.245 E2.39881
G1 X197.704 Y183.591 E2.40874
G1 X197.168 Y183.979 E2.42195
G1 X196.759 Y184.257 E2.43182
G1 X196.17 Y184.544 E2.44489
G1 X195.701 Y184.756 E2.45517
G1 X195.047 Y184.945 E2.46875
G1 X194.593 Y185.062 E2.47811
G1 X193.908 Y185.136 E2.49186
G1 X193.427 Y185.175 E2.50149
G1 X192.75 Y185.13 E2.51503
G1 X192.261 Y185.084 E2.52483
G1 X190.668 Y184.698 E2.55754
G1 X187.948 Y184.08 E2.6132
G1 X185.164 Y183.531 E2.66983
G1 X182.419 Y183.07 E2.72538
G1 X179.671 Y182.686 E2.78075
G1 X176.885 Y182.378 E2.83668
G1 X174.085 Y182.148 E2.89275
G1 X171.283 Y181.999 E2.94875
G1 X168.477 Y181.927 E3.00476
G1 X165.702 Y181.936 E3.06014
G1 X162.875 Y182.024 E3.11658
G1 X160.098 Y182.189 E3.1721
G1 X157.3 Y182.436 E3.22815
G1 X154.537 Y182.758 E3.28366
G1 X151.749 Y183.164 E3.33989
G1 X150.812 Y183.329 E3.35888
G1 X150.755 Y183.331 E3.36001
G1 X149.385 Y183.559 E3.38773
G1 X148.76 Y183.627 E3.40028
G1 X148.277 Y183.666 E3.40995
G1 X147.621 Y183.622 E3.42307
G1 X147.1 Y183.572 E3.43351
G1 X146.471 Y183.419 E3.44643
G1 X145.992 Y183.288 E3.45634
G1 X145.361 Y183.012 E3.47008
G1 X144.92 Y182.803 E3.47982
G1 X144.383 Y182.448 E3.49267
G1 X143.957 Y182.149 E3.50306
G1 X143.508 Y181.724 E3.51539
G1 X143.131 Y181.346 E3.52605
G1 X142.714 Y180.789 E3.53993
G1 X142.44 Y180.399 E3.54944
G1 X142.141 Y179.805 E3.56272
G1 X141.929 Y179.353 E3.57268
G1 X141.734 Y178.709 E3.58611
G1 X141.605 Y178.24 E3.59581
G1 X141.523 Y177.564 E3.6094
G1 X141.477 Y177.073 E3.61924
G1 X141.51 Y176.436 E3.63197
G1 X141.55 Y175.928 E3.64214
G1 X142.136 Y173.162 E3.69857
G1 X142.643 Y170.38 E3.755
G1 X143.13 Y167.144 E3.8203
G1 X144.921 Y154.839 E4.06845
G1 X145.283 Y152.077 E4.12404
G1 X145.569 Y149.28 E4.18015
G1 X145.846 Y145.186 E4.26204
G1 X145.866 Y144.764 E4.27047
G1 X146.547 Y135.85 E4.44887
G1 X146.65 Y134.711 E4.4717
G1 X146.862 Y131.926 E4.52743
G1 X146.897 Y131.301 E4.53993
G1 X147.241 Y126.758 E4.63085
G1 X147.315 Y125.952 E4.647
G1 X147.507 Y124.658 E4.6731
G1 X147.512 Y124.562 E4.67502
G1 X147.666 Y123.557 E4.69531
G1 X148.014 Y121.037 E4.74608
G1 X148.525 Y117.827 E4.81095
G1 X148.639 Y117.166 E4.82433
G1 X148.725 Y116.898 E4.82995
G1 X148.883 Y116.664 E4.83558
G0 F6000 X149.252 Y116.865
G1 F1200 X149.445 Y116.763 E4.83994
G1 X149.661 Y116.737 E4.84428
G1 X150.345 Y116.779 E4.85796
G1 X152.161 Y116.945 E4.89435
G1 X154.895 Y117.154 E4.94907
G1 X156.868 Y117.279 E4.98852
G1 X157.61 Y117.35 E5.00339
G1 X158.375 Y117.509 E5.01899
G1 X161.129 Y118.038 E5.07495
G1 X163.904 Y118.49 E5.13106
G1 X166.701 Y118.865 E5.18737
G1 X169.504 Y119.16 E5.24362
G1 X172.301 Y119.376 E5.2996
G1 X175.098 Y119.511 E5.35549
G1 X177.921 Y119.568 E5.41183
G1 X180.72 Y119.545 E5.46769
G1 X183.542 Y119.442 E5.52405
G1 X186.352 Y119.26 E5.58024
G1 X189.134 Y119.002 E5.636
G1 X191.941 Y118.66 E5.69243
G1 X194.749 Y118.242 E5.74908
G1 X195.487 Y118.288 E5.76384
G1 X197.294 Y118.453 E5.80005
G1 X200.102 Y118.667 E5.85625
G1 X201.985 Y118.784 E5.8939
G1 X202.684 Y118.846 E5.9079
G1 X202.894 Y118.905 E5.91225
G1 X203.07 Y119.035 E5.91662
G1 X203.187 Y119.218 E5.92095
G1 X203.238 Y119.453 E5.92575
G1 X203.261 Y123.694 E6.01039
G1 X203.249 Y124.955 E6.03555
G1 X203.208 Y126.688 E6.07015
G1 X203.204 Y128.342 E6.10316
G1 X203.189 Y128.671 E6.10973
G1 X202.862 Y132.96 E6.19557
G1 X202.759 Y134.08 E6.21801
G1 X202.543 Y136.892 E6.27429
G1 X202.482 Y137.921 E6.29487
G1 X201.809 Y146.755 E6.47167
G1 X201.744 Y147.47 E6.486
G1 X201.428 Y150.461 E6.54602
G1 X201.214 Y153.264 E6.60212
G1 X201.081 Y156.057 E6.65792
G1 X201.025 Y158.883 E6.71432
G1 X201.05 Y161.678 E6.7701
G1 X201.147 Y164.361 E6.82368
G1 X201.114 Y164.966 E6.83577
G1 X200.8 Y169.105 E6.91861
G1 X200.735 Y169.823 E6.93299
G1 X200.6 Y170.789 E6.95246
G1 X200.397 Y172.09 E6.97874
G1 X200.043 Y174.879 E7.03484
G1 X199.736 Y178.08 E7.09901
G1 X199.656 Y179.079 E7.11901
G1 X199.592 Y179.608 E7.12965
G1 X199.458 Y180.127 E7.14034
G1 X199.318 Y180.611 E7.1504
G1 X199.042 Y181.22 E7.16374
G1 X198.827 Y181.647 E7.17328
G1 X198.508 Y182.114 E7.18457
G1 X198.225 Y182.504 E7.19418
G1 X197.784 Y182.957 E7.2068
G1 X197.414 Y183.307 E7.21696
G1 X196.943 Y183.648 E7.22857
G1 X196.592 Y183.887 E7.23704
G1 X196.005 Y184.18 E7.25014
G1 X195.605 Y184.361 E7.2589
G1 X194.947 Y184.557 E7.2726
G1 X194.474 Y184.673 E7.28232
G1 X193.875 Y184.737 E7.29434
G1 X193.38 Y184.771 E7.30424
G1 X192.787 Y184.731 E7.3161
G1 X192.285 Y184.678 E7.32617
G1 X190.771 Y184.311 E7.35726
G1 X188.03 Y183.689 E7.41335
G1 X185.237 Y183.138 E7.47017
G1 X182.483 Y182.675 E7.5259
G1 X179.702 Y182.287 E7.58193
G1 X176.921 Y181.979 E7.63777
G1 X174.105 Y181.748 E7.69415
G1 X171.311 Y181.599 E7.74999
G1 X168.486 Y181.527 E7.80638
G1 X165.69 Y181.536 E7.86218
G1 X162.863 Y181.624 E7.91862
G1 X160.073 Y181.79 E7.9744
G1 X157.256 Y182.039 E8.03084
G1 X154.479 Y182.362 E8.08663
G1 X151.688 Y182.768 E8.14291
G1 X150.742 Y182.935 E8.16208
G1 X150.702 Y182.935 E8.16288
G1 X149.376 Y183.157 E8.18971
G1 X148.728 Y183.228 E8.20272
G1 X148.231 Y183.262 E8.21266
G1 X147.66 Y183.224 E8.22408
G1 X147.128 Y183.167 E8.23476
G1 X146.577 Y183.034 E8.24607
G1 X146.169 Y182.922 E8.25451
G1 X145.533 Y182.651 E8.26831
G1 X145.083 Y182.431 E8.27831
G1 X144.613 Y182.121 E8.28954
G1 X144.215 Y181.841 E8.29925
G1 X143.791 Y181.442 E8.31087
G1 X143.462 Y181.112 E8.32017
G1 X143.041 Y180.559 E8.33404
G1 X142.786 Y180.196 E8.34289
G1 X142.503 Y179.635 E8.35543
G1 X142.304 Y179.212 E8.36476
G1 X142.119 Y178.603 E8.37746
G1 X141.999 Y178.168 E8.38647
G1 X141.923 Y177.545 E8.39899
G1 X141.881 Y177.022 E8.40946
G1 X141.909 Y176.467 E8.42055
G1 X141.955 Y175.945 E8.43101
G1 X142.533 Y173.217 E8.48666
G1 X143.037 Y170.451 E8.54277
G1 X143.525 Y167.207 E8.60823
G1 X145.316 Y154.897 E8.85648
G1 X145.683 Y152.101 E8.91275
G1 X145.967 Y149.32 E8.96854
G1 X146.246 Y145.213 E9.05069
G1 X146.265 Y144.794 E9.05906
G1 X146.945 Y135.886 E9.23734
G1 X147.049 Y134.747 E9.26017
G1 X147.263 Y131.935 E9.31645
G1 X147.296 Y131.332 E9.3285
G1 X147.639 Y126.793 E9.41934
G1 X147.71 Y126.011 E9.43501
G1 X147.911 Y124.657 E9.46233
G1 X147.907 Y124.623 E9.46301
G1 X148.064 Y123.603 E9.4836
G1 X148.409 Y121.1 E9.53403
G1 X148.919 Y117.895 E9.59879
G1 X149.033 Y117.234 E9.61218
G1 X149.108 Y117.029 E9.61653
G1 X149.252 Y116.865 E9.62089
G0 F6000 X149.486 Y117.192
G1 F1200 X149.636 Y117.136 E9.62408
G1 X150.309 Y117.178 E9.63754
G1 X152.125 Y117.343 E9.67393
G1 X154.87 Y117.553 E9.72887
G1 X156.831 Y117.677 E9.76808
G1 X157.529 Y117.742 E9.78207
G1 X158.294 Y117.9 E9.79766
G1 X161.069 Y118.434 E9.85405
G1 X163.851 Y118.887 E9.9103
G1 X166.649 Y119.262 E9.96664
G1 X169.462 Y119.558 E10.02308
G1 X172.271 Y119.774 E10.07931
G1 X175.096 Y119.911 E10.13575
G1 X177.916 Y119.968 E10.19204
G1 X180.735 Y119.945 E10.24829
G1 X183.555 Y119.842 E10.30461
G1 X186.378 Y119.659 E10.36106
G1 X189.183 Y119.398 E10.41728
G1 X191.99 Y119.056 E10.47371
G1 X194.784 Y118.645 E10.53007
G1 X195.451 Y118.687 E10.54341
G1 X197.258 Y118.851 E10.57961
G1 X200.077 Y119.066 E10.63603
G1 X201.95 Y119.183 E10.67348
G1 X202.649 Y119.245 E10.68749
G1 X202.763 Y119.294 E10.68996
G1 X202.838 Y119.45 E10.69342
G1 X202.861 Y123.69 E10.77803
G1 X202.849 Y124.946 E10.8031
G1 X202.808 Y126.679 E10.83769
G1 X202.805 Y128.324 E10.87052
G1 X202.79 Y128.64 E10.87683
G1 X202.463 Y132.924 E10.96258
G1 X202.361 Y134.044 E10.98502
G1 X202.145 Y136.858 E11.04134
G1 X202.083 Y137.89 E11.06197
G1 X201.41 Y146.719 E11.23868
G1 X201.346 Y147.428 E11.25288
G1 X201.03 Y150.419 E11.3129
G1 X200.816 Y153.228 E11.36912
G1 X200.681 Y156.055 E11.4256
G1 X200.625 Y158.875 E11.48189
G1 X200.65 Y161.693 E11.53813
G1 X200.747 Y164.395 E11.59208
G1 X200.715 Y164.936 E11.6029
G1 X200.401 Y169.069 E11.68561
G1 X200.335 Y169.797 E11.7002
G1 X200.205 Y170.727 E11.71894
G1 X200.001 Y172.028 E11.74522
G1 X199.646 Y174.828 E11.80155
G1 X199.338 Y178.042 E11.86598
G1 X199.259 Y179.035 E11.88586
G1 X199.205 Y179.509 E11.89538
G1 X199.074 Y180.016 E11.90583
G1 X198.937 Y180.484 E11.91556
G1 X198.683 Y181.045 E11.92785
G1 X198.511 Y181.397 E11.93567
G1 X198.184 Y181.879 E11.94729
G1 X197.925 Y182.236 E11.95609
G1 X197.506 Y182.67 E11.96813
G1 X197.201 Y182.965 E11.9766
G1 X196.718 Y183.317 E11.98853
G1 X196.342 Y183.571 E11.99758
G1 X195.84 Y183.815 E12.00872
G1 X195.414 Y184.006 E12.01804
G1 X194.848 Y184.17 E12.0298
G1 X194.431 Y184.275 E12.03838
G1 X193.843 Y184.338 E12.05018
G1 X193.406 Y184.372 E12.05893
G1 X192.824 Y184.333 E12.07057
G1 X192.407 Y184.294 E12.07892
G1 X190.86 Y183.921 E12.11068
G1 X188.102 Y183.295 E12.16712
G1 X185.309 Y182.744 E12.22393
G1 X182.554 Y182.281 E12.27968
G1 X179.759 Y181.891 E12.336
G1 X176.948 Y181.58 E12.39244
G1 X174.14 Y181.35 E12.44866
G1 X171.315 Y181.199 E12.50512
G1 X168.495 Y181.127 E12.56141
G1 X165.677 Y181.136 E12.61765
G1 X162.856 Y181.224 E12.67397
G1 X160.032 Y181.392 E12.73043
G1 X157.226 Y181.64 E12.78664
G1 X154.416 Y181.967 E12.8431
G1 X151.625 Y182.373 E12.89938
G1 X150.673 Y182.541 E12.91867
G1 X150.649 Y182.538 E12.91916
G1 X149.299 Y182.764 E12.94647
G1 X148.696 Y182.829 E12.95858
G1 X148.257 Y182.863 E12.96736
G1 X147.698 Y182.826 E12.97854
G1 X147.25 Y182.783 E12.98752
G1 X146.683 Y182.648 E12.99916
G1 X146.275 Y182.536 E13.0076
G1 X145.704 Y182.29 E13.02001
G1 X145.327 Y182.111 E13.02834
G1 X144.843 Y181.794 E13.03988
G1 X144.457 Y181.52 E13.04933
G1 X144.074 Y181.159 E13.05983
G1 X143.727 Y180.808 E13.06968
G1 X143.368 Y180.329 E13.08163
G1 X143.123 Y179.977 E13.09018
G1 X142.865 Y179.465 E13.10163
G1 X142.684 Y179.08 E13.11012
G1 X142.505 Y178.497 E13.12229
G1 X142.391 Y178.075 E13.13101
G1 X142.32 Y177.49 E13.14277
G1 X142.28 Y177.042 E13.15175
G1 X142.308 Y176.498 E13.16262
G1 X142.346 Y176.028 E13.17203
G1 X142.924 Y173.3 E13.22767
G1 X143.43 Y170.523 E13.28401
G1 X143.921 Y167.263 E13.3498
G1 X145.712 Y154.954 E13.59802
G1 X146.08 Y152.153 E13.6544
G1 X146.366 Y149.351 E13.71061
G1 X146.644 Y145.24 E13.79283
G1 X146.664 Y144.825 E13.80112
G1 X147.344 Y135.922 E13.97931
G1 X147.447 Y134.783 E14.00213
G1 X147.661 Y131.97 E14.05843
G1 X147.695 Y131.362 E14.07058
G1 X148.038 Y126.829 E14.1613
G1 X148.106 Y126.07 E14.17651
G1 X148.304 Y124.736 E14.20342
G1 X148.302 Y124.684 E14.20446
G1 X148.459 Y123.664 E14.22506
G1 X148.804 Y121.163 E14.27544
G1 X149.313 Y117.963 E14.3401
G1 X149.427 Y117.302 E14.35349
G1 X149.486 Y117.192 E14.35598
G1 F1500 E7.85598
;MESH:B1-arm-forearm-right.STL
G0 F6000 X149.965 Y117.768
G0 X149.843 Y121.428
G1 F1500 E14.35598
G0 F6000 X149.589 Y121.631
;TYPE:WALL-INNER
G1 F975.6 X150.103 Y121.67 E14.36863
G1 X150.118 Y121.42 E14.37478
G1 F1050.3 X150.238 Y119.999 E14.40729
G1 F1240.3 X150.358 Y118.578 E14.43483
G1 F941.2 X150.225 Y118.171 E14.44572
G1 X150.008 Y118.541 E14.45664
G1 F1240.3 X149.82 Y119.954 E14.48416
G1 F1050.3 X149.631 Y121.368 E14.51668
G1 F975.6 X149.589 Y121.631 E14.52322
G0 F6000 X149.843 Y121.428
G0 X150.27 Y121.86
G0 X150.522 Y122.149
;TYPE:WALL-OUTER
G1 F1200 X150.762 Y118.138 E14.60341
G1 X150.794 Y117.617 E14.61383
G1 X149.784 Y117.541 E14.63404
G1 X149.072 Y122.039 E14.72492
G1 X150.522 Y122.149 E14.75394
G1 F1500 E8.25394
G0 F6000 X150.27 Y121.86
G0 X150.339 Y121.564
G0 X151.42 Y121.628
G0 X155.048 Y122.002
G0 X156.126 Y122.101
G0 X156.595 Y121.942
G1 F1500 E14.75394
G0 F6000 X156.351 Y122.148
;TYPE:WALL-INNER
G1 F973.6 X156.868 Y122.187 E14.76669
G1 X156.867 Y121.92 E14.77326
G1 F1023.5 X156.885 Y120.956 E14.79582
G1 F1134.8 X156.904 Y119.992 E14.81616
G1 F1273.2 X156.923 Y119.028 E14.8343
G1 F937.5 X156.763 Y118.63 E14.84526
G1 X156.571 Y119.013 E14.8562
G1 F1273.2 X156.506 Y119.975 E14.87434
G1 F1134.8 X156.441 Y120.937 E14.89468
G1 F1023.5 X156.375 Y121.899 E14.91725
G1 F973.6 X156.351 Y122.148 E14.9234
G0 F6000 X155.865 Y122.558
;TYPE:WALL-OUTER
G1 F1200 X157.316 Y122.668 E14.95244
G1 X157.297 Y118.604 E15.03354
G1 X157.294 Y118.113 E15.04334
G1 X156.283 Y118.036 E15.06357
G1 X155.865 Y122.558 E15.1542
G1 F1500 E8.6542
G0 F6000 X156.158 Y122.31
G0 X156.409 Y122.38
G0 X156.327 Y123.46
G0 X156.13 Y126.038
G0 X156.049 Y127.119
G0 X155.749 Y131.104
G1 F1500 E15.1542
G0 F6000 X155.456 Y131.351
;TYPE:WALL-INNER
G1 F1200 X156.511 Y131.431 E15.17531
G1 X156.784 Y127.859 E15.2468
G1 X156.822 Y127.36 E15.25679
G1 X155.832 Y127.285 E15.2766
G1 X155.456 Y131.351 E15.35809
G0 F6000 X156.028 Y130.868
G1 F766.8 X156.285 Y127.821 E15.45359
G1 F1500 E8.95359
G0 F6000 X156.631 Y131.572
G1 F1500 E15.45359
G0 F6000 X156.88 Y131.861
;TYPE:WALL-OUTER
G1 F1200 X157.183 Y127.889 E15.53309
G1 X157.252 Y126.991 E15.55106
G1 X155.47 Y126.856 E15.58672
G1 X155.02 Y131.72 E15.68421
G1 X156.88 Y131.861 E15.72143
G0 F6000 X155.952 Y130.906
G1 F1500 E9.22143
G0 F6000 X155.29 Y131.165
G0 X154.211 Y131.066
G0 X150.859 Y130.895
G0 X149.778 Y130.831
G0 X149.339 Y130.614
G1 F1500 E15.72143
G0 F6000 X149.592 Y130.904
;TYPE:WALL-INNER
G1 F1200 X149.806 Y127.319 E15.7931
G1 X149.836 Y126.828 E15.80292
G1 X148.847 Y126.752 E15.82271
G1 X148.535 Y130.824 E15.90421
G1 X149.592 Y130.904 E15.92536
G0 F6000 X149.967 Y131.334
;TYPE:WALL-OUTER
G1 F1200 X150.206 Y127.343 E16.00515
G1 X150.259 Y126.458 E16.02284
G1 X148.478 Y126.322 E16.05849
G1 X148.106 Y131.192 E16.15596
G1 X149.967 Y131.334 E16.19321
G0 F6000 X149.714 Y131.044
G0 X149.099 Y130.34
