;FLAVOR:Marlin
;TIME:4476
;Filament used: 1.18051m
;Layer height: 0.12
;MINX:103.613
;MINY:114.289
;MINZ:0.12
;MAXX:190.995
;MAXY:170.445
;MAXZ:8
;Generated with Cura_SteamEngine 5.2.2
M140 S60
M105
M190 S60
M104 S200
M105
M109 S200
M82 ;absolute extrusion mode
; Ender 3 Max Custom Start G-code
G92 E0 ; Reset Extruder
G28 ; Home all axes
G1 Z2.0 F3000 ; Move Z Axis up little to prevent scratching of Heat Bed
G1 X0.1 Y20 Z0.3 F5000.0 ; Move to start position
G1 X0.1 Y200.0 Z0.3 F1500.0 E15 ; Draw the first line
G1 X0.4 Y200.0 Z0.3 F5000.0 ; Move to side a little
G1 X0.4 Y20 Z0.3 F1500.0 E30 ; Draw the second line
G92 E0 ; Reset Extruder
G1 Z2.0 F3000 ; Move Z Axis up little to prevent scratching of Heat Bed
G1 X5 Y20 Z0.3 F5000.0 ; Move over to prevent blob squish
G92 E0
G92 E0
G1 F1500 E-6.9
;LAYER_COUNT:65
;LAYER:0
M107
G1 F300 Z0.32
G0 F6000 X110.247 Y118.151 Z0.32
;TYPE:SKIRT
G1 F300 Z0.12
G1 F1500 E0
G1 F1200 X110.971 Y117.555 E0.01871
G1 X111.743 Y117.022 E0.03744
G1 X112.557 Y116.557 E0.05614
G1 X113.409 Y116.164 E0.07487
G1 X114.29 Y115.844 E0.09357
G1 X115.196 Y115.6 E0.1123
G1 X116.119 Y115.435 E0.13101
G1 X117.289 Y115.339 E0.15444
G1 X117.918 Y115.326 E0.16699
G1 X141.875 Y115.326 E0.64508
G1 X144.483 Y115.289 E0.69713
G1 X147.004 Y115.182 E0.74748
G1 X149.499 Y115.005 E0.7974
G1 X151.975 Y114.76 E0.84705
G1 X154.856 Y114.388 E0.90502
G1 X155.955 Y114.302 E0.92702
G1 X156.584 Y114.289 E0.93958
G1 X158.096 Y114.29 E0.96975
G1 X158.813 Y114.301 E0.98406
G1 X160.04 Y114.389 E1.00861
G1 X161.656 Y114.602 E1.04114
G1 X164.133 Y114.884 E1.09089
G1 X166.658 Y115.1 E1.14146
G1 X169.176 Y115.244 E1.19179
G1 X171.682 Y115.316 E1.24182
G1 X174.185 Y115.336 E1.29177
G1 X175.121 Y115.384 E1.31048
G1 X176.051 Y115.511 E1.32921
G1 X176.966 Y115.717 E1.34793
G1 X177.86 Y116 E1.36664
G1 X178.726 Y116.359 E1.38535
G1 X179.56 Y116.789 E1.40407
G1 X180.353 Y117.29 E1.42279
G1 X181.101 Y117.855 E1.4415
G1 X181.798 Y118.483 E1.46022
G1 X182.439 Y119.168 E1.47894
G1 X183.019 Y119.905 E1.49766
G1 X183.534 Y120.688 E1.51636
G1 X183.981 Y121.513 E1.53509
G1 X184.356 Y122.372 E1.55379
G1 X184.656 Y123.261 E1.57251
G1 X184.88 Y124.172 E1.59124
G1 X185.028 Y125.125 E1.61048
G1 X185.182 Y126.518 E1.63845
G1 X185.511 Y129.086 E1.69012
G1 X185.897 Y131.547 E1.73983
G1 X186.36 Y134.041 E1.79045
G1 X186.888 Y136.496 E1.84056
G1 X187.488 Y138.944 E1.89086
G1 X188.156 Y141.371 E1.9411
G1 X188.893 Y143.781 E1.99139
G1 X189.697 Y146.164 E2.04158
G1 X189.951 Y146.851 E2.05619
G1 X190.356 Y147.996 E2.08043
G1 X190.631 Y148.892 E2.09913
G1 X190.828 Y149.809 E2.11785
G1 X190.946 Y150.74 E2.13658
G1 X190.98 Y151.325 E2.14827
G1 X190.995 Y152.084 E2.16342
G1 X190.985 Y153.233 E2.18635
G1 X190.936 Y154.169 E2.20506
G1 X190.809 Y155.098 E2.22377
G1 X190.602 Y156.013 E2.24249
G1 X190.319 Y156.907 E2.2612
G1 X189.96 Y157.774 E2.27993
G1 X189.446 Y158.749 E2.30193
G1 X188.24 Y160.782 E2.3491
G1 X186.965 Y163.067 E2.40132
G1 X186.665 Y163.622 E2.41391
G1 X186.184 Y164.427 E2.43262
G1 X185.636 Y165.189 E2.45135
G1 X185.026 Y165.901 E2.47006
G1 X184.357 Y166.558 E2.48877
G1 X183.634 Y167.156 E2.5075
G1 X182.863 Y167.69 E2.52621
G1 X182.05 Y168.157 E2.54492
G1 X181.199 Y168.552 E2.56365
G1 X180.318 Y168.874 E2.58237
G1 X179.413 Y169.12 E2.60108
G1 X178.49 Y169.287 E2.6198
G1 X177.328 Y169.385 E2.64307
G1 X176.665 Y169.4 E2.65631
G1 X152.44 Y169.4 E3.13974
G1 X149.832 Y169.437 E3.19179
G1 X147.311 Y169.544 E3.24215
G1 X144.816 Y169.721 E3.29206
G1 X142.321 Y169.968 E3.3421
G1 X139.406 Y170.345 E3.40075
G1 X138.304 Y170.432 E3.42281
G1 X137.675 Y170.445 E3.43537
G1 X136.143 Y170.444 E3.46594
G1 X135.425 Y170.433 E3.48027
G1 X134.195 Y170.345 E3.50488
G1 X133.142 Y170.21 E3.52606
G1 X132.541 Y170.125 E3.53818
G1 X130.048 Y169.841 E3.58825
G1 X127.523 Y169.625 E3.63882
G1 X125.038 Y169.483 E3.6885
G1 X122.458 Y169.41 E3.74
G1 X119.928 Y169.39 E3.79049
G1 X118.991 Y169.342 E3.80922
G1 X118.062 Y169.215 E3.82793
G1 X117.147 Y169.009 E3.84664
G1 X116.253 Y168.727 E3.86535
G1 X115.386 Y168.368 E3.88408
G1 X114.553 Y167.938 E3.90279
G1 X113.759 Y167.438 E3.92151
G1 X113.011 Y166.872 E3.94023
G1 X112.314 Y166.245 E3.95894
G1 X111.673 Y165.56 E3.97766
G1 X111.092 Y164.823 E3.99639
G1 X110.577 Y164.04 E4.01509
G1 X110.13 Y163.215 E4.03382
G1 X109.755 Y162.356 E4.05252
G1 X109.454 Y161.467 E4.07125
G1 X109.231 Y160.557 E4.08995
G1 X109.056 Y159.341 E4.11447
G1 X109.004 Y158.74 E4.1265
G1 X108.744 Y156.159 E4.17827
G1 X108.416 Y153.619 E4.22938
G1 X108.034 Y151.197 E4.27831
G1 X107.562 Y148.672 E4.32957
G1 X107.033 Y146.231 E4.37942
G1 X106.444 Y143.834 E4.42867
G1 X105.755 Y141.344 E4.48023
G1 X105.017 Y138.941 E4.5304
G1 X104.198 Y136.512 E4.58155
G1 X103.937 Y135.612 E4.60025
G1 X103.753 Y134.692 E4.61898
G1 X103.626 Y133.311 E4.64665
G1 X103.613 Y132.585 E4.66114
G1 X103.623 Y131.446 E4.68387
G1 X103.672 Y130.51 E4.70258
G1 X103.799 Y129.581 E4.72129
G1 X104.006 Y128.666 E4.74001
G1 X104.29 Y127.772 E4.75873
G1 X104.648 Y126.905 E4.77745
G1 X105.161 Y125.933 E4.79938
G1 X106.392 Y123.856 E4.84756
G1 X107.595 Y121.702 E4.8968
G1 X107.932 Y121.082 E4.91088
G1 X108.415 Y120.278 E4.9296
G1 X108.964 Y119.518 E4.94831
G1 X109.576 Y118.807 E4.96703
G1 X110.247 Y118.151 E4.98576
G0 F6000 X110.565 Y118.404
G1 F1200 X111.279 Y117.823 E5.00413
G1 X112.042 Y117.307 E5.02251
G1 X112.846 Y116.859 E5.04087
G1 X113.686 Y116.483 E5.05924
G1 X114.556 Y116.181 E5.07762
G1 X115.448 Y115.955 E5.09598
G1 X116.357 Y115.808 E5.11436
G1 X117.3 Y115.739 E5.13323
G1 X117.918 Y115.726 E5.14556
G1 X141.881 Y115.726 E5.62377
G1 X144.506 Y115.689 E5.67616
G1 X147.014 Y115.582 E5.72626
G1 X149.534 Y115.404 E5.77667
G1 X152.029 Y115.156 E5.82671
G1 X154.907 Y114.785 E5.88461
G1 X155.966 Y114.702 E5.90581
G1 X156.584 Y114.689 E5.91815
G1 X158.09 Y114.69 E5.9482
G1 X158.807 Y114.701 E5.96251
G1 X159.989 Y114.786 E5.98616
G1 X161.59 Y114.997 E6.01839
G1 X164.121 Y115.285 E6.06922
G1 X166.6 Y115.497 E6.11887
G1 X169.143 Y115.642 E6.1697
G1 X171.717 Y115.716 E6.22109
G1 X174.181 Y115.736 E6.27027
G1 X175.101 Y115.784 E6.28865
G1 X176.013 Y115.911 E6.30703
G1 X176.91 Y116.117 E6.32539
G1 X177.786 Y116.399 E6.34376
G1 X178.635 Y116.757 E6.36215
G1 X179.449 Y117.187 E6.38052
G1 X180.222 Y117.686 E6.39888
G1 X180.95 Y118.251 E6.41727
G1 X181.625 Y118.876 E6.43563
G1 X182.244 Y119.557 E6.45399
G1 X182.802 Y120.29 E6.47237
G1 X183.294 Y121.068 E6.49074
G1 X183.716 Y121.887 E6.50913
G1 X184.066 Y122.738 E6.52749
G1 X184.34 Y123.617 E6.54587
G1 X184.538 Y124.516 E6.56424
G1 X184.631 Y125.169 E6.5774
G1 X184.79 Y126.606 E6.60625
G1 X185.113 Y129.132 E6.65707
G1 X185.508 Y131.651 E6.70796
G1 X185.967 Y134.12 E6.75807
G1 X186.494 Y136.57 E6.80808
G1 X187.101 Y139.049 E6.85901
G1 X187.771 Y141.48 E6.90934
G1 X188.507 Y143.889 E6.9596
G1 X189.315 Y146.283 E7.01003
G1 X189.576 Y146.99 E7.02507
G1 X189.979 Y148.129 E7.04918
G1 X190.248 Y149.009 E7.06754
G1 X190.439 Y149.91 E7.08592
G1 X190.552 Y150.824 E7.1043
G1 X190.58 Y151.337 E7.11455
G1 X190.595 Y152.08 E7.12938
G1 X190.585 Y153.229 E7.15231
G1 X190.537 Y154.149 E7.1707
G1 X190.409 Y155.06 E7.18906
G1 X190.203 Y155.958 E7.20744
G1 X189.92 Y156.834 E7.22581
G1 X189.561 Y157.682 E7.24419
G1 X189.102 Y158.545 E7.2637
G1 X187.879 Y160.606 E7.31152
G1 X186.638 Y162.831 E7.36236
G1 X186.313 Y163.432 E7.376
G1 X185.84 Y164.222 E7.39437
G1 X185.301 Y164.968 E7.41274
G1 X184.699 Y165.665 E7.43112
G1 X184.038 Y166.306 E7.4495
G1 X183.325 Y166.888 E7.46786
G1 X182.564 Y167.406 E7.48623
G1 X181.76 Y167.855 E7.50461
G1 X180.921 Y168.234 E7.52298
G1 X180.052 Y168.538 E7.54136
G1 X179.16 Y168.765 E7.55972
G1 X178.251 Y168.915 E7.57811
G1 X177.316 Y168.985 E7.59682
G1 X176.665 Y169 E7.60981
G1 X152.434 Y169 E8.09337
G1 X149.809 Y169.037 E8.14576
G1 X147.301 Y169.144 E8.19586
G1 X144.781 Y169.322 E8.24627
G1 X142.262 Y169.572 E8.29679
G1 X139.354 Y169.948 E8.3553
G1 X138.293 Y170.032 E8.37654
G1 X137.675 Y170.045 E8.38888
G1 X136.15 Y170.044 E8.41931
G1 X135.432 Y170.033 E8.43364
G1 X134.246 Y169.948 E8.45737
G1 X133.193 Y169.813 E8.47855
G1 X132.607 Y169.73 E8.49037
G1 X130.06 Y169.44 E8.54152
G1 X127.581 Y169.228 E8.59117
G1 X125.036 Y169.083 E8.64204
G1 X122.472 Y169.01 E8.69323
G1 X119.931 Y168.99 E8.74394
G1 X119.011 Y168.942 E8.76233
G1 X118.1 Y168.815 E8.78068
G1 X117.202 Y168.61 E8.79906
G1 X116.326 Y168.327 E8.81744
G1 X115.478 Y167.97 E8.8358
G1 X114.663 Y167.54 E8.85419
G1 X113.89 Y167.041 E8.87255
G1 X113.162 Y166.477 E8.89093
G1 X112.486 Y165.852 E8.9093
G1 X111.867 Y165.17 E8.92768
G1 X111.31 Y164.438 E8.94603
G1 X110.818 Y163.66 E8.9644
G1 X110.395 Y162.842 E8.98278
G1 X110.045 Y161.99 E9.00116
G1 X109.77 Y161.111 E9.01954
G1 X109.573 Y160.212 E9.03791
G1 X109.455 Y159.306 E9.05614
G1 X109.409 Y158.771 E9.06686
G1 X109.141 Y156.104 E9.12035
G1 X108.815 Y153.577 E9.1712
G1 X108.423 Y151.093 E9.22138
G1 X107.96 Y148.618 E9.27163
G1 X107.428 Y146.165 E9.32172
G1 X106.821 Y143.696 E9.37246
G1 X106.149 Y141.267 E9.42275
G1 X105.395 Y138.812 E9.474
G1 X104.577 Y136.385 E9.52511
G1 X104.321 Y135.5 E9.5435
G1 X104.143 Y134.597 E9.56186
G1 X104.026 Y133.3 E9.58785
G1 X104.013 Y132.589 E9.60204
G1 X104.023 Y131.45 E9.62477
G1 X104.071 Y130.531 E9.64314
G1 X104.199 Y129.619 E9.66152
G1 X104.405 Y128.722 E9.67988
G1 X104.689 Y127.846 E9.69826
G1 X105.047 Y126.998 E9.71663
G1 X105.505 Y126.137 E9.73609
G1 X106.736 Y124.061 E9.78426
G1 X107.97 Y121.851 E9.83477
G1 X108.284 Y121.273 E9.8479
G1 X108.758 Y120.484 E9.86626
G1 X109.299 Y119.739 E9.88464
G1 X109.903 Y119.044 E9.90301
G1 X110.565 Y118.404 E9.92139
G0 F6000 X110.882 Y118.657
G1 F1200 X111.587 Y118.094 E9.93939
G1 X112.34 Y117.594 E9.95743
G1 X113.133 Y117.164 E9.97543
G1 X113.962 Y116.805 E9.99346
G1 X114.819 Y116.52 E10.01148
G1 X115.698 Y116.313 E10.02951
G1 X116.592 Y116.185 E10.04753
G1 X117.311 Y116.139 E10.06191
G1 X117.918 Y116.126 E10.07402
G1 X141.887 Y116.126 E10.55235
G1 X144.493 Y116.089 E10.60436
G1 X147.058 Y115.98 E10.65559
G1 X149.565 Y115.802 E10.70575
G1 X152.087 Y115.553 E10.75632
G1 X154.958 Y115.182 E10.81409
G1 X155.977 Y115.102 E10.83449
G1 X156.584 Y115.089 E10.84661
G1 X158.083 Y115.09 E10.87652
G1 X158.8 Y115.101 E10.89083
G1 X159.939 Y115.182 E10.91362
G1 X161.555 Y115.396 E10.94615
G1 X164.043 Y115.679 E10.99612
G1 X166.614 Y115.899 E11.04762
G1 X169.109 Y116.042 E11.09749
G1 X171.701 Y116.116 E11.14924
G1 X174.178 Y116.136 E11.19867
G1 X175.08 Y116.184 E11.21669
G1 X175.974 Y116.311 E11.23471
G1 X176.854 Y116.516 E11.25275
G1 X177.711 Y116.799 E11.27076
G1 X178.541 Y117.156 E11.28879
G1 X179.335 Y117.585 E11.3068
G1 X180.089 Y118.083 E11.32483
G1 X180.795 Y118.645 E11.34284
G1 X181.449 Y119.268 E11.36086
G1 X182.046 Y119.947 E11.37891
G1 X182.58 Y120.675 E11.39692
G1 X183.047 Y121.448 E11.41495
G1 X183.445 Y122.259 E11.43297
G1 X183.769 Y123.102 E11.451
G1 X184.017 Y123.97 E11.46901
G1 X184.233 Y125.213 E11.49419
G1 X184.391 Y126.644 E11.52292
G1 X184.715 Y129.173 E11.5738
G1 X185.114 Y131.715 E11.62515
G1 X185.577 Y134.206 E11.67571
G1 X186.101 Y136.644 E11.72548
G1 X186.713 Y139.145 E11.77686
G1 X187.389 Y141.598 E11.82764
G1 X188.132 Y144.028 E11.87835
G1 X188.951 Y146.455 E11.92946
G1 X189.25 Y147.266 E11.94671
G1 X189.602 Y148.262 E11.96779
G1 X189.865 Y149.126 E11.98582
G1 X190.051 Y150.01 E12.00384
G1 X190.18 Y151.349 E12.03069
G1 X190.195 Y152.077 E12.04522
G1 X190.185 Y153.226 E12.06815
G1 X190.137 Y154.128 E12.08618
G1 X190.009 Y155.022 E12.1042
G1 X189.803 Y155.901 E12.12221
G1 X189.52 Y156.759 E12.14024
G1 X189.163 Y157.588 E12.15826
G1 X188.758 Y158.341 E12.17532
G1 X187.536 Y160.401 E12.22312
G1 X186.28 Y162.653 E12.27458
G1 X185.961 Y163.242 E12.28794
G1 X185.497 Y164.016 E12.30595
G1 X184.966 Y164.747 E12.32398
G1 X184.372 Y165.428 E12.34202
G1 X183.721 Y166.053 E12.36003
G1 X183.017 Y166.618 E12.37804
G1 X182.265 Y167.119 E12.39607
G1 X181.472 Y167.552 E12.4141
G1 X180.644 Y167.912 E12.43212
G1 X179.788 Y168.198 E12.45013
G1 X178.909 Y168.408 E12.46817
G1 X178.016 Y168.538 E12.48617
G1 X177.304 Y168.585 E12.50041
G1 X176.665 Y168.6 E12.51317
G1 X152.428 Y168.6 E12.99685
G1 X149.822 Y168.637 E13.04886
G1 X147.257 Y168.746 E13.10009
G1 X144.75 Y168.924 E13.15025
G1 X142.238 Y169.172 E13.20062
G1 X139.303 Y169.552 E13.25968
G1 X138.282 Y169.632 E13.28012
G1 X137.675 Y169.645 E13.29223
G1 X136.156 Y169.644 E13.32255
G1 X135.438 Y169.633 E13.33688
G1 X134.297 Y169.551 E13.3597
G1 X132.642 Y169.331 E13.39302
G1 X130.138 Y169.046 E13.44332
G1 X127.567 Y168.826 E13.49481
G1 X125.071 Y168.683 E13.5447
G1 X122.486 Y168.61 E13.59631
G1 X119.934 Y168.59 E13.64724
G1 X119.032 Y168.543 E13.66526
G1 X118.138 Y168.416 E13.68328
G1 X117.259 Y168.21 E13.7013
G1 X116.401 Y167.928 E13.71932
G1 X115.571 Y167.571 E13.73735
G1 X114.776 Y167.142 E13.75538
G1 X114.023 Y166.644 E13.7734
G1 X113.316 Y166.082 E13.79142
G1 X112.662 Y165.459 E13.80945
G1 X112.066 Y164.781 E13.82746
G1 X111.531 Y164.053 E13.84549
G1 X111.064 Y163.28 E13.86351
G1 X110.666 Y162.47 E13.88152
G1 X110.342 Y161.627 E13.89955
G1 X110.094 Y160.758 E13.91758
G1 X109.923 Y159.871 E13.93561
G1 X109.853 Y159.272 E13.94764
G1 X109.799 Y158.652 E13.96006
G1 X109.537 Y156.05 E14.01225
G1 X109.212 Y153.53 E14.06296
G1 X108.818 Y151.034 E14.11338
G1 X108.349 Y148.525 E14.16432
G1 X107.814 Y146.055 E14.21475
G1 X107.218 Y143.631 E14.26457
G1 X106.522 Y141.115 E14.31666
G1 X105.784 Y138.715 E14.36677
G1 X104.956 Y136.257 E14.41853
G1 X104.706 Y135.389 E14.43656
G1 X104.533 Y134.503 E14.45457
G1 X104.426 Y133.289 E14.47889
G1 X104.413 Y132.592 E14.49281
G1 X104.423 Y131.453 E14.51554
G1 X104.471 Y130.552 E14.53354
G1 X104.599 Y129.658 E14.55156
G1 X104.805 Y128.778 E14.5696
G1 X105.088 Y127.921 E14.58761
G1 X105.446 Y127.091 E14.60565
G1 X105.849 Y126.341 E14.62264
G1 X107.08 Y124.266 E14.67079
G1 X108.312 Y122.058 E14.72125
G1 X108.635 Y121.464 E14.73474
G1 X109.101 Y120.69 E14.75277
G1 X109.634 Y119.961 E14.77079
G1 X110.229 Y119.282 E14.78881
G1 X110.882 Y118.657 E14.80685
G1 F1500 E7.90685
G1 F300 Z0.32
;MESH:B1-Blaster-Standard.stl(1)
G0 F6000 X129.498 Y136.636 Z0.32
;TYPE:WALL-INNER
G1 F300 Z0.12
G1 F1500 E14.80685
G1 F1230.8 X130.569 Y136.246 E14.82902
G1 X122.731 Y136.246 E14.98153
G1 X122.926 Y136.441 E14.98689
G1 X122.926 Y136.636 E14.99069
G1 X123.121 Y136.636 E14.99448
G1 X129.498 Y136.636 E15.11856
G0 F6000 X129.568 Y137.031
G1 F1200 X132.809 Y135.851 E15.18739
G1 F1215.2 X121.931 Y135.846 E15.40176
G1 X122.531 Y136.441 E15.41841
G1 F1200 X122.531 Y137.031 E15.43019
G1 X123.121 Y137.031 E15.44196
G1 X129.568 Y137.031 E15.57062
G0 F6000 X129.638 Y137.431
;TYPE:WALL-OUTER
G1 F1200 X135.077 Y135.451 E15.68613
G1 X118.561 Y135.451 E16.01572
G1 X118.561 Y136.241 E16.03149
G1 X121.931 Y136.241 E16.09874
G1 X122.131 Y136.441 E16.10438
G1 X122.131 Y137.431 E16.12414
G1 X123.121 Y137.431 E16.1439
G1 X129.638 Y137.431 E16.27395
G1 F1500 E9.37395
G1 F300 Z0.32
G0 F6000 X121.931 Y135.846 Z0.32
;TYPE:WALL-INNER
G1 F300 Z0.12
G1 F1500 E16.27395
G1 F1230.8 X118.956 Y135.846 E16.33184
G1 F1500 E9.43184
G1 F300 Z0.32
G0 F6000 X155.022 Y142.622 Z0.32
G1 F300 Z0.12
G1 F1500 E16.33184
G1 F1200 X158.752 Y142.622 E16.40627
G1 X158.922 Y142.452 E16.41107
G1 X159.275 Y142.099 E16.42103
G1 X156.422 Y138.245 E16.51672
G1 X153.485 Y137.726 E16.57624
G1 X154.212 Y141.852 E16.65985
G1 X154.324 Y142.126 E16.66576
G1 X154.546 Y142.389 E16.67262
G1 X154.718 Y142.51 E16.67682
G1 X155.022 Y142.622 E16.68329
G0 F6000 X154.531 Y142.868
G1 F1200 X154.869 Y142.991 E16.69046
G1 X155.098 Y143.022 E16.69508
G1 X158.918 Y143.022 E16.77131
G1 X159.205 Y142.735 E16.77941
G1 X159.801 Y142.138 E16.79624
G1 X156.821 Y138.111 E16.89622
G1 X156.695 Y137.886 E16.90136
G1 X152.992 Y137.233 E16.9764
G1 X153.838 Y142.034 E17.07369
G1 X153.977 Y142.328 E17.08018
G1 X154.288 Y142.697 E17.08981
G1 X154.531 Y142.868 E17.09574
G0 F6000 X154.773 Y143.382
G1 F1200 X155.072 Y143.422 E17.10176
G1 X159.084 Y143.422 E17.18182
G1 X159.487 Y143.018 E17.19321
G1 X160.328 Y142.178 E17.21693
G1 X157.142 Y137.873 E17.32381
G1 X156.977 Y137.53 E17.3314
