;FLAVOR:Marlin
;TIME:5593
;Filament used: 1.58015m
;Layer height: 0.12
;MINX:110.254
;MINY:114.805
;MINZ:0.12
;MAXX:192.678
;MAXY:189.123
;MAXZ:7.44
;Generated with Cura_SteamEngine 5.2.2
M140 S60
M105
M190 S60
M104 S200
M105
M109 S200
M82 ;absolute extrusion mode
; Ender 3 Max Custom Start G-code
G92 E0 ; Reset Extruder
G28 ; Home all axes
G1 Z2.0 F3000 ; Move Z Axis up little to prevent scratching of Heat Bed
G1 X0.1 Y20 Z0.3 F5000.0 ; Move to start position
G1 X0.1 Y200.0 Z0.3 F1500.0 E15 ; Draw the first line
G1 X0.4 Y200.0 Z0.3 F5000.0 ; Move to side a little
G1 X0.4 Y20 Z0.3 F1500.0 E30 ; Draw the second line
G92 E0 ; Reset Extruder
G1 Z2.0 F3000 ; Move Z Axis up little to prevent scratching of Heat Bed
G1 X5 Y20 Z0.3 F5000.0 ; Move over to prevent blob squish
G92 E0
G92 E0
G1 F1500 E-6.5
;LAYER_COUNT:62
;LAYER:0
M107
G0 F6000 X119.011 Y119.327 Z0.12
;TYPE:SKIRT
G1 F1500 E0
G1 F1200 X119.678 Y118.668 E0.01871
G1 X120.399 Y118.068 E0.03743
G1 X121.169 Y117.532 E0.05615
G1 X121.981 Y117.063 E0.07487
G1 X122.83 Y116.665 E0.09358
G1 X123.71 Y116.341 E0.11229
G1 X124.615 Y116.093 E0.13102
G1 X125.537 Y115.923 E0.14973
G1 X126.729 Y115.821 E0.1736
G1 X127.392 Y115.806 E0.18684
G1 X150.3 Y115.806 E0.64399
G1 X152.908 Y115.769 E0.69604
G1 X155.429 Y115.662 E0.7464
G1 X157.924 Y115.485 E0.79631
G1 X160.434 Y115.236 E0.84665
G1 X163.045 Y114.903 E0.89917
G1 X164.129 Y114.818 E0.92087
G1 X164.758 Y114.805 E0.93343
G1 X166.19 Y114.806 E0.96201
G1 X166.907 Y114.817 E0.97632
G1 X168.135 Y114.905 E1.00088
G1 X169.438 Y115.072 E1.0271
G1 X171.974 Y115.362 E1.07804
G1 X174.442 Y115.575 E1.12747
G1 X176.997 Y115.722 E1.17854
G1 X179.491 Y115.795 E1.22834
G1 X181.772 Y115.816 E1.27386
G1 X182.709 Y115.865 E1.29258
G1 X183.638 Y115.994 E1.3113
G1 X184.553 Y116.201 E1.33002
G1 X185.446 Y116.485 E1.34872
G1 X186.313 Y116.844 E1.36745
G1 X187.145 Y117.276 E1.38616
G1 X187.938 Y117.777 E1.40488
G1 X188.685 Y118.344 E1.42359
G1 X189.381 Y118.972 E1.4423
G1 X190.021 Y119.658 E1.46102
G1 X190.601 Y120.395 E1.47974
G1 X191.115 Y121.18 E1.49846
G1 X191.561 Y122.005 E1.51718
G1 X191.935 Y122.865 E1.53589
G1 X192.234 Y123.754 E1.55461
G1 X192.457 Y124.665 E1.57333
G1 X192.601 Y125.592 E1.59205
G1 X192.665 Y126.507 E1.61035
G1 X192.677 Y127.267 E1.62552
G1 X192.669 Y127.938 E1.63891
G1 X192.669 Y130.65 E1.69303
G1 X192.678 Y131.404 E1.70808
G1 X192.677 Y133.471 E1.74933
G1 X192.667 Y134.172 E1.76332
G1 X192.614 Y135.108 E1.78203
G1 X192.424 Y136.317 E1.80645
G1 X192.152 Y137.588 E1.83239
G1 X191.642 Y140.131 E1.88415
G1 X191.21 Y142.66 E1.93535
G1 X190.859 Y145.122 E1.98498
G1 X190.579 Y147.601 E2.03476
G1 X190.364 Y150.135 E2.08551
G1 X190.223 Y152.651 E2.1358
G1 X190.152 Y155.175 E2.18619
G1 X190.152 Y157.648 E2.23554
G1 X190.208 Y159.225 E2.26703
G1 X190.205 Y159.604 E2.2746
G1 X190.247 Y161.029 E2.30305
G1 X190.251 Y161.483 E2.31211
G1 X190.243 Y162.152 E2.32546
G1 X190.243 Y164.865 E2.3796
G1 X190.252 Y165.619 E2.39465
G1 X190.251 Y167.651 E2.4352
G1 X190.241 Y168.381 E2.44977
G1 X190.188 Y169.317 E2.46848
G1 X190.056 Y170.246 E2.4872
G1 X189.845 Y171.159 E2.5059
G1 X189.557 Y172.052 E2.52463
G1 X189.194 Y172.917 E2.54335
G1 X188.758 Y173.747 E2.56206
G1 X188.254 Y174.538 E2.58077
G1 X187.684 Y175.283 E2.59949
G1 X187.052 Y175.976 E2.61821
G1 X186.364 Y176.613 E2.63692
G1 X185.624 Y177.189 E2.65564
G1 X184.886 Y177.671 E2.67323
G1 X184.007 Y178.196 E2.69366
G1 X183.181 Y178.673 E2.71269
G1 X181.062 Y179.98 E2.76238
G1 X178.948 Y181.367 E2.81283
G1 X176.88 Y182.81 E2.86316
G1 X174.877 Y184.293 E2.91289
G1 X172.357 Y186.286 E2.97701
G1 X171.971 Y186.604 E2.98699
G1 X171.222 Y187.169 E3.00571
G1 X170.428 Y187.667 E3.02442
G1 X169.594 Y188.097 E3.04314
G1 X168.727 Y188.454 E3.06185
G1 X167.833 Y188.735 E3.08055
G1 X166.917 Y188.94 E3.09928
G1 X165.988 Y189.066 E3.11799
G1 X165.194 Y189.11 E3.13386
G1 X164.417 Y189.123 E3.14937
G1 X161.366 Y189.122 E3.21026
G1 X160.582 Y189.111 E3.2259
G1 X159.645 Y189.058 E3.24463
G1 X158.717 Y188.925 E3.26334
G1 X158.124 Y188.797 E3.27545
G1 X157.49 Y188.642 E3.28847
G1 X156.554 Y188.369 E3.30793
G1 X155.525 Y188.017 E3.32963
G1 X154.787 Y187.751 E3.34529
G1 X152.381 Y186.961 E3.39582
G1 X149.989 Y186.249 E3.44563
G1 X147.517 Y185.589 E3.49669
G1 X145.127 Y185.022 E3.54571
G1 X142.589 Y184.497 E3.59743
G1 X140.166 Y184.066 E3.64654
G1 X137.674 Y183.695 E3.69682
G1 X135.147 Y183.391 E3.74761
G1 X132.667 Y183.164 E3.79731
G1 X129.487 Y182.974 E3.86088
G1 X128.366 Y182.926 E3.88328
G1 X127.431 Y182.846 E3.902
G1 X126.507 Y182.687 E3.92071
G1 X125.288 Y182.349 E3.94596
G1 X123.807 Y181.845 E3.97718
G1 X122.73 Y181.499 E3.99975
G1 X121.881 Y181.214 E4.01762
G1 X121.006 Y180.877 E4.03633
G1 X120.163 Y180.467 E4.05504
G1 X119.357 Y179.986 E4.07377
G1 X118.596 Y179.439 E4.09248
G1 X117.865 Y178.812 E4.11169
G1 X116.81 Y177.823 E4.14055
G1 X114.502 Y175.739 E4.20261
G1 X113.825 Y175.09 E4.22132
G1 X113.206 Y174.385 E4.24005
G1 X112.649 Y173.63 E4.25877
G1 X112.159 Y172.831 E4.27747
G1 X111.738 Y171.993 E4.29619
G1 X111.39 Y171.122 E4.31491
G1 X111.118 Y170.224 E4.33363
G1 X110.923 Y169.307 E4.35234
G1 X110.807 Y168.376 E4.37106
G1 X110.774 Y167.74 E4.38377
G1 X110.711 Y165.026 E4.43795
G1 X110.584 Y162.457 E4.48928
G1 X110.425 Y160.388 E4.53069
G1 X110.304 Y158.984 E4.55881
G1 X110.267 Y158.349 E4.5715
G1 X110.255 Y157.589 E4.58667
G1 X110.263 Y156.918 E4.60006
G1 X110.263 Y154.206 E4.65419
G1 X110.254 Y153.452 E4.66923
G1 X110.255 Y151.372 E4.71074
G1 X110.266 Y150.665 E4.72485
G1 X110.321 Y149.729 E4.74356
G1 X110.455 Y148.8 E4.7623
G1 X110.579 Y148.228 E4.77398
G1 X110.763 Y147.473 E4.78948
G1 X111.351 Y144.92 E4.84176
G1 X111.853 Y142.416 E4.89273
G1 X112.268 Y139.989 E4.94187
G1 X112.625 Y137.485 E4.99234
G1 X112.911 Y134.967 E5.04291
G1 X113.129 Y132.413 E5.09407
G1 X113.226 Y131.059 E5.12116
G1 X113.333 Y130.127 E5.13988
G1 X113.519 Y129.208 E5.15859
G1 X113.782 Y128.307 E5.17732
G1 X114.121 Y127.433 E5.19603
G1 X114.737 Y126.233 E5.22295
G1 X115.878 Y124.309 E5.26759
G1 X117.179 Y121.981 E5.32081
G1 X117.378 Y121.61 E5.32921
G1 X117.857 Y120.803 E5.34793
G1 X118.402 Y120.04 E5.36665
G1 X119.011 Y119.327 E5.38536
G0 F6000 X119.339 Y119.562
G1 F1200 X119.997 Y118.919 E5.40372
G1 X120.709 Y118.335 E5.4221
G1 X121.469 Y117.815 E5.44047
G1 X122.271 Y117.363 E5.45884
G1 X123.109 Y116.983 E5.47721
G1 X123.978 Y116.676 E5.4956
G1 X124.869 Y116.447 E5.51396
G1 X125.777 Y116.295 E5.53233
G1 X126.741 Y116.221 E5.55162
G1 X127.392 Y116.206 E5.56462
G1 X150.306 Y116.206 E6.02189
G1 X152.931 Y116.169 E6.07428
G1 X155.439 Y116.062 E6.12438
G1 X157.959 Y115.884 E6.17479
G1 X160.453 Y115.637 E6.22481
G1 X163.096 Y115.299 E6.27798
G1 X164.14 Y115.218 E6.29888
G1 X164.758 Y115.205 E6.31121
G1 X166.184 Y115.206 E6.33967
G1 X166.901 Y115.217 E6.35398
G1 X168.084 Y115.302 E6.37765
G1 X169.41 Y115.472 E6.40433
G1 X171.898 Y115.756 E6.4543
G1 X174.453 Y115.977 E6.50548
G1 X176.928 Y116.12 E6.55495
G1 X179.527 Y116.195 E6.60684
G1 X181.768 Y116.216 E6.65156
G1 X182.688 Y116.265 E6.66995
G1 X183.599 Y116.393 E6.68831
G1 X184.497 Y116.6 E6.7067
G1 X185.372 Y116.884 E6.72506
G1 X186.22 Y117.243 E6.74343
G1 X187.034 Y117.674 E6.76181
G1 X187.807 Y118.174 E6.78019
G1 X188.534 Y118.739 E6.79856
G1 X189.209 Y119.365 E6.81693
G1 X189.827 Y120.047 E6.8353
G1 X190.383 Y120.781 E6.85367
G1 X190.874 Y121.56 E6.87205
G1 X191.295 Y122.378 E6.89041
G1 X191.644 Y123.23 E6.90878
G1 X191.918 Y124.109 E6.92716
G1 X192.114 Y125.009 E6.94554
G1 X192.231 Y125.922 E6.96391
G1 X192.265 Y126.518 E6.97582
G1 X192.277 Y127.262 E6.99067
G1 X192.269 Y127.933 E7.00406
G1 X192.269 Y130.656 E7.0584
G1 X192.278 Y131.404 E7.07333
G1 X192.277 Y133.465 E7.11446
G1 X192.267 Y134.166 E7.12845
G1 X192.214 Y135.085 E7.14682
G1 X192.033 Y136.233 E7.17001
G1 X191.761 Y137.504 E7.19595
G1 X191.244 Y140.084 E7.24846
G1 X190.817 Y142.578 E7.29896
G1 X190.465 Y145.053 E7.34884
G1 X190.178 Y147.593 E7.39985
G1 X189.964 Y150.112 E7.45031
G1 X189.823 Y152.618 E7.50039
G1 X189.752 Y155.164 E7.55122
G1 X189.752 Y157.662 E7.60107
G1 X189.808 Y159.239 E7.63256
G1 X189.805 Y159.615 E7.64007
G1 X189.847 Y161.041 E7.66854
G1 X189.851 Y161.479 E7.67728
G1 X189.843 Y162.148 E7.69063
G1 X189.843 Y164.863 E7.74481
G1 X189.852 Y165.619 E7.7599
G1 X189.851 Y167.645 E7.80033
G1 X189.841 Y168.375 E7.8149
G1 X189.788 Y169.294 E7.83327
G1 X189.656 Y170.205 E7.85164
G1 X189.446 Y171.102 E7.87002
G1 X189.158 Y171.976 E7.88839
G1 X188.795 Y172.823 E7.90678
G1 X188.361 Y173.634 E7.92513
G1 X187.858 Y174.405 E7.9435
G1 X187.289 Y175.129 E7.96188
G1 X186.66 Y175.802 E7.98026
G1 X185.975 Y176.417 E7.99863
G1 X185.239 Y176.97 E8.01701
G1 X184.681 Y177.328 E8.03024
G1 X183.94 Y177.771 E8.04746
G1 X183.003 Y178.314 E8.06908
G1 X180.829 Y179.654 E8.12004
G1 X178.729 Y181.032 E8.17016
G1 X176.659 Y182.476 E8.22053
G1 X174.621 Y183.986 E8.27115
G1 X172.106 Y185.975 E8.33514
G1 X171.717 Y186.295 E8.34519
G1 X170.981 Y186.849 E8.36357
G1 X170.201 Y187.337 E8.38193
G1 X169.381 Y187.755 E8.4003
G1 X168.527 Y188.101 E8.41869
G1 X167.647 Y188.371 E8.43706
G1 X166.747 Y188.564 E8.45543
G1 X165.833 Y188.678 E8.47381
G1 X165.186 Y188.71 E8.48674
G1 X164.417 Y188.723 E8.50208
G1 X161.371 Y188.722 E8.56287
G1 X160.587 Y188.711 E8.57852
G1 X159.668 Y188.658 E8.59689
G1 X158.757 Y188.526 E8.61526
G1 X158.219 Y188.409 E8.62625
G1 X157.585 Y188.254 E8.63927
G1 X156.683 Y187.99 E8.65803
G1 X155.66 Y187.64 E8.6796
G1 X154.93 Y187.377 E8.69509
G1 X152.482 Y186.573 E8.74651
G1 X150.092 Y185.861 E8.79627
G1 X147.649 Y185.209 E8.84673
G1 X145.194 Y184.627 E8.89708
G1 X142.669 Y184.104 E8.94854
G1 X140.229 Y183.671 E8.99799
G1 X137.705 Y183.295 E9.04892
G1 X135.231 Y182.998 E9.09865
G1 X132.697 Y182.765 E9.14943
G1 X129.47 Y182.572 E9.21394
G1 X128.383 Y182.526 E9.23565
G1 X127.466 Y182.447 E9.25402
G1 X126.559 Y182.289 E9.27239
G1 X125.417 Y181.97 E9.29606
G1 X123.949 Y181.47 E9.327
G1 X122.852 Y181.118 E9.34999
G1 X122.009 Y180.835 E9.36774
G1 X121.15 Y180.504 E9.38611
G1 X120.323 Y180.099 E9.40449
G1 X119.534 Y179.624 E9.42287
G1 X118.79 Y179.083 E9.44122
G1 X118.139 Y178.52 E9.4584
G1 X117.1 Y177.546 E9.48682
G1 X114.766 Y175.439 E9.54957
G1 X114.102 Y174.801 E9.56795
G1 X113.496 Y174.108 E9.58632
G1 X112.953 Y173.365 E9.60468
G1 X112.475 Y172.577 E9.62307
G1 X112.068 Y171.751 E9.64145
G1 X111.735 Y170.893 E9.65982
G1 X111.477 Y170.01 E9.67818
G1 X111.296 Y169.107 E9.69655
G1 X111.195 Y168.192 E9.71492
G1 X111.174 Y167.731 E9.72413
G1 X111.11 Y164.996 E9.77873
G1 X110.986 Y162.478 E9.82904
G1 X110.815 Y160.258 E9.87347
G1 X110.702 Y158.949 E9.89969
G1 X110.667 Y158.338 E9.91191
G1 X110.655 Y157.594 E9.92675
G1 X110.663 Y156.923 E9.94015
G1 X110.663 Y154.2 E9.99449
G1 X110.654 Y153.452 E10.00941
G1 X110.655 Y151.378 E10.0508
G1 X110.666 Y150.671 E10.06491
G1 X110.721 Y149.752 E10.08329
G1 X110.854 Y148.841 E10.10166
G1 X110.967 Y148.323 E10.11224
G1 X111.173 Y147.479 E10.12958
G1 X111.739 Y145.017 E10.17999
G1 X112.246 Y142.491 E10.23141
G1 X112.665 Y140.042 E10.28099
G1 X113.024 Y137.52 E10.33182
G1 X113.309 Y135.01 E10.38224
G1 X113.525 Y132.477 E10.43297
G1 X113.625 Y131.087 E10.46078
G1 X113.731 Y130.173 E10.47914
G1 X113.915 Y129.271 E10.49751
G1 X114.177 Y128.388 E10.51589
G1 X114.515 Y127.532 E10.53426
G1 X115.081 Y126.437 E10.55886
G1 X116.222 Y124.514 E10.60348
G1 X117.522 Y122.186 E10.65669
G1 X117.73 Y121.799 E10.66546
G1 X118.201 Y121.008 E10.68383
G1 X118.738 Y120.26 E10.7022
G1 X119.339 Y119.562 E10.72059
G0 F6000 X119.666 Y119.798
G1 F1200 X120.316 Y119.171 E10.73861
G1 X121.018 Y118.604 E10.75662
G1 X121.768 Y118.101 E10.77464
G1 X122.56 Y117.666 E10.79267
G1 X123.387 Y117.303 E10.81069
G1 X124.243 Y117.015 E10.82872
G1 X125.121 Y116.804 E10.84674
G1 X126.014 Y116.671 E10.86476
G1 X126.753 Y116.621 E10.87954
G1 X127.392 Y116.606 E10.89229
G1 X150.312 Y116.606 E11.34969
G1 X152.918 Y116.569 E11.4017
G1 X155.483 Y116.46 E11.45293
G1 X157.99 Y116.282 E11.50309
G1 X160.511 Y116.033 E11.55364
G1 X163.147 Y115.696 E11.60667
G1 X164.151 Y115.618 E11.62677
G1 X164.758 Y115.605 E11.63888
G1 X166.177 Y115.606 E11.6672
G1 X166.894 Y115.617 E11.68151
G1 X168.034 Y115.699 E11.70432
G1 X169.327 Y115.865 E11.73034
G1 X171.886 Y116.157 E11.78173
G1 X174.396 Y116.374 E11.83201
G1 X176.927 Y116.52 E11.8826
G1 X179.512 Y116.595 E11.93421
G1 X181.765 Y116.616 E11.97918
G1 X182.666 Y116.665 E11.99718
G1 X183.56 Y116.793 E12.01521
G1 X184.44 Y117 E12.03325
G1 X185.297 Y117.283 E12.05126
G1 X186.126 Y117.641 E12.06928
G1 X186.92 Y118.072 E12.08731
G1 X187.673 Y118.57 E12.10532
G1 X188.379 Y119.134 E12.12335
G1 X189.032 Y119.757 E12.14137
G1 X189.628 Y120.436 E12.1594
G1 X190.161 Y121.165 E12.17742
G1 X190.627 Y121.938 E12.19543
G1 X191.024 Y122.75 E12.21347
G1 X191.347 Y123.593 E12.23148
G1 X191.594 Y124.462 E12.24951
G1 X191.763 Y125.349 E12.26753
G1 X191.865 Y126.529 E12.29117
G1 X191.877 Y127.258 E12.30572
G1 X191.869 Y127.891 E12.31835
G1 X191.869 Y130.661 E12.37363
G1 X191.878 Y131.404 E12.38846
G1 X191.877 Y133.459 E12.42947
G1 X191.867 Y134.16 E12.44346
G1 X191.814 Y135.062 E12.46149
G1 X191.642 Y136.15 E12.48347
G1 X191.367 Y137.436 E12.50971
G1 X190.852 Y140.004 E12.56198
G1 X190.42 Y142.527 E12.61306
G1 X190.066 Y145.023 E12.66337
G1 X189.78 Y147.551 E12.71414
G1 X189.567 Y150.056 E12.76431
G1 X189.423 Y152.619 E12.81554
G1 X189.352 Y155.153 E12.86613
G1 X189.352 Y157.648 E12.91592
G1 X189.409 Y159.253 E12.94797
G1 X189.406 Y159.615 E12.95519
G1 X189.448 Y161.053 E12.9839
G1 X189.451 Y161.474 E12.99231
G1 X189.443 Y162.105 E13.0049
G1 X189.443 Y164.853 E13.05974
G1 X189.452 Y165.619 E13.07503
G1 X189.451 Y167.64 E13.11536
G1 X189.441 Y168.37 E13.12993
G1 X189.389 Y169.271 E13.14794
G1 X189.257 Y170.165 E13.16597
G1 X189.046 Y171.043 E13.18399
G1 X188.759 Y171.899 E13.20201
G1 X188.397 Y172.727 E13.22004
G1 X187.964 Y173.519 E13.23805
G1 X187.462 Y174.27 E13.25608
G1 X186.895 Y174.973 E13.2741
G1 X186.269 Y175.623 E13.29211
G1 X185.587 Y176.216 E13.31015
G1 X184.476 Y176.985 E13.33711
G1 X183.735 Y177.428 E13.35434
G1 X182.773 Y177.985 E13.37653
G1 X180.647 Y179.296 E13.42637
G1 X178.487 Y180.713 E13.47792
G1 X176.415 Y182.159 E13.52835
G1 X174.385 Y183.662 E13.57875
G1 X171.86 Y185.659 E13.643
G1 X171.463 Y185.986 E13.65326
G1 X170.741 Y186.529 E13.67129
G1 X169.974 Y187.005 E13.6893
G1 X169.167 Y187.412 E13.70734
G1 X168.328 Y187.746 E13.72536
G1 X167.463 Y188.005 E13.74338
G1 X166.578 Y188.186 E13.76141
G1 X165.681 Y188.288 E13.77942
G1 X165.179 Y188.31 E13.78945
G1 X164.417 Y188.323 E13.80466
G1 X161.377 Y188.322 E13.86532
G1 X160.593 Y188.311 E13.88097
G1 X159.691 Y188.258 E13.899
G1 X158.798 Y188.126 E13.91702
G1 X158.314 Y188.02 E13.92691
G1 X157.68 Y187.865 E13.93993
G1 X156.812 Y187.612 E13.95797
G1 X155.796 Y187.264 E13.9794
G1 X155.054 Y186.997 E13.99514
G1 X152.616 Y186.196 E14.04635
G1 X150.204 Y185.478 E14.09657
G1 X147.731 Y184.817 E14.14766
G1 X145.27 Y184.234 E14.19813
G1 X142.782 Y183.719 E14.24883
G1 X140.286 Y183.275 E14.29942
G1 X137.74 Y182.896 E14.35079
G1 X135.247 Y182.597 E14.4009
G1 X132.755 Y182.369 E14.45084
G1 X129.512 Y182.174 E14.51567
G1 X128.4 Y182.127 E14.53788
G1 X127.5 Y182.048 E14.55591
G1 X126.611 Y181.891 E14.57393
G1 X125.546 Y181.592 E14.596
G1 X124.039 Y181.079 E14.62777
G1 X122.974 Y180.737 E14.65009
G1 X122.137 Y180.456 E14.66771
G1 X121.294 Y180.13 E14.68575
G1 X120.484 Y179.731 E14.70377
G1 X119.712 Y179.262 E14.7218
G1 X118.985 Y178.727 E14.73981
G1 X118.413 Y178.228 E14.75496
G1 X117.388 Y177.266 E14.78301
G1 X115.03 Y175.138 E14.8464
G1 X114.38 Y174.512 E14.8644
G1 X113.787 Y173.831 E14.88243
G1 X113.257 Y173.1 E14.90044
G1 X112.793 Y172.325 E14.91847
G1 X112.4 Y171.511 E14.93651
G1 X112.081 Y170.667 E14.95451
G1 X111.837 Y169.797 E14.97255
G1 X111.671 Y168.909 E14.99057
G1 X111.574 Y167.721 E15.01436
G1 X111.511 Y165.005 E15.06858
G1 X111.384 Y162.428 E15.12006
G1 X111.214 Y160.227 E15.16412
G1 X111.101 Y158.915 E15.1904
G1 X111.067 Y158.327 E15.20215
G1 X111.055 Y157.598 E15.2167
G1 X111.063 Y156.965 E15.22934
G1 X111.063 Y154.195 E15.28461
