;FLAVOR:Marlin
;TIME:7531
;Filament used: 2.45312m
;Layer height: 0.12
;MINX:99.931
;MINY:103.576
;MINZ:0.12
;MAXX:182.078
;MAXY:193.684
;MAXZ:5.16
;Generated with Cura_SteamEngine 5.2.2
M140 S60
M105
M190 S60
M104 S200
M105
M109 S200
M82 ;absolute extrusion mode
; Ender 3 Max Custom Start G-code
G92 E0 ; Reset Extruder
G28 ; Home all axes
G1 Z2.0 F3000 ; Move Z Axis up little to prevent scratching of Heat Bed
G1 X0.1 Y20 Z0.3 F5000.0 ; Move to start position
G1 X0.1 Y200.0 Z0.3 F1500.0 E15 ; Draw the first line
G1 X0.4 Y200.0 Z0.3 F5000.0 ; Move to side a little
G1 X0.4 Y20 Z0.3 F1500.0 E30 ; Draw the second line
G92 E0 ; Reset Extruder
G1 Z2.0 F3000 ; Move Z Axis up little to prevent scratching of Heat Bed
G1 X5 Y20 Z0.3 F5000.0 ; Move over to prevent blob squish
G92 E0
G92 E0
G1 F1500 E-6.5
;LAYER_COUNT:43
;LAYER:0
M107
G0 F6000 X108.332 Y108.56 Z0.12
;TYPE:SKIRT
G1 F1500 E0
G1 F1200 X108.883 Y108.02 E0.0154
G1 X109.584 Y107.398 E0.0341
G1 X110.078 Y107.018 E0.04654
G1 X110.535 Y106.687 E0.0578
G1 X111.152 Y106.262 E0.07275
G1 X111.949 Y105.768 E0.09146
G1 X112.505 Y105.476 E0.10399
G1 X113.002 Y105.233 E0.11503
G1 X113.71 Y104.908 E0.13058
G1 X114.58 Y104.559 E0.14929
G1 X115.173 Y104.369 E0.16171
G1 X116.055 Y104.118 E0.18001
G1 X116.444 Y104.018 E0.18803
G1 X117.362 Y103.824 E0.20675
G1 X117.999 Y103.736 E0.21959
G1 X118.581 Y103.673 E0.23127
G1 X119.286 Y103.612 E0.24539
G1 X120.223 Y103.576 E0.2641
G1 X120.897 Y103.6 E0.27756
G1 X121.473 Y103.638 E0.28908
G1 X122.245 Y103.708 E0.30455
G1 X123.622 Y103.93 E0.33238
G1 X126.085 Y104.49 E0.38279
G1 X128.571 Y104.982 E0.43336
G1 X131.03 Y105.397 E0.48313
G1 X133.538 Y105.748 E0.53367
G1 X136.026 Y106.024 E0.58362
G1 X138.56 Y106.233 E0.63436
G1 X141.064 Y106.368 E0.68441
G1 X143.561 Y106.433 E0.73425
G1 X146.103 Y106.426 E0.78498
G1 X148.093 Y106.372 E0.82471
G1 X149.84 Y106.304 E0.8596
G1 X152.456 Y106.166 E0.91188
G1 X154.947 Y105.965 E0.96175
G1 X157.431 Y105.692 E1.01162
G1 X159.363 Y105.44 E1.0505
G1 X160.333 Y105.342 E1.06995
G1 X161.086 Y105.287 E1.08502
G1 X162.024 Y105.265 E1.10375
G1 X162.658 Y105.296 E1.11641
G1 X163.511 Y105.366 E1.13349
G1 X163.937 Y105.411 E1.14204
G1 X164.864 Y105.549 E1.16074
G1 X165.507 Y105.693 E1.17389
G1 X166.07 Y105.837 E1.18549
G1 X166.772 Y106.033 E1.20004
G1 X167.662 Y106.329 E1.21875
G1 X168.271 Y106.582 E1.23191
G1 X169.087 Y106.954 E1.24981
G1 X169.446 Y107.128 E1.25777
G1 X170.271 Y107.573 E1.27648
G1 X170.828 Y107.927 E1.28965
G1 X171.28 Y108.234 E1.30055
G1 X171.9 Y108.677 E1.31576
G1 X172.637 Y109.258 E1.33449
G1 X173.111 Y109.69 E1.34729
G1 X173.517 Y110.083 E1.35856
G1 X174.055 Y110.631 E1.37389
G1 X174.679 Y111.331 E1.3926
G1 X175.046 Y111.806 E1.40458
G1 X175.381 Y112.265 E1.41592
G1 X175.805 Y112.875 E1.43074
G1 X176.302 Y113.671 E1.44947
G1 X176.607 Y114.248 E1.4625
G1 X176.857 Y114.757 E1.47381
G1 X177.164 Y115.418 E1.48836
G1 X177.517 Y116.286 E1.50706
G1 X177.725 Y116.929 E1.52054
G1 X177.887 Y117.488 E1.53216
G1 X178.065 Y118.152 E1.54588
G1 X178.265 Y119.068 E1.56459
G1 X178.359 Y119.736 E1.57805
G1 X178.451 Y120.613 E1.59565
G1 X178.522 Y121.497 E1.61334
G1 X178.778 Y124.19 E1.66733
G1 X179.082 Y126.644 E1.71667
G1 X179.345 Y128.386 E1.75183
G1 X179.446 Y129.107 E1.76636
G1 X179.511 Y129.655 E1.77737
G1 X179.546 Y130.029 E1.78487
G1 X179.903 Y134.675 E1.87786
G1 X179.946 Y135.374 E1.89183
G1 X179.96 Y136.442 E1.91315
G1 X179.87 Y138.966 E1.96355
G1 X179.849 Y141.508 E2.01428
G1 X179.899 Y144.026 E2.06454
G1 X180.02 Y146.525 E2.11447
G1 X180.212 Y149.027 E2.16455
G1 X180.365 Y150.412 E2.19235
G1 X180.393 Y150.825 E2.20061
G1 X180.568 Y152.511 E2.23444
G1 X181.257 Y161.546 E2.41527
G1 X181.324 Y162.632 E2.43698
G1 X181.523 Y165.234 E2.48906
G1 X181.608 Y166.141 E2.50724
G1 X181.961 Y170.748 E2.59944
G1 X182.003 Y171.419 E2.61286
G1 X182.024 Y172.051 E2.62548
G1 X182.03 Y173.293 E2.65027
G1 X182.045 Y173.546 E2.65532
G1 X182.041 Y174.48 E2.67396
G1 X182.078 Y176.866 E2.72158
G1 X182.064 Y180.289 E2.78989
G1 X182.048 Y181.194 E2.80796
G1 X181.991 Y182.13 E2.82667
G1 X181.854 Y183.058 E2.84539
G1 X181.638 Y183.97 E2.86409
G1 X181.346 Y184.862 E2.88282
G1 X180.978 Y185.725 E2.90155
G1 X180.539 Y186.553 E2.92025
G1 X180.031 Y187.341 E2.93896
G1 X179.457 Y188.083 E2.95768
G1 X178.822 Y188.773 E2.97639
G1 X178.131 Y189.407 E2.99511
G1 X177.388 Y189.98 E3.01383
G1 X176.599 Y190.487 E3.03255
G1 X175.77 Y190.925 E3.05126
G1 X174.906 Y191.291 E3.06998
G1 X174.015 Y191.582 E3.08869
G1 X173.101 Y191.796 E3.10742
G1 X172.039 Y191.944 E3.12882
G1 X171.057 Y192.029 E3.14849
G1 X169.276 Y192.14 E3.1841
G1 X166.737 Y192.333 E3.23492
G1 X164.828 Y192.505 E3.27317
G1 X164.079 Y192.563 E3.28816
G1 X161.475 Y192.799 E3.34034
G1 X159.4 Y193.025 E3.38199
G1 X158.503 Y193.1 E3.39995
G1 X156.65 Y193.217 E3.43701
G1 X154.121 Y193.41 E3.48762
G1 X152.246 Y193.579 E3.52519
G1 X151.229 Y193.644 E3.54553
G1 X150.291 Y193.659 E3.56425
G1 X149.705 Y193.628 E3.57596
G1 X149.282 Y193.594 E3.58443
G1 X146.645 Y193.422 E3.63716
G1 X144.183 Y193.331 E3.68633
G1 X141.629 Y193.308 E3.7373
G1 X139.1 Y193.358 E3.78778
G1 X136.621 Y193.477 E3.83731
G1 X134.172 Y193.656 E3.88631
G1 X133.234 Y193.684 E3.90504
G1 X132.701 Y193.665 E3.91568
G1 X131.701 Y193.599 E3.93568
G1 X129.974 Y193.442 E3.97029
G1 X127.31 Y193.239 E4.0236
G1 X125.513 Y193.127 E4.05953
G1 X124.497 Y193.039 E4.07989
G1 X123.567 Y192.915 E4.09861
G1 X122.793 Y192.749 E4.11441
G1 X119.884 Y192.014 E4.17428
G1 X117.438 Y191.474 E4.22427
G1 X114.974 Y191.003 E4.27433
G1 X112.486 Y190.599 E4.32463
G1 X109.522 Y190.208 E4.3843
G1 X108.598 Y190.046 E4.40302
G1 X107.691 Y189.806 E4.42174
G1 X106.809 Y189.489 E4.44044
G1 X105.956 Y189.098 E4.45917
G1 X105.14 Y188.637 E4.47787
G1 X104.366 Y188.107 E4.49659
G1 X103.64 Y187.513 E4.51531
G1 X102.967 Y186.859 E4.53404
G1 X102.353 Y186.151 E4.55274
G1 X101.801 Y185.393 E4.57145
G1 X101.315 Y184.59 E4.59018
G1 X100.9 Y183.75 E4.60888
G1 X100.558 Y182.876 E4.62761
G1 X100.291 Y181.977 E4.64633
G1 X100.102 Y181.059 E4.66503
G1 X99.969 Y179.716 E4.69196
G1 X99.953 Y179.15 E4.70326
G1 X99.931 Y174.958 E4.78692
G1 X99.942 Y173.768 E4.81067
G1 X99.985 Y171.923 E4.8475
G1 X99.988 Y170.409 E4.87771
G1 X100 Y169.926 E4.88735
G1 X100.033 Y169.31 E4.89966
G1 X100.369 Y164.908 E4.98777
G1 X100.469 Y163.801 E5.00995
G1 X100.674 Y161.125 E5.06351
G1 X100.74 Y160.037 E5.08526
G1 X101.426 Y151.052 E5.26508
G1 X101.491 Y150.336 E5.27943
G1 X101.805 Y147.35 E5.33935
G1 X101.997 Y144.84 E5.38959
G1 X102.116 Y142.355 E5.43923
G1 X102.166 Y139.825 E5.48973
G1 X102.143 Y137.286 E5.5404
G1 X102.052 Y134.762 E5.5908
G1 X102.063 Y133.732 E5.61136
G1 X102.094 Y133.194 E5.62211
G1 X102.435 Y128.705 E5.71196
G1 X102.5 Y127.987 E5.72634
G1 X102.562 Y127.451 E5.73711
G1 X102.717 Y126.356 E5.75918
G1 X102.891 Y125.241 E5.7817
G1 X103.21 Y122.724 E5.83233
G1 X103.497 Y119.733 E5.89229
G1 X103.567 Y118.86 E5.90977
G1 X103.645 Y118.102 E5.92498
G1 X103.786 Y117.175 E5.94369
G1 X103.931 Y116.54 E5.95669
G1 X104.152 Y115.701 E5.974
G1 X104.272 Y115.285 E5.98264
G1 X104.57 Y114.396 E6.00135
G1 X104.822 Y113.793 E6.0144
G1 X105.045 Y113.301 E6.02518
G1 X105.363 Y112.638 E6.03985
G1 X105.808 Y111.813 E6.05856
G1 X106.167 Y111.25 E6.07188
G1 X106.497 Y110.766 E6.08357
G1 X106.934 Y110.157 E6.09853
G1 X107.518 Y109.423 E6.11725
G1 X107.934 Y108.97 E6.12952
G1 X108.332 Y108.56 E6.14093
G0 F6000 X108.619 Y108.839
G1 F1200 X109.161 Y108.308 E6.15607
G1 X109.85 Y107.697 E6.17445
G1 X110.312 Y107.342 E6.18607
G1 X110.769 Y107.011 E6.19733
G1 X111.377 Y106.593 E6.21206
G1 X112.16 Y106.108 E6.23044
G1 X112.681 Y105.835 E6.24218
G1 X113.178 Y105.592 E6.25322
G1 X113.874 Y105.273 E6.26849
G1 X114.729 Y104.931 E6.28687
G1 X115.284 Y104.753 E6.2985
G1 X115.843 Y104.591 E6.31012
G1 X116.544 Y104.406 E6.32459
G1 X117.445 Y104.216 E6.34296
G1 X118.042 Y104.134 E6.35499
G1 X118.624 Y104.071 E6.36667
G1 X119.318 Y104.011 E6.38057
G1 X120.238 Y103.976 E6.39894
G1 X120.871 Y103.999 E6.41158
G1 X121.447 Y104.037 E6.4231
G1 X122.207 Y104.106 E6.43833
G1 X123.533 Y104.32 E6.46514
G1 X126.023 Y104.887 E6.5161
G1 X128.464 Y105.37 E6.56576
G1 X130.979 Y105.794 E6.61665
G1 X133.505 Y106.147 E6.66755
G1 X135.985 Y106.422 E6.71735
G1 X138.504 Y106.631 E6.76779
G1 X141.069 Y106.769 E6.81905
G1 X143.552 Y106.833 E6.86862
G1 X146.115 Y106.826 E6.91977
G1 X148.118 Y106.771 E6.95975
G1 X149.877 Y106.703 E6.99488
G1 X152.473 Y106.567 E7.04676
G1 X154.955 Y106.366 E7.09645
G1 X157.498 Y106.086 E7.14751
G1 X159.413 Y105.837 E7.18604
G1 X160.371 Y105.74 E7.20526
G1 X161.113 Y105.686 E7.22011
G1 X162.033 Y105.665 E7.23847
G1 X162.627 Y105.694 E7.25034
G1 X163.171 Y105.736 E7.26123
G1 X163.895 Y105.809 E7.27575
G1 X164.805 Y105.945 E7.29411
G1 X165.408 Y106.081 E7.30645
G1 X166.256 Y106.302 E7.32393
G1 X166.662 Y106.418 E7.33236
G1 X167.535 Y106.709 E7.35073
G1 X168.107 Y106.947 E7.36309
G1 X168.912 Y107.314 E7.38074
G1 X169.271 Y107.488 E7.38871
G1 X170.081 Y107.925 E7.40707
G1 X170.604 Y108.258 E7.41945
G1 X171.056 Y108.565 E7.43035
G1 X171.666 Y109.001 E7.44531
G1 X172.388 Y109.572 E7.46368
G1 X172.832 Y109.978 E7.47569
G1 X173.473 Y110.605 E7.49358
G1 X173.768 Y110.909 E7.50204
G1 X174.38 Y111.597 E7.52041
G1 X174.723 Y112.042 E7.53162
G1 X175.058 Y112.501 E7.54296
G1 X175.475 Y113.101 E7.55755
G1 X175.963 Y113.883 E7.57594
G1 X176.248 Y114.424 E7.58814
G1 X176.498 Y114.933 E7.59946
G1 X176.8 Y115.584 E7.61378
G1 X177.146 Y116.437 E7.63215
G1 X177.341 Y117.04 E7.6448
G1 X177.503 Y117.599 E7.65641
G1 X177.678 Y118.253 E7.66992
G1 X177.873 Y119.153 E7.6883
G1 X177.962 Y119.78 E7.70094
G1 X178.053 Y120.645 E7.7183
G1 X178.134 Y121.655 E7.73852
G1 X178.377 Y124.205 E7.78963
G1 X178.689 Y126.717 E7.84015
G1 X178.949 Y128.441 E7.87494
G1 X179.05 Y129.162 E7.88947
G1 X179.114 Y129.7 E7.90028
G1 X179.148 Y130.06 E7.9075
G1 X179.493 Y134.535 E7.99707
G1 X179.547 Y135.398 E8.01432
G1 X179.56 Y136.427 E8.03486
G1 X179.47 Y138.947 E8.08518
G1 X179.449 Y141.513 E8.13639
G1 X179.499 Y144.019 E8.18641
G1 X179.623 Y146.573 E8.23744
G1 X179.812 Y149.044 E8.28689
G1 X179.968 Y150.456 E8.31524
G1 X179.995 Y150.868 E8.32348
G1 X180.169 Y152.542 E8.35707
G1 X180.858 Y161.57 E8.53776
G1 X180.927 Y162.689 E8.56013
G1 X181.122 Y165.245 E8.61129
G1 X181.21 Y166.178 E8.62999
G1 X181.551 Y170.627 E8.71903
G1 X181.603 Y171.444 E8.73537
G1 X181.624 Y172.053 E8.74753
G1 X181.63 Y173.21 E8.77062
G1 X181.645 Y173.544 E8.77729
G1 X181.641 Y174.485 E8.79607
G1 X181.678 Y176.873 E8.84373
G1 X181.664 Y180.287 E8.91186
G1 X181.648 Y181.186 E8.92981
G1 X181.591 Y182.105 E8.94818
G1 X181.454 Y183.016 E8.96656
G1 X181.239 Y183.911 E8.98493
G1 X180.947 Y184.784 E9.0033
G1 X180.581 Y185.628 E9.02166
G1 X180.142 Y186.438 E9.04005
G1 X179.635 Y187.206 E9.05841
G1 X179.063 Y187.928 E9.07679
G1 X178.431 Y188.597 E9.09516
G1 X177.743 Y189.209 E9.11354
G1 X177.004 Y189.759 E9.13192
G1 X176.221 Y190.242 E9.15028
G1 X175.399 Y190.656 E9.16865
G1 X174.543 Y190.997 E9.18703
G1 X173.662 Y191.262 E9.20539
G1 X172.761 Y191.45 E9.22376
G1 X172.003 Y191.546 E9.23901
G1 X171.032 Y191.63 E9.25846
G1 X169.223 Y191.743 E9.29463
G1 X166.669 Y191.937 E9.34574
G1 X164.648 Y192.118 E9.38624
G1 X164.087 Y192.161 E9.39747
G1 X161.392 Y192.405 E9.45147
G1 X159.06 Y192.656 E9.49827
G1 X158.664 Y192.688 E9.5062
G1 X156.595 Y192.82 E9.54757
G1 X154.057 Y193.014 E9.59837
G1 X151.883 Y193.205 E9.64192
G1 X151.205 Y193.245 E9.65548
G1 X150.285 Y193.259 E9.67384
G1 X149.737 Y193.229 E9.68479
G1 X149.34 Y193.197 E9.69274
G1 X146.686 Y193.024 E9.74581
G1 X144.166 Y192.931 E9.79614
G1 X141.624 Y192.908 E9.84687
G1 X139.109 Y192.958 E9.89707
G1 X136.57 Y193.079 E9.94779
G1 X134.142 Y193.257 E9.99638
G1 X133.222 Y193.284 E10.01474
G1 X132.725 Y193.265 E10.02467
G1 X131.737 Y193.201 E10.04443
G1 X129.966 Y193.04 E10.07992
G1 X127.367 Y192.842 E10.13193
G1 X125.538 Y192.728 E10.1685
G1 X124.533 Y192.641 E10.18863
G1 X123.62 Y192.518 E10.20702
G1 X122.891 Y192.361 E10.2219
G1 X119.997 Y191.63 E10.28147
G1 X117.494 Y191.078 E10.33262
G1 X115.041 Y190.608 E10.38246
G1 X112.569 Y190.207 E10.43244
G1 X109.574 Y189.812 E10.49272
G1 X108.667 Y189.652 E10.5111
G1 X107.778 Y189.414 E10.52947
G1 X106.913 Y189.1 E10.54783
G1 X106.078 Y188.711 E10.56621
G1 X105.28 Y188.252 E10.58459
G1 X104.525 Y187.725 E10.60296
G1 X103.818 Y187.135 E10.62134
G1 X103.166 Y186.486 E10.63969
G1 X102.572 Y185.782 E10.65808
G1 X102.041 Y185.03 E10.67645
G1 X101.578 Y184.234 E10.69482
G1 X101.185 Y183.402 E10.71319
G1 X100.867 Y182.538 E10.73156
G1 X100.624 Y181.65 E10.74993
G1 X100.459 Y180.744 E10.76831
G1 X100.368 Y179.701 E10.7892
G1 X100.353 Y179.148 E10.80024
G1 X100.331 Y174.962 E10.88378
G1 X100.342 Y173.772 E10.90753
G1 X100.385 Y171.934 E10.94422
G1 X100.388 Y170.41 E10.97463
G1 X100.399 Y169.944 E10.98393
G1 X100.432 Y169.341 E10.99599
G1 X100.767 Y164.944 E11.08399
G1 X100.871 Y163.799 E11.10693
G1 X101.072 Y161.175 E11.15945
G1 X101.126 Y160.251 E11.17792
G1 X101.824 Y151.089 E11.36129
G1 X101.889 Y150.373 E11.37563
G1 X102.204 Y147.39 E11.43549
G1 X102.394 Y144.888 E11.48557
G1 X102.516 Y142.346 E11.53635
G1 X102.566 Y139.83 E11.58657
G1 X102.543 Y137.268 E11.6377
G1 X102.452 Y134.748 E11.68803
G1 X102.463 Y133.755 E11.70784
G1 X102.507 Y133.023 E11.72248
G1 X102.833 Y128.741 E11.80818
G1 X102.898 Y128.023 E11.82256
G1 X102.958 Y127.507 E11.83293
G1 X103.112 Y126.418 E11.85488
G1 X103.289 Y125.286 E11.87774
G1 X103.607 Y122.779 E11.92817
G1 X103.901 Y119.712 E11.98966
G1 X103.966 Y118.892 E12.00608
G1 X104.043 Y118.145 E12.02106
G1 X104.182 Y117.235 E12.03943
G1 X104.318 Y116.64 E12.05161
G1 X104.536 Y115.812 E12.0687
G1 X104.656 Y115.396 E12.07734
G1 X104.95 Y114.523 E12.09572
G1 X105.186 Y113.958 E12.10794
G1 X105.409 Y113.466 E12.11872
G1 X105.723 Y112.813 E12.13318
G1 X106.161 Y112.003 E12.15156
G1 X106.498 Y111.476 E12.16404
G1 X106.828 Y110.992 E12.17573
G1 X107.258 Y110.393 E12.19045
G1 X107.831 Y109.673 E12.20881
G1 X108.221 Y109.249 E12.22031
G1 X108.619 Y108.839 E12.23171
G0 F6000 X108.906 Y109.117
G1 F1200 X109.439 Y108.595 E12.2466
G1 X110.115 Y107.997 E12.26461
G1 X110.547 Y107.666 E12.27547
G1 X111.251 Y107.161 E12.29276
G1 X111.601 Y106.923 E12.3012
G1 X112.37 Y106.449 E12.31923
G1 X112.857 Y106.195 E12.33019
G1 X113.638 Y105.818 E12.3475
G1 X114.039 Y105.637 E12.35628
G1 X114.877 Y105.302 E12.37429
G1 X115.396 Y105.137 E12.38516
G1 X115.955 Y104.975 E12.39677
G1 X116.643 Y104.793 E12.41097
G1 X117.527 Y104.607 E12.429
G1 X118.085 Y104.531 E12.44024
G1 X118.667 Y104.468 E12.45192
G1 X119.351 Y104.409 E12.46562
G1 X120.253 Y104.376 E12.48363
G1 X120.844 Y104.398 E12.49544
G1 X121.42 Y104.436 E12.50696
G1 X122.168 Y104.504 E12.52195
G1 X123.444 Y104.71 E12.54774
G1 X125.928 Y105.275 E12.59858
G1 X128.419 Y105.768 E12.64925
G1 X130.894 Y106.185 E12.69934
G1 X133.442 Y106.542 E12.75068
G1 X135.979 Y106.824 E12.80162
G1 X138.485 Y107.031 E12.8518
G1 X141.001 Y107.166 E12.90209
G1 X143.578 Y107.233 E12.95353
G1 X146.127 Y107.226 E13.0044
G1 X148.147 Y107.171 E13.04472
G1 X149.841 Y107.105 E13.07856
G1 X152.493 Y106.966 E13.13155
G1 X155.026 Y106.761 E13.18227
G1 X157.564 Y106.482 E13.23322
G1 X158.206 Y106.393 E13.24615
G1 X159.463 Y106.234 E13.27144
G1 X160.41 Y106.138 E13.29043
G1 X161.139 Y106.085 E13.30502
G1 X162.042 Y106.066 E13.32304
G1 X162.596 Y106.093 E13.33411
G1 X163.427 Y106.161 E13.35075
G1 X163.853 Y106.206 E13.3593
G1 X164.746 Y106.341 E13.37732
G1 X165.309 Y106.468 E13.38884
G1 X166.146 Y106.686 E13.4061
G1 X166.552 Y106.802 E13.41453
G1 X167.409 Y107.089 E13.43256
G1 X167.942 Y107.311 E13.44409
G1 X168.481 Y107.554 E13.45589
G1 X169.097 Y107.848 E13.46951
G1 X169.891 Y108.278 E13.48753
G1 X170.379 Y108.589 E13.49907
G1 X170.831 Y108.896 E13.50998
G1 X171.432 Y109.325 E13.52471
G1 X172.14 Y109.886 E13.54274
G1 X172.554 Y110.265 E13.55394
G1 X172.96 Y110.658 E13.56522
G1 X173.481 Y111.188 E13.58005
G1 X174.081 Y111.863 E13.59807
G1 X174.4 Y112.278 E13.60852
G1 X174.908 Y112.981 E13.62583
G1 X175.146 Y113.328 E13.63422
G1 X175.623 Y114.094 E13.65223
