;FLAVOR:Marlin
;TIME:1942
;Filament used: 0.780846m
;Layer height: 0.16
;MINX:123.165
;MINY:106.336
;MINZ:0.2
;MAXX:168.514
;MAXY:193.663
;MAXZ:5.68
;Generated with Cura_SteamEngine 5.2.2
M140 S60
M105
M190 S60
M104 S200
M105
M109 S200
M82 ;absolute extrusion mode
; Ender 3 Max Custom Start G-code
G92 E0 ; Reset Extruder
G28 ; Home all axes
G1 Z2.0 F3000 ; Move Z Axis up little to prevent scratching of Heat Bed
G1 X0.1 Y20 Z0.3 F5000.0 ; Move to start position
G1 X0.1 Y200.0 Z0.3 F1500.0 E15 ; Draw the first line
G1 X0.4 Y200.0 Z0.3 F5000.0 ; Move to side a little
G1 X0.4 Y20 Z0.3 F1500.0 E30 ; Draw the second line
G92 E0 ; Reset Extruder
G1 Z2.0 F3000 ; Move Z Axis up little to prevent scratching of Heat Bed
G1 X5 Y20 Z0.3 F5000.0 ; Move over to prevent blob squish
G92 E0
G92 E0
G1 F1500 E-6.5
;LAYER_COUNT:39
;LAYER:0
M107
G0 F6000 X140.71 Y110.89 Z0.2
;TYPE:SKIRT
G1 F1500 E0
G1 F1200 X141.292 Y110.155 E0.03118
G1 X141.934 Y109.471 E0.06238
G1 X142.632 Y108.844 E0.09359
G1 X143.38 Y108.28 E0.12475
G1 X144.175 Y107.781 E0.15597
G1 X145.008 Y107.351 E0.18715
G1 X145.876 Y106.994 E0.21836
G1 X146.77 Y106.713 E0.24953
G1 X147.685 Y106.508 E0.28072
G1 X148.615 Y106.382 E0.31193
G1 X149.552 Y106.336 E0.34314
G1 X150.292 Y106.356 E0.36776
G1 X151.261 Y106.42 E0.40006
G1 X153.019 Y106.58 E0.45877
G1 X155.611 Y106.778 E0.54523
G1 X157.491 Y106.897 E0.60789
G1 X158.457 Y106.979 E0.64013
G1 X159.387 Y107.102 E0.67133
G1 X160.303 Y107.303 E0.70252
G1 X161.198 Y107.582 E0.7337
G1 X162.067 Y107.936 E0.76491
G1 X162.902 Y108.363 E0.79611
G1 X163.698 Y108.859 E0.8273
G1 X164.448 Y109.421 E0.85847
G1 X165.148 Y110.046 E0.88968
G1 X165.793 Y110.727 E0.92088
G1 X166.376 Y111.461 E0.95206
G1 X166.896 Y112.242 E0.98326
G1 X167.346 Y113.064 E1.01443
G1 X167.726 Y113.922 E1.04564
G1 X168.03 Y114.809 E1.07683
G1 X168.258 Y115.719 E1.10803
G1 X168.408 Y116.645 E1.13923
G1 X168.477 Y117.557 E1.16965
G1 X168.493 Y118.141 E1.18908
G1 X168.514 Y122.234 E1.32522
G1 X168.498 Y123.866 E1.3795
G1 X168.466 Y125.25 E1.42555
G1 X168.464 Y126.732 E1.47484
G1 X168.451 Y127.243 E1.49184
G1 X168.416 Y127.891 E1.51342
G1 X168.067 Y132.449 E1.66547
G1 X167.974 Y133.481 E1.69993
G1 X167.781 Y136.019 E1.78459
G1 X167.742 Y136.683 E1.80671
G1 X167.022 Y146.151 E2.12253
G1 X166.954 Y146.9 E2.14754
G1 X166.642 Y149.858 E2.24647
G1 X166.449 Y152.385 E2.33076
G1 X166.329 Y154.872 E2.41358
G1 X166.28 Y157.389 E2.49731
G1 X166.302 Y159.935 E2.58199
G1 X166.393 Y162.474 E2.66649
G1 X166.381 Y163.516 E2.70115
G1 X166.332 Y164.321 E2.72798
G1 X166.021 Y168.378 E2.86331
G1 X165.938 Y169.302 E2.89417
G1 X165.876 Y169.856 E2.91271
G1 X165.51 Y172.301 E2.99493
G1 X165.199 Y174.829 E3.07965
G1 X164.953 Y177.429 E3.16651
G1 X164.878 Y178.375 E3.19808
G1 X164.804 Y179.107 E3.22255
G1 X164.665 Y180.034 E3.25372
G1 X164.514 Y180.7 E3.27644
G1 X164.297 Y181.525 E3.30481
G1 X164.179 Y181.936 E3.31903
G1 X163.882 Y182.825 E3.35021
G1 X163.626 Y183.44 E3.37236
G1 X163.404 Y183.93 E3.39025
G1 X163.086 Y184.593 E3.41471
G1 X162.641 Y185.418 E3.44589
G1 X162.278 Y185.989 E3.46839
G1 X161.948 Y186.473 E3.48788
G1 X161.502 Y187.093 E3.51328
G1 X160.918 Y187.826 E3.54445
G1 X160.514 Y188.266 E3.56432
G1 X160.14 Y188.652 E3.58219
G1 X159.572 Y189.21 E3.60868
G1 X158.871 Y189.834 E3.63989
G1 X158.382 Y190.21 E3.66041
G1 X157.925 Y190.542 E3.67919
G1 X157.295 Y190.977 E3.70466
G1 X156.498 Y191.471 E3.73585
G1 X155.922 Y191.773 E3.75748
G1 X155.406 Y192.024 E3.77656
G1 X154.761 Y192.321 E3.80018
G1 X153.891 Y192.672 E3.83138
G1 X153.252 Y192.878 E3.85371
G1 X152.71 Y193.034 E3.87247
G1 X151.998 Y193.221 E3.89696
G1 X151.08 Y193.416 E3.92817
G1 X150.446 Y193.503 E3.94945
G1 X149.563 Y193.595 E3.97898
G1 X149.153 Y193.628 E3.99266
G1 X148.215 Y193.663 E4.02388
G1 X147.555 Y193.64 E4.04585
G1 X147.002 Y193.604 E4.06428
G1 X146.218 Y193.534 E4.09046
G1 X145.289 Y193.404 E4.12166
G1 X144.681 Y193.275 E4.14233
G1 X143.824 Y193.063 E4.17169
G1 X143.416 Y192.951 E4.18577
G1 X142.523 Y192.664 E4.21696
G1 X141.941 Y192.43 E4.23783
G1 X141.072 Y192.046 E4.26943
G1 X140.695 Y191.867 E4.28331
G1 X139.866 Y191.429 E4.31449
G1 X139.358 Y191.113 E4.33439
G1 X138.63 Y190.628 E4.36349
G1 X138.266 Y190.372 E4.37829
G1 X137.523 Y189.8 E4.40947
G1 X137.054 Y189.384 E4.43032
G1 X136.679 Y189.031 E4.44745
G1 X136.097 Y188.454 E4.47471
G1 X135.464 Y187.763 E4.50588
G1 X135.08 Y187.279 E4.52643
G1 X134.72 Y186.798 E4.54641
G1 X134.304 Y186.214 E4.57026
G1 X133.797 Y185.424 E4.60148
G1 X133.483 Y184.845 E4.62339
G1 X133.091 Y184.06 E4.65257
G1 X132.91 Y183.675 E4.66672
G1 X132.548 Y182.81 E4.69791
G1 X132.34 Y182.193 E4.71957
G1 X132.088 Y181.348 E4.74889
G1 X131.703 Y179.933 E4.79767
G1 X131.482 Y179.073 E4.8272
G1 X130.791 Y176.671 E4.91033
G1 X130.033 Y174.293 E4.99335
G1 X129.195 Y171.898 E5.07774
G1 X128.299 Y169.554 E5.1612
G1 X127.326 Y167.211 E5.24558
G1 X126.297 Y164.915 E5.32927
G1 X125.206 Y162.655 E5.41274
G1 X124.494 Y161.271 E5.4645
G1 X124.308 Y160.894 E5.47848
G1 X123.93 Y160.036 E5.50967
G1 X123.625 Y159.149 E5.54086
G1 X123.398 Y158.239 E5.57206
G1 X123.248 Y157.313 E5.60326
G1 X123.175 Y156.227 E5.63946
G1 X123.165 Y155.383 E5.66753
G1 X123.174 Y154.723 E5.68949
G1 X123.201 Y154.091 E5.71053
G1 X123.24 Y153.538 E5.72897
G1 X123.385 Y150.991 E5.81382
G1 X123.455 Y148.484 E5.89723
G1 X123.444 Y146.777 E5.95401
G1 X123.461 Y146.305 E5.96972
G1 X123.457 Y145.336 E6.00195
G1 X123.48 Y144.477 E6.03053
G1 X123.588 Y143.3 E6.06984
G1 X123.656 Y142.835 E6.08547
G1 X123.831 Y141.914 E6.11665
G1 X123.973 Y141.37 E6.13535
G1 X124.089 Y140.969 E6.14923
G1 X124.426 Y139.984 E6.18386
G1 X124.556 Y139.655 E6.19563
G1 X124.954 Y138.764 E6.22808
G1 X125.097 Y138.479 E6.23869
G1 X125.688 Y137.446 E6.27827
G1 X125.954 Y137.034 E6.29458
G1 X126.291 Y136.541 E6.31445
G1 X126.596 Y136.124 E6.33163
G1 X127.908 Y134.393 E6.40387
G1 X129.346 Y132.377 E6.48623
G1 X130.753 Y130.285 E6.57009
G1 X132.101 Y128.15 E6.65407
G1 X133.381 Y125.991 E6.73755
G1 X134.599 Y123.796 E6.82104
G1 X135.777 Y121.527 E6.90607
G1 X136.848 Y119.311 E6.98793
G1 X137.881 Y117.007 E7.07191
G1 X139.242 Y113.683 E7.19138
G1 X139.369 Y113.356 E7.20305
G1 X139.745 Y112.497 E7.23423
G1 X140.194 Y111.673 E7.26544
G1 X140.71 Y110.89 E7.29663
G0 F6000 X141.064 Y111.084
G1 F1200 X141.639 Y110.365 E7.32725
G1 X142.274 Y109.698 E7.35788
G1 X142.965 Y109.089 E7.38852
G1 X143.705 Y108.542 E7.41913
G1 X144.491 Y108.062 E7.44976
G1 X145.315 Y107.651 E7.48038
G1 X146.171 Y107.314 E7.51098
G1 X147.054 Y107.052 E7.54162
G1 X147.956 Y106.868 E7.57223
G1 X148.871 Y106.763 E7.60287
G1 X149.791 Y106.737 E7.63348
G1 X150.268 Y106.756 E7.64936
G1 X151.225 Y106.819 E7.68125
G1 X152.951 Y106.976 E7.7389
G1 X155.558 Y107.175 E7.82586
G1 X157.466 Y107.296 E7.88945
G1 X158.422 Y107.378 E7.92136
G1 X159.334 Y107.499 E7.95196
G1 X160.233 Y107.699 E7.98259
G1 X161.111 Y107.976 E8.01321
G1 X161.961 Y108.328 E8.04381
G1 X162.778 Y108.753 E8.07444
G1 X163.555 Y109.247 E8.10507
G1 X164.286 Y109.806 E8.13567
G1 X164.966 Y110.427 E8.1663
G1 X165.589 Y111.105 E8.19693
G1 X166.151 Y111.834 E8.22754
G1 X166.648 Y112.609 E8.25817
G1 X167.076 Y113.424 E8.28878
G1 X167.431 Y114.274 E8.31942
G1 X167.711 Y115.151 E8.35004
G1 X167.915 Y116.049 E8.38067
G1 X168.039 Y116.961 E8.41128
G1 X168.078 Y117.571 E8.43161
G1 X168.093 Y118.143 E8.45064
G1 X168.114 Y122.236 E8.58678
G1 X168.098 Y123.857 E8.6407
G1 X168.066 Y125.241 E8.68674
G1 X168.064 Y126.731 E8.7363
G1 X168.052 Y127.224 E8.7527
G1 X168.017 Y127.861 E8.77392
G1 X167.68 Y132.27 E8.92099
G1 X167.581 Y133.377 E8.95796
G1 X167.384 Y135.967 E9.04435
G1 X167.344 Y136.653 E9.0672
G1 X166.637 Y145.959 E9.37761
G1 X166.556 Y146.863 E9.4078
G1 X166.244 Y149.819 E9.50667
G1 X166.051 Y152.337 E9.59066
G1 X165.929 Y154.88 E9.67534
G1 X165.88 Y157.385 E9.75867
G1 X165.902 Y159.953 E9.84409
G1 X165.993 Y162.489 E9.92849
G1 X165.982 Y163.492 E9.96185
G1 X165.946 Y164.103 E9.98221
G1 X165.61 Y168.492 E10.12861
G1 X165.54 Y169.266 E10.15446
G1 X165.436 Y170.126 E10.18327
G1 X165.111 Y172.264 E10.2552
G1 X164.802 Y174.779 E10.33948
G1 X164.552 Y177.427 E10.42794
G1 X164.479 Y178.343 E10.45851
G1 X164.406 Y179.064 E10.48261
G1 X164.269 Y179.975 E10.51325
G1 X164.127 Y180.6 E10.53457
G1 X163.985 Y181.148 E10.5534
G1 X163.794 Y181.825 E10.57679
G1 X163.502 Y182.698 E10.60741
G1 X163.261 Y183.274 E10.62818
G1 X162.921 Y184.016 E10.65532
G1 X162.726 Y184.418 E10.67018
G1 X162.289 Y185.228 E10.70079
G1 X161.947 Y185.763 E10.72191
G1 X161.617 Y186.247 E10.7414
G1 X161.179 Y186.857 E10.76637
G1 X160.605 Y187.577 E10.797
G1 X160.227 Y187.988 E10.81557
G1 X159.853 Y188.374 E10.83345
G1 X159.294 Y188.923 E10.85951
G1 X158.605 Y189.535 E10.89016
G1 X158.147 Y189.887 E10.90937
G1 X157.69 Y190.219 E10.92816
G1 X157.07 Y190.646 E10.9532
G1 X156.287 Y191.131 E10.98383
G1 X155.747 Y191.413 E11.00409
G1 X155.231 Y191.664 E11.02318
G1 X154.595 Y191.957 E11.04647
G1 X153.741 Y192.301 E11.07709
G1 X153.141 Y192.493 E11.09804
G1 X152.303 Y192.73 E11.12701
G1 X151.898 Y192.834 E11.14092
G1 X150.998 Y193.024 E11.17151
G1 X150.403 Y193.105 E11.19148
G1 X149.53 Y193.196 E11.22068
G1 X149.12 Y193.229 E11.23436
G1 X148.2 Y193.263 E11.26498
G1 X147.581 Y193.241 E11.28558
G1 X147.028 Y193.205 E11.30401
G1 X146.256 Y193.136 E11.32979
G1 X145.344 Y193.008 E11.36042
G1 X144.776 Y192.887 E11.37974
G1 X144.243 Y192.758 E11.39797
G1 X143.522 Y192.565 E11.4228
G1 X142.646 Y192.283 E11.45341
G1 X142.1 Y192.063 E11.47299
G1 X141.562 Y191.829 E11.4925
G1 X140.867 Y191.505 E11.518
G1 X140.053 Y191.075 E11.54862
G1 X139.578 Y190.78 E11.56722
G1 X139.123 Y190.48 E11.58535
G1 X138.496 Y190.044 E11.61075
G1 X137.767 Y189.483 E11.64134
G1 X137.328 Y189.092 E11.6609
G1 X136.712 Y188.505 E11.6892
G1 X136.38 Y188.172 E11.70484
G1 X135.759 Y187.492 E11.73547
G1 X135.401 Y187.04 E11.75464
G1 X135.041 Y186.559 E11.77463
G1 X134.631 Y185.984 E11.79811
G1 X134.135 Y185.208 E11.82875
G1 X133.84 Y184.665 E11.8493
G1 X133.453 Y183.89 E11.87811
G1 X133.272 Y183.505 E11.89226
G1 X132.917 Y182.655 E11.9229
G1 X132.723 Y182.077 E11.94318
G1 X132.474 Y181.242 E11.97216
G1 X132.131 Y179.985 E12.01549
G1 X131.877 Y179.001 E12.0493
G1 X131.167 Y176.534 E12.13468
G1 X130.409 Y174.155 E12.21772
G1 X129.57 Y171.759 E12.30216
G1 X128.671 Y169.407 E12.38591
G1 X127.703 Y167.073 E12.46995
G1 X126.658 Y164.743 E12.55488
G1 X125.556 Y162.462 E12.63914
G1 X124.853 Y161.094 E12.69029
G1 X124.667 Y160.717 E12.70428
G1 X124.296 Y159.874 E12.73491
G1 X123.999 Y159.003 E12.76552
G1 X123.779 Y158.109 E12.79614
G1 X123.638 Y157.199 E12.82677
G1 X123.575 Y156.22 E12.8594
G1 X123.565 Y155.388 E12.88707
G1 X123.574 Y154.728 E12.90902
G1 X123.6 Y154.119 E12.9293
G1 X123.638 Y153.589 E12.94697
G1 X123.785 Y150.989 E13.03359
G1 X123.855 Y148.493 E13.11664
G1 X123.844 Y146.774 E13.17381
G1 X123.861 Y146.31 E13.18925
G1 X123.857 Y145.334 E13.22172
G1 X123.88 Y144.492 E13.24973
G1 X123.984 Y143.358 E13.28761
G1 X124.052 Y142.893 E13.30324
G1 X124.224 Y141.989 E13.33384
G1 X124.357 Y141.481 E13.35131
G1 X124.473 Y141.08 E13.36519
G1 X124.798 Y140.131 E13.39856
G1 X124.928 Y139.802 E13.41032
G1 X125.312 Y138.943 E13.44162
G1 X125.455 Y138.658 E13.45222
G1 X126.024 Y137.663 E13.49035
G1 X126.29 Y137.251 E13.50666
G1 X126.614 Y136.776 E13.52578
G1 X126.915 Y136.366 E13.5427
G1 X128.207 Y134.661 E13.61385
G1 X129.688 Y132.586 E13.69864
G1 X131.09 Y130.501 E13.78221
G1 X132.44 Y128.362 E13.86633
G1 X133.732 Y126.183 E13.95059
G1 X134.954 Y123.981 E14.03435
G1 X136.127 Y121.721 E14.11904
G1 X137.215 Y119.471 E14.20217
G1 X138.242 Y117.179 E14.2857
G1 X139.625 Y113.803 E14.40704
G1 X139.742 Y113.501 E14.41782
G1 X140.112 Y112.658 E14.44844
G1 X140.554 Y111.85 E14.47907
G1 X141.064 Y111.084 E14.50968
G0 F6000 X141.418 Y111.278
G1 F1200 X141.986 Y110.576 E14.53971
G1 X142.614 Y109.927 E14.56975
G1 X143.296 Y109.336 E14.59976
G1 X144.029 Y108.808 E14.62981
G1 X144.805 Y108.346 E14.65985
G1 X145.619 Y107.955 E14.68988
G1 X146.465 Y107.638 E14.71993
G1 X147.335 Y107.396 E14.74997
G1 X148.223 Y107.233 E14.77999
G1 X149.122 Y107.148 E14.81003
G1 X150.243 Y107.155 E14.84731
G1 X151.188 Y107.217 E14.87881
G1 X152.951 Y107.377 E14.93769
G1 X155.503 Y107.573 E15.02282
G1 X157.44 Y107.695 E15.08737
G1 X158.386 Y107.776 E15.11895
G1 X159.281 Y107.896 E15.14899
G1 X160.162 Y108.094 E15.17902
G1 X161.022 Y108.369 E15.20905
G1 X161.855 Y108.72 E15.23911
G1 X162.653 Y109.143 E15.26915
G1 X163.41 Y109.634 E15.29916
G1 X164.121 Y110.191 E15.32921
G1 X164.78 Y110.808 E15.35923
G1 X165.382 Y111.482 E15.38929
G1 X165.922 Y112.206 E15.41933
G1 X166.396 Y112.975 E15.44937
G1 X166.8 Y113.782 E15.47939
G1 X167.131 Y114.623 E15.50945
G1 X167.386 Y115.489 E15.53948
G1 X167.564 Y116.374 E15.5695
G1 X167.678 Y117.584 E15.60993
G1 X167.693 Y118.145 E15.62859
G1 X167.714 Y122.39 E15.76978
G1 X167.701 Y123.711 E15.81372
G1 X167.666 Y125.231 E15.86429
G1 X167.664 Y126.731 E15.91418
G1 X167.652 Y127.205 E15.92995
G1 X167.618 Y127.83 E15.95077
G1 X167.27 Y132.377 E16.10244
G1 X167.177 Y133.409 E16.13691
G1 X166.983 Y135.959 E16.22197
G1 X166.945 Y136.623 E16.24409
G1 X166.238 Y145.929 E16.5545
G1 X166.143 Y146.977 E16.5895
G1 X165.843 Y149.817 E16.68448
G1 X165.651 Y152.322 E16.76804
G1 X165.529 Y154.852 E16.85229
G1 X165.48 Y157.38 E16.93639
G1 X165.502 Y159.971 E17.02257
G1 X165.593 Y162.503 E17.10684
G1 X165.582 Y163.469 E17.13897
G1 X165.534 Y164.26 E17.16532
G1 X165.212 Y168.456 E17.30529
G1 X165.142 Y169.23 E17.33114
G1 X165.082 Y169.76 E17.34888
G1 X164.717 Y172.191 E17.43064
G1 X164.406 Y174.725 E17.51556
G1 X164.157 Y177.363 E17.60369
G1 X164.081 Y178.311 E17.63532
G1 X164.009 Y179.022 E17.65909
G1 X163.873 Y179.915 E17.68913
G1 X163.74 Y180.5 E17.70909
G1 X163.598 Y181.048 E17.72791
G1 X163.41 Y181.715 E17.75096
G1 X163.123 Y182.571 E17.78099
G1 X162.897 Y183.109 E17.8004
G1 X162.675 Y183.599 E17.81829
G1 X162.366 Y184.244 E17.84208
G1 X161.937 Y185.038 E17.8721
G1 X161.617 Y185.538 E17.89184
G1 X161.287 Y186.022 E17.91132
G1 X160.856 Y186.622 E17.9359
G1 X160.292 Y187.327 E17.96592
G1 X159.939 Y187.71 E17.98325
G1 X159.565 Y188.096 E18.00112
G1 X159.015 Y188.636 E18.02676
G1 X158.339 Y189.235 E18.0568
G1 X157.912 Y189.563 E18.07471
G1 X157.196 Y190.078 E18.10404
G1 X156.846 Y190.316 E18.11812
G1 X156.077 Y190.79 E18.14817
G1 X155.572 Y191.053 E18.16711
G1 X154.815 Y191.418 E18.19506
G1 X154.43 Y191.593 E18.20912
G1 X153.592 Y191.93 E18.23916
G1 X153.03 Y192.109 E18.25878
G1 X152.488 Y192.265 E18.27754
G1 X151.799 Y192.446 E18.30123
G1 X150.915 Y192.632 E18.33128
G1 X150.36 Y192.708 E18.34991
G1 X149.778 Y192.771 E18.36938
G1 X149.088 Y192.83 E18.39242
G1 X148.186 Y192.863 E18.42244
G1 X147.607 Y192.841 E18.44171
G1 X146.742 Y192.78 E18.47055
G1 X146.294 Y192.737 E18.48552
G1 X145.4 Y192.611 E18.51555
G1 X144.87 Y192.498 E18.53357
G1 X144.337 Y192.369 E18.55181
G1 X143.628 Y192.179 E18.57622
G1 X142.768 Y191.902 E18.60627
G1 X142.26 Y191.697 E18.62449
G1 X141.722 Y191.463 E18.64401
G1 X141.038 Y191.144 E18.66911
G1 X140.24 Y190.721 E18.69915
G1 X139.798 Y190.446 E18.71646
G1 X139.343 Y190.146 E18.73459
G1 X138.726 Y189.717 E18.75959
G1 X138.011 Y189.165 E18.78963
G1 X137.603 Y188.801 E18.80781
G1 X136.996 Y188.223 E18.83569
G1 X136.664 Y187.89 E18.85133
G1 X136.055 Y187.222 E18.8814
G1 X135.721 Y186.8 E18.8993
G1 X135.361 Y186.319 E18.91928
G1 X134.958 Y185.754 E18.94236
G1 X134.472 Y184.993 E18.97239
G1 X134.197 Y184.484 E18.99164
G1 X133.815 Y183.72 E19.02005
G1 X133.634 Y183.335 E19.0342
G1 X133.287 Y182.501 E19.06424
G1 X133.106 Y181.961 E19.08318
G1 X132.86 Y181.137 E19.11179
G1 X132.478 Y179.734 E19.16015
G1 X132.254 Y178.863 E19.19006
G1 X131.56 Y176.45 E19.27357
G1 X130.791 Y174.039 E19.35774
G1 X129.945 Y171.621 E19.44294
G1 X129.031 Y169.23 E19.52808
G1 X128.066 Y166.905 E19.61181
G1 X127.025 Y164.583 E19.69644
G1 X125.922 Y162.299 E19.7808
G1 X125.292 Y161.077 E19.82653
G1 X125.026 Y160.54 E19.84646
G1 X124.662 Y159.713 E19.87652
G1 X124.374 Y158.858 E19.90652
G1 X124.162 Y157.98 E19.93657
G1 X124.028 Y157.086 E19.96663
