;FLAVOR:Marlin
;TIME:3248
;Filament used: 1.70073m
;Layer height: 0.2
;MINX:115.017
;MINY:111.076
;MINZ:0.2
;MAXX:184.981
;MAXY:189.052
;MAXZ:8.4
;TARGET_MACHINE.NAME:Creality Ender-3 Max
;Generated with Cura_SteamEngine 5.11.0
M140 S60
M105
M190 S60
M104 S210
M105
M109 S210
; Ender 3 Max Custom Start G-code
G92 E0 ; Reset Extruder
G28 ; Home all axes
G1 Z2.0 F3000 ; Move Z Axis up little to prevent scratching of Heat Bed
G1 X0.1 Y20 Z0.3 F5000.0 ; Move to start position
G1 X0.1 Y200.0 Z0.3 F1500.0 E15 ; Draw the first line
G1 X0.4 Y200.0 Z0.3 F5000.0 ; Move to side a little
G1 X0.4 Y20 Z0.3 F1500.0 E30 ; Draw the second line
G92 E0 ; Reset Extruder
G1 Z2.0 F3000 ; Move Z Axis up little to prevent scratching of Heat Bed
G1 X5 Y20 Z0.3 F5000.0 ; Move over to prevent blob squish
M82 ;absolute extrusion mode
G92 E0
G92 E0
G1 F1500 E-6.5
;LAYER_COUNT:42
;LAYER:0
M107
G0 F6000 X119.632 Y127.72 Z0.2
;TYPE:SKIRT
G1 F1500 E0
G1 F1200 X120.037 Y127.353 E0.01818
G1 X120.422 Y127.03 E0.03489
G1 X121.152 Y126.485 E0.06519
G1 X123.306 Y125.054 E0.1512
G1 X125.366 Y123.605 E0.23497
G1 X127.386 Y122.097 E0.31881
G1 X129.349 Y120.543 E0.40209
G1 X131.306 Y118.902 E0.48703
G1 X133.152 Y117.263 E0.56914
G1 X135.034 Y115.497 E0.65498
G1 X136.404 Y114.149 E0.7189
G1 X137.178 Y113.476 E0.75302
G1 X137.966 Y112.904 E0.7854
G1 X138.802 Y112.404 E0.8178
G1 X139.679 Y111.98 E0.8502
G1 X140.604 Y111.632 E0.88307
G1 X141.822 Y111.31 E0.92497
G1 X142.864 Y111.148 E0.96005
G1 X143.725 Y111.09 E0.98875
G1 X144.345 Y111.077 E1.00938
G1 X155.316 Y111.076 E1.37427
G1 X156.173 Y111.088 E1.40278
G1 X157.483 Y111.191 E1.44648
G1 X158.527 Y111.386 E1.48181
G1 X159.463 Y111.653 E1.51418
G1 X160.371 Y112.002 E1.54654
G1 X161.216 Y112.413 E1.57779
G1 X162.087 Y112.939 E1.61163
G1 X163.022 Y113.637 E1.65044
G1 X163.703 Y114.252 E1.68096
G1 X164.388 Y114.926 E1.71292
G1 X166.226 Y116.685 E1.79754
G1 X168.104 Y118.384 E1.88177
G1 X170.022 Y120.022 E1.96566
G1 X171.94 Y121.569 E2.04762
G1 X173.981 Y123.121 E2.1329
G1 X176.009 Y124.576 E2.21591
G1 X178.811 Y126.461 E2.32823
G1 X179.697 Y127.13 E2.36516
G1 X180.241 Y127.607 E2.38922
G1 X180.885 Y128.239 E2.41923
G1 X181.523 Y128.985 E2.45188
G1 X182.193 Y129.941 E2.49071
G1 X182.695 Y130.787 E2.52343
G1 X183.187 Y131.656 E2.55664
G1 X183.601 Y132.416 E2.58543
G1 X183.943 Y133.097 E2.61077
G1 X184.283 Y133.933 E2.64079
G1 X184.467 Y134.49 E2.6603
G1 X184.686 Y135.334 E2.6893
G1 X184.83 Y136.091 E2.71493
G1 X184.952 Y137.113 E2.74917
G1 X184.98 Y138.016 E2.77921
G1 X184.904 Y139.208 E2.81894
G1 X184.576 Y142.232 E2.92011
G1 X184.378 Y144.763 E3.00455
G1 X184.257 Y147.237 E3.08693
G1 X184.202 Y149.785 E3.1717
G1 X184.219 Y152.272 E3.25442
G1 X184.31 Y154.838 E3.33982
G1 X184.465 Y157.297 E3.42177
G1 X184.698 Y159.827 E3.50627
G1 X184.907 Y161.615 E3.56614
G1 X184.957 Y162.17 E3.58468
G1 X184.981 Y163.073 E3.61472
G1 X184.927 Y164.033 E3.6467
G1 X184.859 Y164.646 E3.66722
G1 X184.71 Y165.536 E3.69723
G1 X184.447 Y166.548 E3.73201
G1 X184.143 Y167.399 E3.76206
G1 X183.753 Y168.258 E3.79344
G1 X183.477 Y168.794 E3.81349
G1 X182.72 Y170.14 E3.86486
G1 X182.326 Y170.811 E3.89074
G1 X181.794 Y171.627 E3.92314
G1 X181.216 Y172.365 E3.95431
G1 X180.623 Y173.004 E3.98331
G1 X180.355 Y173.266 E3.99577
G1 X179.781 Y173.776 E4.02131
G1 X178.968 Y174.406 E4.05552
G1 X178.208 Y174.894 E4.08556
G1 X177.187 Y175.424 E4.12382
G1 X175.446 Y176.203 E4.18726
G1 X173.176 Y177.28 E4.27083
G1 X170.885 Y178.445 E4.35631
G1 X168.729 Y179.619 E4.43796
G1 X166.526 Y180.902 E4.52276
G1 X164.375 Y182.238 E4.60698
G1 X162.291 Y183.614 E4.69004
G1 X160.197 Y185.085 E4.77515
G1 X157.775 Y186.874 E4.8753
G1 X156.959 Y187.405 E4.90768
G1 X156.099 Y187.861 E4.94006
G1 X155.234 Y188.23 E4.97133
G1 X154.909 Y188.351 E4.98287
G1 X153.699 Y188.723 E5.02497
G1 X152.814 Y188.903 E5.05501
G1 X151.787 Y189.021 E5.08939
G1 X151.211 Y189.042 E5.10856
G1 X149.465 Y189.052 E5.16664
G1 X148.738 Y189.04 E5.19082
G1 X147.911 Y188.995 E5.21837
G1 X146.947 Y188.863 E5.25073
G1 X146.012 Y188.651 E5.28262
G1 X145.427 Y188.475 E5.30293
G1 X144.9 Y188.291 E5.3215
G1 X143.958 Y187.896 E5.35547
G1 X143.09 Y187.437 E5.38813
G1 X142.105 Y186.787 E5.42738
G1 X140.617 Y185.671 E5.48925
G1 X138.549 Y184.185 E5.57395
G1 X136.477 Y182.785 E5.65712
G1 X134.371 Y181.446 E5.74012
G1 X132.191 Y180.146 E5.82454
G1 X129.987 Y178.913 E5.90854
G1 X127.763 Y177.751 E5.992
G1 X125.467 Y176.632 E6.07695
G1 X122.971 Y175.502 E6.16808
G1 X122.098 Y175.067 E6.20052
G1 X121.306 Y174.582 E6.23141
G1 X120.864 Y174.269 E6.24942
G1 X120.295 Y173.83 E6.27333
G1 X119.562 Y173.19 E6.30569
G1 X118.911 Y172.513 E6.33693
G1 X118.298 Y171.752 E6.36943
G1 X117.675 Y170.81 E6.40699
G1 X117.268 Y170.116 E6.43375
G1 X116.738 Y169.18 E6.46953
G1 X116.233 Y168.242 E6.50496
G1 X115.812 Y167.296 E6.5394
G1 X115.509 Y166.408 E6.57061
G1 X115.269 Y165.438 E6.60384
G1 X115.159 Y164.78 E6.62603
G1 X115.069 Y163.996 E6.65228
G1 X115.017 Y163.017 E6.68489
G1 X115.067 Y161.86 E6.7234
G1 X115.398 Y158.835 E6.82462
G1 X115.599 Y156.356 E6.90734
G1 X115.727 Y153.861 E6.99043
G1 X115.787 Y151.329 E7.07467
G1 X115.775 Y148.781 E7.15942
G1 X115.692 Y146.306 E7.24178
G1 X115.537 Y143.764 E7.32649
G1 X115.314 Y141.277 E7.40954
G1 X115.071 Y139.14 E7.48107
G1 X115.018 Y138.159 E7.51375
G1 X115.072 Y136.958 E7.55373
G1 X115.141 Y136.325 E7.57491
G1 X115.317 Y135.316 E7.60898
G1 X115.569 Y134.375 E7.64138
G1 X115.891 Y133.489 E7.67273
G1 X116.396 Y132.429 E7.71178
G1 X116.941 Y131.433 E7.74955
G1 X117.673 Y130.166 E7.79821
G1 X118.205 Y129.351 E7.83059
G1 X118.803 Y128.587 E7.86286
G1 X119.059 Y128.299 E7.87567
G1 X119.632 Y127.72 E7.90276
G0 F6000 X119.901 Y128.016
G1 F1200 X120.295 Y127.659 E7.92045
G1 X120.661 Y127.351 E7.93636
G1 X121.391 Y126.806 E7.96666
G1 X123.527 Y125.387 E8.05195
G1 X125.605 Y123.926 E8.13644
G1 X127.625 Y122.418 E8.22028
G1 X129.606 Y120.85 E8.30431
G1 X131.563 Y119.209 E8.38926
G1 X133.425 Y117.556 E8.47207
G1 X135.308 Y115.789 E8.55795
G1 X136.685 Y114.434 E8.62221
G1 X137.413 Y113.799 E8.65434
G1 X138.172 Y113.247 E8.68555
G1 X138.977 Y112.764 E8.71678
G1 X139.821 Y112.354 E8.74799
G1 X140.706 Y112.019 E8.77946
G1 X141.924 Y111.697 E8.82136
G1 X142.891 Y111.547 E8.85391
G1 X143.734 Y111.49 E8.88201
G1 X144.345 Y111.477 E8.90234
G1 X155.311 Y111.476 E9.26707
G1 X156.142 Y111.487 E9.29471
G1 X157.452 Y111.59 E9.33842
G1 X158.418 Y111.771 E9.3711
G1 X159.32 Y112.027 E9.40229
G1 X160.196 Y112.362 E9.43348
G1 X161.041 Y112.773 E9.46474
G1 X161.848 Y113.26 E9.49609
G1 X162.754 Y113.934 E9.53364
G1 X163.422 Y114.537 E9.56358
G1 X164.111 Y115.215 E9.59573
G1 X165.949 Y116.974 E9.68034
G1 X167.844 Y118.688 E9.76533
G1 X169.762 Y120.326 E9.84922
G1 X171.698 Y121.887 E9.93193
G1 X173.748 Y123.446 E10.01759
G1 X175.786 Y124.908 E10.10102
G1 X178.57 Y126.78 E10.2126
G1 X179.456 Y127.449 E10.24952
G1 X179.961 Y127.893 E10.27189
G1 X180.582 Y128.5 E10.30077
G1 X181.196 Y129.215 E10.33212
G1 X181.849 Y130.145 E10.36991
G1 X182.347 Y130.984 E10.40236
G1 X182.836 Y131.848 E10.43538
G1 X183.244 Y132.596 E10.46372
G1 X183.572 Y133.248 E10.488
G1 X183.912 Y134.084 E10.51801
G1 X184.087 Y134.615 E10.53661
G1 X184.293 Y135.409 E10.56389
G1 X184.437 Y136.166 E10.58952
G1 X184.552 Y137.125 E10.62165
G1 X184.58 Y138.028 E10.6517
G1 X184.506 Y139.165 E10.68959
G1 X184.178 Y142.189 E10.79076
G1 X183.979 Y144.732 E10.8756
G1 X183.857 Y147.217 E10.95835
G1 X183.802 Y149.776 E11.04348
G1 X183.819 Y152.286 E11.12697
G1 X183.91 Y154.852 E11.21237
G1 X184.067 Y157.334 E11.29508
G1 X184.301 Y159.873 E11.37989
G1 X184.509 Y161.651 E11.43943
G1 X184.557 Y162.181 E11.45713
G1 X184.581 Y163.084 E11.48717
G1 X184.529 Y163.989 E11.51732
G1 X184.464 Y164.58 E11.5371
G1 X184.315 Y165.47 E11.56711
G1 X184.07 Y166.413 E11.59952
G1 X183.766 Y167.264 E11.62957
G1 X183.398 Y168.075 E11.6592
G1 X183.128 Y168.598 E11.67877
G1 X182.375 Y169.938 E11.7299
G1 X181.991 Y170.593 E11.75515
G1 X181.479 Y171.38 E11.78638
G1 X180.901 Y172.118 E11.81755
G1 X180.344 Y172.718 E11.84478
G1 X180.089 Y172.967 E11.85664
G1 X179.515 Y173.477 E11.88218
G1 X178.752 Y174.069 E11.9143
G1 X177.992 Y174.557 E11.94434
G1 X177.024 Y175.059 E11.9806
G1 X175.283 Y175.838 E12.04404
G1 X172.995 Y176.923 E12.12827
G1 X170.704 Y178.088 E12.21375
G1 X168.528 Y179.273 E12.29616
G1 X166.325 Y180.556 E12.38095
G1 X164.164 Y181.898 E12.46556
G1 X162.071 Y183.28 E12.54898
G1 X159.959 Y184.763 E12.63481
G1 X157.556 Y186.539 E12.7342
G1 X156.771 Y187.052 E12.76539
G1 X155.942 Y187.493 E12.79662
G1 X155.094 Y187.855 E12.82728
G1 X154.769 Y187.976 E12.83882
G1 X153.619 Y188.331 E12.87885
G1 X152.734 Y188.511 E12.90889
G1 X151.772 Y188.621 E12.94109
G1 X151.203 Y188.643 E12.96003
G1 X149.471 Y188.652 E13.01764
G1 X148.759 Y188.641 E13.04132
G1 X147.965 Y188.599 E13.06777
G1 X147.035 Y188.473 E13.09898
G1 X146.127 Y188.268 E13.12994
G1 X145.559 Y188.097 E13.14967
G1 X145.032 Y187.913 E13.16824
G1 X144.144 Y187.542 E13.20025
G1 X143.31 Y187.103 E13.23159
G1 X142.345 Y186.467 E13.27003
G1 X140.857 Y185.351 E13.3319
G1 X138.782 Y183.86 E13.41688
G1 X136.692 Y182.447 E13.50079
G1 X134.586 Y181.108 E13.5838
G1 X132.396 Y179.802 E13.6686
G1 X130.172 Y178.558 E13.75336
G1 X127.948 Y177.396 E13.83682
G1 X125.642 Y176.272 E13.92214
G1 X123.149 Y175.144 E14.01315
G1 X122.307 Y174.726 E14.04442
G1 X121.537 Y174.255 E14.07444
G1 X121.108 Y173.952 E14.09191
G1 X120.558 Y173.528 E14.11501
G1 X119.85 Y172.912 E14.14622
G1 X119.223 Y172.262 E14.17626
G1 X118.61 Y171.501 E14.20876
G1 X118.02 Y170.607 E14.24439
G1 X117.616 Y169.919 E14.27092
G1 X117.09 Y168.99 E14.30643
G1 X116.585 Y168.052 E14.34186
G1 X116.191 Y167.167 E14.37408
G1 X115.888 Y166.279 E14.40529
G1 X115.664 Y165.372 E14.43636
G1 X115.554 Y164.714 E14.45855
G1 X115.468 Y163.974 E14.48333
G1 X115.417 Y163.034 E14.51464
G1 X115.465 Y161.904 E14.55226
G1 X115.796 Y158.879 E14.65347
G1 X115.997 Y156.388 E14.73659
G1 X116.127 Y153.87 E14.82045
G1 X116.187 Y151.338 E14.90469
G1 X116.175 Y148.779 E14.9898
G1 X116.092 Y146.293 E15.07254
G1 X115.936 Y143.74 E15.15761
G1 X115.712 Y141.241 E15.24106
G1 X115.47 Y139.118 E15.31213
G1 X115.418 Y138.177 E15.34347
G1 X115.47 Y137.001 E15.38262
G1 X115.539 Y136.368 E15.4038
G1 X115.703 Y135.419 E15.43583
G1 X115.945 Y134.512 E15.46706
G1 X116.267 Y133.626 E15.49841
G1 X116.747 Y132.621 E15.53545
G1 X117.287 Y131.633 E15.5729
G1 X118.008 Y130.384 E15.62087
G1 X118.52 Y129.597 E15.6521
G1 X119.096 Y128.859 E15.68323
G1 X119.309 Y128.629 E15.69366
G1 X119.344 Y128.58 E15.69566
G1 X119.901 Y128.016 E15.72203
G0 F6000 X120.17 Y128.312
G1 F1200 X120.553 Y127.965 E15.73922
G1 X120.901 Y127.671 E15.75437
G1 X121.612 Y127.139 E15.7839
G1 X123.748 Y125.72 E15.8692
G1 X125.844 Y124.247 E15.9544
G1 X127.864 Y122.739 E16.03824
G1 X129.854 Y121.164 E16.12265
G1 X131.82 Y119.515 E16.208
G1 X133.699 Y117.848 E16.29154
G1 X135.581 Y116.08 E16.37743
G1 X136.949 Y114.735 E16.44124
G1 X137.649 Y114.122 E16.47218
G1 X138.379 Y113.59 E16.50223
G1 X139.152 Y113.124 E16.53225
G1 X139.964 Y112.728 E16.5623
G1 X140.808 Y112.406 E16.59234
G1 X142.026 Y112.084 E16.63424
G1 X142.918 Y111.946 E16.66427
G1 X143.743 Y111.89 E16.69177
G1 X144.345 Y111.877 E16.7118
G1 X155.306 Y111.876 E17.07636
G1 X156.111 Y111.886 E17.10314
G1 X157.421 Y111.989 E17.14684
G1 X158.309 Y112.156 E17.17689
G1 X159.178 Y112.401 E17.20692
G1 X160.022 Y112.722 E17.23696
G1 X160.835 Y113.116 E17.26701
G1 X161.609 Y113.581 E17.29704
G1 X162.515 Y114.255 E17.3346
G1 X163.141 Y114.822 E17.36269
G1 X163.834 Y115.504 E17.39503
G1 X165.672 Y117.263 E17.47964
G1 X167.584 Y118.992 E17.56538
G1 X169.502 Y120.63 E17.64927
G1 X171.456 Y122.205 E17.73275
G1 X173.515 Y123.771 E17.81878
G1 X175.563 Y125.24 E17.90261
G1 X178.329 Y127.099 E18.01346
G1 X179.215 Y127.768 E18.05038
G1 X179.682 Y128.179 E18.07107
G1 X180.279 Y128.761 E18.0988
G1 X180.869 Y129.445 E18.12885
G1 X181.505 Y130.349 E18.16561
G1 X181.999 Y131.181 E18.19779
G1 X182.485 Y132.04 E18.23062
G1 X182.887 Y132.776 E18.25851
G1 X183.201 Y133.399 E18.28172
G1 X183.541 Y134.235 E18.31173
G1 X183.707 Y134.74 E18.32941
G1 X183.9 Y135.484 E18.35498
G1 X184.044 Y136.241 E18.38061
G1 X184.152 Y137.137 E18.41063
G1 X184.18 Y138.04 E18.44067
G1 X184.108 Y139.122 E18.47674
G1 X183.78 Y142.146 E18.57791
G1 X183.58 Y144.701 E18.66315
G1 X183.457 Y147.197 E18.74627
G1 X183.402 Y149.767 E18.83177
G1 X183.419 Y152.3 E18.91602
G1 X183.51 Y154.866 E19.00141
G1 X183.669 Y157.371 E19.0849
G1 X183.904 Y159.92 E19.17004
G1 X184.111 Y161.687 E19.22921
G1 X184.157 Y162.192 E19.24608
G1 X184.181 Y163.095 E19.27612
G1 X184.131 Y163.946 E19.30447
G1 X184.069 Y164.514 E19.32348
G1 X183.92 Y165.404 E19.35349
G1 X183.693 Y166.278 E19.38353
G1 X183.389 Y167.129 E19.41358
G1 X183.043 Y167.891 E19.44142
G1 X182.779 Y168.402 E19.46055
G1 X182.03 Y169.736 E19.51143
G1 X181.655 Y170.376 E19.5361
G1 X181.164 Y171.134 E19.56614
G1 X180.608 Y171.846 E19.59619
G1 X180.065 Y172.432 E19.62276
G1 X179.823 Y172.668 E19.634
G1 X179.249 Y173.178 E19.65954
G1 X178.536 Y173.732 E19.68957
G1 X177.776 Y174.22 E19.71961
G1 X176.86 Y174.694 E19.75391
G1 X175.119 Y175.474 E19.81737
G1 X172.814 Y176.566 E19.9022
G1 X170.523 Y177.731 E19.98768
G1 X168.327 Y178.927 E20.07085
G1 X166.124 Y180.21 E20.15565
G1 X163.953 Y181.558 E20.24064
G1 X161.851 Y182.946 E20.32442
G1 X159.721 Y184.441 E20.41097
G1 X157.337 Y186.204 E20.50959
G1 X156.582 Y186.699 E20.53962
G1 X155.785 Y187.125 E20.56968
G1 X154.954 Y187.48 E20.59973
G1 X154.65 Y187.594 E20.61053
G1 X153.539 Y187.939 E20.64922
G1 X152.654 Y188.119 E20.67926
G1 X151.756 Y188.221 E20.70932
G1 X151.201 Y188.243 E20.72779
G1 X149.477 Y188.252 E20.78514
G1 X148.779 Y188.242 E20.80835
G1 X148.018 Y188.203 E20.8337
G1 X147.123 Y188.083 E20.86373
G1 X146.242 Y187.885 E20.89377
G1 X145.691 Y187.719 E20.91291
G1 X145.164 Y187.535 E20.93147
G1 X144.33 Y187.188 E20.96152
G1 X143.53 Y186.769 E20.99155
G1 X142.585 Y186.147 E21.02918
G1 X141.097 Y185.031 E21.09104
G1 X139.015 Y183.535 E21.17631
G1 X136.916 Y182.116 E21.26058
G1 X134.791 Y180.764 E21.34435
G1 X132.601 Y179.458 E21.42916
G1 X130.357 Y178.203 E21.51468
G1 X128.133 Y177.041 E21.59814
G1 X125.817 Y175.912 E21.68383
G1 X123.326 Y174.786 E21.77475
G1 X122.516 Y174.385 E21.80482
G1 X121.746 Y173.914 E21.83484
G1 X121.352 Y173.635 E21.85089
G1 X120.82 Y173.226 E21.87321
G1 X120.138 Y172.634 E21.90325
G1 X119.511 Y171.984 E21.93329
G1 X118.944 Y171.281 E21.96333
G1 X118.365 Y170.404 E21.99828
G1 X117.964 Y169.722 E22.02459
G1 X117.442 Y168.8 E22.05983
G1 X116.937 Y167.862 E22.09527
G1 X116.569 Y167.037 E22.12531
G1 X116.276 Y166.183 E22.15534
G1 X116.059 Y165.306 E22.18539
G1 X115.949 Y164.648 E22.20758
G1 X115.867 Y163.952 E22.23089
G1 X115.817 Y163.051 E22.2609
G1 X115.863 Y161.948 E22.29762
G1 X116.194 Y158.923 E22.39883
G1 X116.395 Y156.42 E22.48235
G1 X116.527 Y153.879 E22.56698
G1 X116.587 Y151.347 E22.65122
G1 X116.575 Y148.777 E22.7367
G1 X116.492 Y146.28 E22.81979
G1 X116.335 Y143.716 E22.90523
G1 X116.11 Y141.205 E22.98908
G1 X115.869 Y139.095 E23.05972
G1 X115.818 Y138.194 E23.08973
G1 X115.868 Y137.044 E23.12802
G1 X115.937 Y136.411 E23.1492
G1 X116.09 Y135.521 E23.17923
G1 X116.321 Y134.648 E23.20927
G1 X116.628 Y133.798 E23.23933
G1 X117.098 Y132.813 E23.27562
G1 X117.633 Y131.833 E23.31276
G1 X118.344 Y130.601 E23.36007
G1 X118.835 Y129.843 E23.39011
G1 X119.39 Y129.131 E23.42014
G1 X119.635 Y128.866 E23.43214
G1 X119.629 Y128.861 E23.4324
G1 X120.17 Y128.312 E23.45803
G1 F1500 E16.95803
;MESH:VortexVenom36pt3Parallax.stl
G0 F6000 X126.751 Y135.204
G0 X150 Y177.451
;TYPE:WALL-INNER
G1 F1500 E23.45803
G1 F1200 X150.98 Y177.451 E23.49063
G1 X151.167 Y177.345 E23.49778
G1 X151.263 Y177.213 E23.50321
G1 X152.072 Y173.771 E23.62081
G1 X152.297 Y173.082 E23.64492
G1 X152.578 Y172.516 E23.66593
G1 X152.941 Y171.997 E23.687
G1 X153.416 Y171.486 E23.7102
G1 X153.977 Y171.053 E23.73377
G1 X154.572 Y170.735 E23.75621
G1 X155.155 Y170.523 E23.77685
G1 X156.472 Y170.12 E23.82265
G1 X157.731 Y169.638 E23.86749
G1 X158.951 Y169.079 E23.91213
