;FLAVOR:Marlin
;TIME:3838
;Filament used: 1.52521m
;Layer height: 0.16
;MINX:118.727
;MINY:119.912
;MINZ:0.2
;MAXX:171.501
;MAXY:172.695
;MAXZ:8.96
;Generated with Cura_SteamEngine 5.2.2
M140 S60
M105
M190 S60
M104 S207
M105
M109 S207
M82 ;absolute extrusion mode
; Ender 3 Max Custom Start G-code
G92 E0 ; Reset Extruder
G28 ; Home all axes
G1 Z2.0 F3000 ; Move Z Axis up little to prevent scratching of Heat Bed
G1 X0.1 Y20 Z0.3 F5000.0 ; Move to start position
G1 X0.1 Y200.0 Z0.3 F1500.0 E15 ; Draw the first line
G1 X0.4 Y200.0 Z0.3 F5000.0 ; Move to side a little
G1 X0.4 Y20 Z0.3 F1500.0 E30 ; Draw the second line
G92 E0 ; Reset Extruder
G1 Z2.0 F3000 ; Move Z Axis up little to prevent scratching of Heat Bed
G1 X5 Y20 Z0.3 F5000.0 ; Move over to prevent blob squish
G92 E0
G92 E0
G1 F2100 E-6.5
;LAYER_COUNT:57
;LAYER:0
M107
G0 F6000 X126.444 Y127.639 Z0.2
;TYPE:SKIRT
G1 F2100 E0
G1 F1200 X126.899 Y127.192 E0.02079
G1 X127.251 Y126.864 E0.03647
G1 X127.872 Y126.321 E0.06336
G1 X128.955 Y125.432 E0.10903
G1 X129.543 Y124.983 E0.13315
G1 X130.118 Y124.577 E0.15609
G1 X130.722 Y124.174 E0.17976
G1 X131.295 Y123.809 E0.2019
G1 X131.697 Y123.569 E0.21716
G1 X132.424 Y123.162 E0.24432
G1 X133.382 Y122.661 E0.27956
G1 X134.09 Y122.323 E0.30513
G1 X135.071 Y121.896 E0.34
G1 X135.558 Y121.698 E0.35714
G1 X136.193 Y121.457 E0.37928
G1 X136.777 Y121.254 E0.39943
G1 X137.587 Y121.006 E0.42704
G1 X138.968 Y120.631 E0.47368
G1 X139.605 Y120.483 E0.495
G1 X139.96 Y120.409 E0.50682
G1 X140.769 Y120.265 E0.5336
G1 X141.176 Y120.205 E0.54701
G1 X142.266 Y120.064 E0.58284
G1 X142.811 Y120.007 E0.6007
G1 X143.482 Y119.954 E0.62264
G1 X144.104 Y119.923 E0.64294
G1 X144.89 Y119.912 E0.66856
G1 X146.016 Y119.926 E0.70526
G1 X146.528 Y119.944 E0.72196
G1 X147.12 Y119.979 E0.74129
G1 X147.74 Y120.033 E0.76158
G1 X148.633 Y120.145 E0.79091
G1 X149.688 Y120.308 E0.82571
G1 X150.473 Y120.459 E0.85177
G1 X151.521 Y120.7 E0.88682
G1 X152.253 Y120.895 E0.91151
G1 X153.313 Y121.217 E0.94762
G1 X154.034 Y121.463 E0.97245
G1 X155.023 Y121.84 E1.00695
G1 X155.533 Y122.05 E1.02493
G1 X156.147 Y122.32 E1.04679
G1 X156.705 Y122.584 E1.06691
G1 X157.409 Y122.942 E1.09265
G1 X157.938 Y123.224 E1.11219
G1 X158.395 Y123.486 E1.12936
G1 X159.059 Y123.894 E1.15476
G1 X159.975 Y124.491 E1.1904
G1 X160.317 Y124.724 E1.20389
G1 X160.847 Y125.104 E1.22515
G1 X161.507 Y125.609 E1.25224
G1 X162.087 Y126.09 E1.2768
G1 X162.885 Y126.788 E1.31135
G1 X163.399 Y127.261 E1.33412
G1 X163.716 Y127.569 E1.34853
G1 X164.279 Y128.147 E1.37483
G1 X164.716 Y128.62 E1.39582
G1 X165.209 Y129.181 E1.42016
G1 X165.477 Y129.503 E1.43382
G1 X165.978 Y130.139 E1.46021
G1 X166.613 Y130.995 E1.49495
G1 X167.037 Y131.61 E1.5193
G1 X167.647 Y132.561 E1.55612
G1 X167.936 Y133.039 E1.57433
G1 X168.242 Y133.574 E1.59442
G1 X168.527 Y134.105 E1.61406
G1 X168.888 Y134.842 E1.64081
G1 X169.339 Y135.832 E1.67627
G1 X169.63 Y136.533 E1.70101
G1 X170.017 Y137.566 E1.73697
G1 X170.198 Y138.088 E1.75497
G1 X170.396 Y138.71 E1.77625
G1 X170.56 Y139.281 E1.79561
G1 X170.752 Y140.045 E1.82129
G1 X170.989 Y141.113 E1.85695
G1 X171.14 Y141.895 E1.88291
G1 X171.243 Y142.536 E1.90407
G1 X171.302 Y142.98 E1.91867
G1 X171.413 Y144 E1.95211
G1 X171.469 Y144.781 E1.97764
G1 X171.497 Y145.653 E2.00607
G1 X171.501 Y146.706 E2.0404
G1 X171.477 Y147.472 E2.06538
G1 X171.403 Y148.594 E2.10203
G1 X171.357 Y149.111 E2.11894
G1 X171.285 Y149.745 E2.13974
G1 X171.197 Y150.36 E2.15999
G1 X171.041 Y151.222 E2.18855
G1 X170.733 Y152.652 E2.23623
G1 X170.566 Y153.307 E2.25826
G1 X170.337 Y154.086 E2.28472
G1 X170.094 Y154.813 E2.30971
G1 X169.725 Y155.827 E2.34488
G1 X169.434 Y156.546 E2.37016
G1 X168.996 Y157.528 E2.40521
G1 X168.703 Y158.146 E2.4275
G1 X168.392 Y158.75 E2.44965
G1 X168.161 Y159.169 E2.46524
G1 X167.782 Y159.823 E2.48988
G1 X167.475 Y160.33 E2.5092
G1 X167.237 Y160.7 E2.52354
G1 X166.748 Y161.412 E2.55169
G1 X166.089 Y162.314 E2.58811
G1 X165.613 Y162.92 E2.61322
G1 X164.937 Y163.721 E2.64739
G1 X164.599 Y164.104 E2.66404
G1 X164.168 Y164.569 E2.6847
G1 X163.75 Y164.995 E2.70416
G1 X163.073 Y165.637 E2.73457
G1 X162.268 Y166.354 E2.7697
G1 X161.684 Y166.839 E2.79445
G1 X160.826 Y167.503 E2.82981
G1 X160.507 Y167.741 E2.84278
G1 X159.967 Y168.122 E2.86433
G1 X159.27 Y168.58 E2.89151
G1 X158.605 Y168.98 E2.91681
G1 X157.731 Y169.477 E2.94958
G1 X157.066 Y169.834 E2.97418
G1 X156.382 Y170.171 E2.99903
G1 X155.922 Y170.38 E3.0155
G1 X155.003 Y170.773 E3.04808
G1 X154.412 Y171.006 E3.06879
G1 X153.988 Y171.159 E3.08348
G1 X153.532 Y171.312 E3.09916
G1 X152.494 Y171.636 E3.1346
G1 X151.776 Y171.834 E3.15888
G1 X150.698 Y172.092 E3.19501
G1 X150.136 Y172.211 E3.21373
G1 X149.481 Y172.332 E3.23544
G1 X148.877 Y172.426 E3.25537
G1 X148.095 Y172.52 E3.28104
G1 X146.7 Y172.644 E3.32669
G1 X146.046 Y172.679 E3.34804
G1 X145.196 Y172.695 E3.37575
G1 X144.434 Y172.68 E3.40059
G1 X143.321 Y172.627 E3.43691
G1 X142.806 Y172.59 E3.45374
G1 X142.131 Y172.526 E3.47584
G1 X141.508 Y172.449 E3.4963
G1 X140.801 Y172.341 E3.51961
G1 X140.006 Y172.198 E3.54594
G1 X139.592 Y172.113 E3.55972
G1 X138.824 Y171.93 E3.58545
G1 X137.819 Y171.661 E3.61936
G1 X137.126 Y171.458 E3.6429
G1 X136.431 Y171.228 E3.66676
G1 X136.032 Y171.084 E3.68059
G1 X135.351 Y170.816 E3.70444
G1 X134.319 Y170.379 E3.74097
G1 X133.823 Y170.155 E3.75871
G1 X133.231 Y169.869 E3.78014
G1 X132.687 Y169.587 E3.80011
G1 X132.017 Y169.216 E3.82507
G1 X131.372 Y168.838 E3.84944
G1 X130.999 Y168.605 E3.86378
G1 X130.406 Y168.218 E3.88686
G1 X129.822 Y167.817 E3.90995
G1 X129.429 Y167.529 E3.92583
G1 X128.895 Y167.115 E3.94785
G1 X128.021 Y166.404 E3.98458
G1 X127.603 Y166.046 E4.00252
G1 X127.121 Y165.612 E4.02366
G1 X126.646 Y165.158 E4.04508
G1 X126.134 Y164.631 E4.06902
G1 X125.366 Y163.801 E4.10588
G1 X124.869 Y163.225 E4.13068
G1 X124.211 Y162.407 E4.1649
G1 X123.906 Y162.009 E4.18124
G1 X123.551 Y161.524 E4.20083
G1 X123.199 Y161.015 E4.22101
G1 X122.907 Y160.565 E4.23849
G1 X122.657 Y160.159 E4.25403
G1 X122.114 Y159.237 E4.28891
G1 X121.749 Y158.566 E4.31381
G1 X121.271 Y157.608 E4.3487
G1 X121.061 Y157.161 E4.3648
G1 X120.815 Y156.607 E4.38456
G1 X120.584 Y156.046 E4.40433
G1 X120.24 Y155.114 E4.43672
G1 X119.919 Y154.148 E4.4699
G1 X119.706 Y153.422 E4.49456
G1 X119.423 Y152.323 E4.53155
G1 X119.33 Y151.933 E4.54462
G1 X119.19 Y151.273 E4.56661
G1 X119.054 Y150.5 E4.59219
G1 X118.951 Y149.794 E4.61545
G1 X118.867 Y149.115 E4.63775
G1 X118.822 Y148.642 E4.65323
G1 X118.773 Y147.886 E4.67793
G1 X118.73 Y146.788 E4.71374
G1 X118.727 Y146.02 E4.73878
G1 X118.76 Y144.945 E4.77383
G1 X118.798 Y144.266 E4.796
G1 X118.859 Y143.572 E4.81871
G1 X118.911 Y143.12 E4.83354
G1 X119.023 Y142.357 E4.85867
G1 X119.218 Y141.232 E4.89589
G1 X119.328 Y140.682 E4.91417
G1 X119.477 Y140.024 E4.93616
G1 X119.625 Y139.441 E4.95577
G1 X119.818 Y138.763 E4.97875
G1 X120.023 Y138.102 E5.0013
G1 X120.173 Y137.657 E5.01661
G1 X120.45 Y136.915 E5.04243
G1 X120.861 Y135.898 E5.07818
G1 X121.073 Y135.409 E5.09555
G1 X121.344 Y134.822 E5.11663
G1 X121.609 Y134.287 E5.13609
G1 X122.011 Y133.544 E5.16362
G1 X122.545 Y132.622 E5.19835
G1 X122.81 Y132.188 E5.21493
G1 X123.157 Y131.648 E5.23585
G1 X123.502 Y131.143 E5.25578
G1 X123.997 Y130.473 E5.28293
G1 X124.705 Y129.571 E5.32031
G1 X124.95 Y129.271 E5.33294
G1 X125.393 Y128.754 E5.35513
G1 X125.954 Y128.142 E5.38219
G1 X126.444 Y127.639 E5.40508
G0 F6000 X126.73 Y127.918
G1 F1200 X127.177 Y127.479 E5.4255
G1 X127.517 Y127.163 E5.44063
G1 X128.127 Y126.629 E5.46705
G1 X128.922 Y125.97 E5.50071
G1 X129.514 Y125.505 E5.52525
G1 X130 Y125.146 E5.54494
G1 X130.944 Y124.507 E5.5821
G1 X131.508 Y124.148 E5.60389
G1 X131.895 Y123.916 E5.6186
G1 X132.61 Y123.517 E5.64529
G1 X133.568 Y123.016 E5.68052
G1 X134.25 Y122.69 E5.70516
G1 X135.231 Y122.263 E5.74004
G1 X135.7 Y122.072 E5.75654
G1 X136.335 Y121.831 E5.77868
G1 X136.898 Y121.635 E5.79811
G1 X137.693 Y121.391 E5.82522
G1 X139.062 Y121.02 E5.87145
G1 X139.687 Y120.875 E5.89236
G1 X140.042 Y120.801 E5.90418
G1 X140.835 Y120.66 E5.93044
G1 X141.227 Y120.602 E5.94335
G1 X142.317 Y120.461 E5.97918
G1 X142.842 Y120.406 E5.99638
G1 X143.513 Y120.353 E6.01832
G1 X144.113 Y120.323 E6.0379
G1 X144.885 Y120.312 E6.06307
G1 X146.011 Y120.326 E6.09977
G1 X146.505 Y120.343 E6.11589
G1 X147.097 Y120.378 E6.13522
G1 X147.694 Y120.431 E6.15475
G1 X148.572 Y120.54 E6.18359
G1 X149.627 Y120.703 E6.21839
G1 X150.384 Y120.849 E6.24351
G1 X151.432 Y121.09 E6.27857
G1 X152.137 Y121.278 E6.30235
G1 X153.197 Y121.6 E6.33846
G1 X153.892 Y121.837 E6.36239
G1 X154.881 Y122.214 E6.39689
G1 X155.372 Y122.416 E6.4142
G1 X155.986 Y122.686 E6.43606
G1 X156.524 Y122.941 E6.45547
G1 X157.228 Y123.299 E6.48121
G1 X157.747 Y123.576 E6.50038
G1 X158.188 Y123.828 E6.51694
G1 X158.841 Y124.23 E6.54193
G1 X159.757 Y124.827 E6.57757
G1 X160.087 Y125.051 E6.59057
G1 X160.608 Y125.424 E6.61146
G1 X161.254 Y125.919 E6.63799
G1 X161.824 Y126.391 E6.66211
G1 X162.622 Y127.089 E6.69667
G1 X163.126 Y127.553 E6.71899
G1 X163.431 Y127.85 E6.73287
G1 X163.985 Y128.419 E6.75876
G1 X164.422 Y128.892 E6.77975
G1 X164.906 Y129.443 E6.80365
G1 X165.165 Y129.753 E6.81682
G1 X165.656 Y130.378 E6.84272
G1 X166.291 Y131.234 E6.87746
G1 X166.7 Y131.826 E6.90092
G1 X167.31 Y132.777 E6.93774
G1 X167.589 Y133.237 E6.95528
G1 X167.895 Y133.772 E6.97537
G1 X168.17 Y134.284 E6.99431
G1 X168.524 Y135.008 E7.02058
G1 X168.975 Y135.998 E7.05604
G1 X169.255 Y136.673 E7.07986
G1 X169.642 Y137.706 E7.11582
G1 X169.817 Y138.21 E7.13321
G1 X170.015 Y138.832 E7.15448
G1 X170.173 Y139.381 E7.1731
G1 X170.361 Y140.132 E7.19834
G1 X170.598 Y141.2 E7.234
G1 X170.747 Y141.967 E7.25946
G1 X170.848 Y142.597 E7.28026
G1 X170.905 Y143.024 E7.2943
G1 X170.986 Y143.746 E7.31798
G1 X171.04 Y144.34 E7.33743
G1 X171.069 Y144.798 E7.35238
G1 X171.097 Y145.655 E7.38033
G1 X171.101 Y146.708 E7.41466
G1 X171.078 Y147.446 E7.43872
G1 X171.004 Y148.568 E7.47537
G1 X170.959 Y149.066 E7.49167
G1 X170.887 Y149.7 E7.51247
G1 X170.803 Y150.292 E7.53196
G1 X170.65 Y151.139 E7.56001
G1 X170.345 Y152.557 E7.60729
G1 X170.181 Y153.199 E7.62889
G1 X169.957 Y153.963 E7.65484
G1 X169.718 Y154.676 E7.67935
G1 X169.349 Y155.69 E7.71452
G1 X169.069 Y156.383 E7.73888
G1 X168.631 Y157.365 E7.77393
G1 X168.343 Y157.971 E7.7958
G1 X168.038 Y158.564 E7.81754
G1 X167.815 Y158.969 E7.83261
G1 X167.436 Y159.623 E7.85724
G1 X167.134 Y160.12 E7.8762
G1 X166.905 Y160.477 E7.89003
G1 X166.425 Y161.176 E7.91766
G1 X165.766 Y162.078 E7.95408
G1 X165.308 Y162.662 E7.97827
G1 X164.632 Y163.463 E8.01243
G1 X164.305 Y163.832 E8.0285
G1 X163.874 Y164.297 E8.04917
G1 X163.472 Y164.707 E8.06788
G1 X162.807 Y165.338 E8.09776
G1 X162.002 Y166.055 E8.1329
G1 X161.439 Y166.523 E8.15676
G1 X160.581 Y167.187 E8.19213
G1 X160.274 Y167.416 E8.20461
G1 X159.744 Y167.79 E8.22575
G1 X159.06 Y168.239 E8.25242
G1 X158.408 Y168.632 E8.27724
G1 X157.534 Y169.129 E8.31001
G1 X156.88 Y169.48 E8.3342
G1 X156.208 Y169.81 E8.35861
G1 X155.765 Y170.012 E8.37448
G1 X154.846 Y170.405 E8.40705
G1 X154.276 Y170.63 E8.42703
G1 X153.412 Y170.931 E8.45685
G1 X152.374 Y171.255 E8.49229
G1 X151.683 Y171.445 E8.51565
G1 X150.605 Y171.703 E8.55178
G1 X150.064 Y171.818 E8.56981
G1 X149.409 Y171.939 E8.59152
G1 X148.826 Y172.03 E8.61075
G1 X148.057 Y172.122 E8.636
G1 X146.676 Y172.245 E8.68119
G1 X146.034 Y172.279 E8.70215
G1 X145.201 Y172.295 E8.7293
G1 X144.453 Y172.28 E8.75369
G1 X143.34 Y172.227 E8.79001
G1 X142.843 Y172.192 E8.80625
G1 X142.168 Y172.128 E8.82835
G1 X141.568 Y172.053 E8.84806
G1 X140.861 Y171.945 E8.87137
G1 X140.08 Y171.805 E8.89723
G1 X139.681 Y171.723 E8.91051
G1 X138.927 Y171.544 E8.93577
G1 X137.922 Y171.275 E8.96968
G1 X137.242 Y171.075 E8.99278
G1 X136.56 Y170.849 E9.0162
G1 X136.175 Y170.711 E9.02953
G1 X135.507 Y170.448 E9.05293
G1 X134.475 Y170.011 E9.08946
G1 X133.997 Y169.795 E9.10656
G1 X133.405 Y169.509 E9.12799
G1 X132.881 Y169.237 E9.14723
G1 X132.211 Y168.866 E9.1722
G1 X131.577 Y168.494 E9.19615
G1 X131.218 Y168.27 E9.20995
G1 X130.625 Y167.883 E9.23303
G1 X130.051 Y167.489 E9.25572
G1 X129.672 Y167.212 E9.27102
G1 X129.148 Y166.805 E9.29265
G1 X128.274 Y166.094 E9.32937
G1 X127.87 Y165.748 E9.34671
G1 X127.388 Y165.314 E9.36785
G1 X126.931 Y164.878 E9.38844
G1 X126.428 Y164.359 E9.412
G1 X125.66 Y163.529 E9.44886
G1 X125.181 Y162.974 E9.47275
G1 X124.523 Y162.156 E9.50697
G1 X124.229 Y161.773 E9.52271
G1 X123.874 Y161.288 E9.5423
G1 X123.535 Y160.797 E9.56175
G1 X123.243 Y160.347 E9.57923
G1 X123.001 Y159.956 E9.59422
G1 X122.458 Y159.034 E9.6291
G1 X122.107 Y158.388 E9.65306
G1 X121.629 Y157.43 E9.68796
G1 X121.426 Y156.999 E9.70349
G1 X121.18 Y156.445 E9.72324
G1 X120.958 Y155.904 E9.74231
G1 X120.62 Y154.988 E9.77413
G1 X120.299 Y154.022 E9.80731
G1 X120.093 Y153.322 E9.83109
G1 X119.81 Y152.223 E9.86808
G1 X119.646 Y151.509 E9.89196
G1 X119.521 Y150.869 E9.91322
G1 X119.45 Y150.442 E9.92733
G1 X119.347 Y149.736 E9.95058
G1 X119.265 Y149.068 E9.97252
G1 X119.221 Y148.613 E9.98742
G1 X119.173 Y147.871 E10.01166
G1 X119.13 Y146.773 E10.04747
G1 X119.127 Y146.033 E10.07159
G1 X119.177 Y144.603 E10.11823
G1 X119.223 Y143.967 E10.13902
G1 X119.307 Y143.174 E10.16501
G1 X119.417 Y142.426 E10.18965
G1 X119.612 Y141.301 E10.22687
G1 X119.718 Y140.77 E10.24452
G1 X119.867 Y140.112 E10.26651
G1 X120.01 Y139.551 E10.28538
G1 X120.203 Y138.873 E10.30836
G1 X120.404 Y138.222 E10.33056
G1 X120.549 Y137.794 E10.34529
G1 X120.821 Y137.065 E10.37065
G1 X121.232 Y136.048 E10.40641
G1 X121.436 Y135.577 E10.42314
G1 X121.707 Y134.99 E10.44421
G1 X121.962 Y134.475 E10.46294
G1 X122.357 Y133.744 E10.49003
G1 X122.891 Y132.822 E10.52476
G1 X123.146 Y132.405 E10.54069
G1 X123.493 Y131.865 E10.56161
G1 X123.826 Y131.377 E10.58087
G1 X124.312 Y130.72 E10.6075
G1 X125.256 Y129.528 E10.65707
G1 X125.69 Y129.021 E10.67882
G1 X126.24 Y128.421 E10.70535
G1 X126.73 Y127.918 E10.72824
G0 F6000 X127.017 Y128.198
G1 F1200 X127.456 Y127.766 E10.74831
G1 X127.782 Y127.462 E10.76284
G1 X128.383 Y126.937 E10.78885
G1 X129.178 Y126.278 E10.82251
G1 X129.758 Y125.821 E10.84658
G1 X130.235 Y125.47 E10.86588
G1 X130.562 Y125.242 E10.87888
G1 X131.166 Y124.839 E10.90254
G1 X131.72 Y124.487 E10.92394
G1 X132.093 Y124.264 E10.9381
G1 X132.795 Y123.871 E10.96433
G1 X133.753 Y123.37 E10.99957
G1 X134.409 Y123.057 E11.02326
G1 X135.39 Y122.63 E11.05813
G1 X135.842 Y122.446 E11.07404
G1 X136.477 Y122.205 E11.09618
G1 X137.019 Y122.016 E11.11489
G1 X137.799 Y121.777 E11.14148
G1 X138.822 Y121.495 E11.17606
G1 X139.472 Y121.333 E11.1979
G1 X140.124 Y121.193 E11.21964
G1 X140.52 Y121.118 E11.23277
G1 X141.278 Y120.998 E11.25779
G1 X142.368 Y120.857 E11.29361
G1 X142.874 Y120.805 E11.31019
G1 X143.545 Y120.752 E11.33213
G1 X144.121 Y120.723 E11.35093
G1 X144.88 Y120.712 E11.37567
G1 X146.006 Y120.726 E11.41238
G1 X146.481 Y120.743 E11.42787
G1 X147.073 Y120.778 E11.4472
G1 X147.648 Y120.828 E11.46601
G1 X148.51 Y120.936 E11.49433
G1 X149.565 Y121.099 E11.52912
G1 X150.294 Y121.238 E11.55331
G1 X151.342 Y121.479 E11.58836
G1 X152.021 Y121.66 E11.61127
G1 X153.081 Y121.982 E11.64738
G1 X153.749 Y122.211 E11.6704
G1 X154.738 Y122.588 E11.7049
G1 X155.211 Y122.782 E11.72156
G1 X155.825 Y123.052 E11.74342
G1 X156.342 Y123.297 E11.76207
G1 X157.276 Y123.775 E11.79627
G1 X157.981 Y124.17 E11.82261
G1 X158.622 Y124.565 E11.84715
G1 X159.538 Y125.162 E11.88279
G1 X160.139 Y125.577 E11.9066
G1 X160.675 Y125.974 E11.92834
G1 X161.001 Y126.229 E11.94183
G1 X161.56 Y126.693 E11.96551
G1 X162.358 Y127.391 E12.00006
G1 X162.853 Y127.845 E12.02196
G1 X163.146 Y128.131 E12.0353
G1 X163.691 Y128.69 E12.06075
G1 X164.128 Y129.163 E12.08174
G1 X164.604 Y129.705 E12.10525
G1 X164.853 Y130.004 E12.11794
G1 X165.335 Y130.616 E12.14333
G1 X165.97 Y131.472 E12.17807
G1 X166.364 Y132.042 E12.20065
G1 X166.974 Y132.993 E12.23748
G1 X167.242 Y133.436 E12.25436
G1 X167.548 Y133.971 E12.27444
G1 X167.812 Y134.463 E12.29264
G1 X168.16 Y135.173 E12.31842
G1 X168.611 Y136.163 E12.35388
G1 X168.881 Y136.814 E12.37685
G1 X169.268 Y137.847 E12.4128
G1 X169.435 Y138.331 E12.42949
