;FLAVOR:Marlin
;TIME:6342
;Filament used: 2.49563m
;Layer height: 0.16
;MINX:115.887
;MINY:117.075
;MINZ:0.2
;MAXX:174.347
;MAXY:175.522
;MAXZ:12.24
;Generated with Cura_SteamEngine 5.2.2
M140 S60
M105
M190 S60
M104 S207
M105
M109 S207
M82 ;absolute extrusion mode
; Ender 3 Max Custom Start G-code
G92 E0 ; Reset Extruder
G28 ; Home all axes
G1 Z2.0 F3000 ; Move Z Axis up little to prevent scratching of Heat Bed
G1 X0.1 Y20 Z0.3 F5000.0 ; Move to start position
G1 X0.1 Y200.0 Z0.3 F1500.0 E15 ; Draw the first line
G1 X0.4 Y200.0 Z0.3 F5000.0 ; Move to side a little
G1 X0.4 Y20 Z0.3 F1500.0 E30 ; Draw the second line
G92 E0 ; Reset Extruder
G1 Z2.0 F3000 ; Move Z Axis up little to prevent scratching of Heat Bed
G1 X5 Y20 Z0.3 F5000.0 ; Move over to prevent blob squish
G92 E0
G92 E0
G1 F2100 E-6.5
;LAYER_COUNT:77
;LAYER:0
M107
G0 F6000 X124.448 Y125.626 Z0.2
;TYPE:SKIRT
G1 F2100 E0
G1 F1200 X124.781 Y125.297 E0.01526
G1 X125.488 Y124.638 E0.04676
G1 X126.015 Y124.18 E0.06952
G1 X127.18 Y123.221 E0.1187
G1 X127.819 Y122.731 E0.14495
G1 X128.408 Y122.312 E0.16851
G1 X128.933 Y121.959 E0.18913
G1 X129.306 Y121.719 E0.20359
G1 X130.294 Y121.111 E0.2414
G1 X130.943 Y120.741 E0.26575
G1 X132.104 Y120.131 E0.3085
G1 X132.814 Y119.79 E0.33417
G1 X134.008 Y119.268 E0.37665
G1 X134.485 Y119.073 E0.39345
G1 X135.157 Y118.816 E0.4169
G1 X135.714 Y118.619 E0.43615
G1 X136.332 Y118.42 E0.45732
G1 X136.786 Y118.285 E0.47275
G1 X137.909 Y117.976 E0.51072
G1 X138.405 Y117.852 E0.52738
G1 X139.176 Y117.678 E0.55315
G1 X139.78 Y117.559 E0.57321
G1 X140.735 Y117.399 E0.60477
G1 X141.31 Y117.315 E0.62372
G1 X141.729 Y117.265 E0.63747
G1 X142.411 Y117.197 E0.65981
G1 X142.889 Y117.16 E0.67544
G1 X144.126 Y117.091 E0.71582
G1 X144.886 Y117.075 E0.7406
G1 X146.084 Y117.091 E0.77965
G1 X146.943 Y117.125 E0.80767
G1 X147.531 Y117.165 E0.82688
G1 X148.609 Y117.281 E0.86222
G1 X149.058 Y117.342 E0.87699
G1 X150.271 Y117.532 E0.91701
G1 X151.032 Y117.678 E0.94227
G1 X152.229 Y117.953 E0.9823
G1 X152.943 Y118.143 E1.00638
G1 X154.166 Y118.512 E1.04802
G1 X154.902 Y118.763 E1.07337
G1 X156.1 Y119.219 E1.11515
G1 X156.805 Y119.515 E1.14007
G1 X157.953 Y120.046 E1.1813
G1 X158.428 Y120.28 E1.19856
G1 X159.144 Y120.654 E1.22489
G1 X159.717 Y120.976 E1.24631
G1 X160.544 Y121.473 E1.27776
G1 X161.092 Y121.819 E1.29889
G1 X161.443 Y122.053 E1.31264
G1 X161.941 Y122.4 E1.33242
G1 X162.317 Y122.674 E1.34759
G1 X163.328 Y123.444 E1.38901
G1 X163.923 Y123.931 E1.41407
G1 X164.87 Y124.763 E1.45516
G1 X165.424 Y125.285 E1.47997
G1 X166.283 Y126.152 E1.51975
G1 X166.829 Y126.731 E1.54569
G1 X167.309 Y127.274 E1.56931
G1 X167.928 Y128.028 E1.60111
G1 X168.19 Y128.366 E1.61505
G1 X168.889 Y129.303 E1.65315
G1 X169.185 Y129.719 E1.6698
G1 X169.617 Y130.358 E1.69494
G1 X169.941 Y130.867 E1.7146
G1 X170.268 Y131.413 E1.73535
G1 X170.502 Y131.823 E1.75074
G1 X171.115 Y132.954 E1.79267
G1 X171.455 Y133.637 E1.81754
G1 X171.951 Y134.726 E1.85654
G1 X172.234 Y135.409 E1.88064
G1 X172.687 Y136.612 E1.92254
G1 X172.876 Y137.157 E1.94134
G1 X173.114 Y137.906 E1.96696
G1 X173.275 Y138.46 E1.98576
G1 X173.52 Y139.43 E2.01837
G1 X173.774 Y140.577 E2.05666
G1 X173.852 Y140.962 E2.06947
G1 X173.988 Y141.725 E2.09473
G1 X174.091 Y142.447 E2.1185
G1 X174.165 Y143.083 E2.13937
G1 X174.209 Y143.54 E2.15433
G1 X174.296 Y144.712 E2.19264
G1 X174.336 Y145.534 E2.21947
G1 X174.347 Y146.133 E2.23899
G1 X174.344 Y146.558 E2.25285
G1 X174.316 Y147.578 E2.28611
G1 X174.281 Y148.263 E2.30846
G1 X174.187 Y149.301 E2.34243
G1 X174.136 Y149.738 E2.35678
G1 X173.972 Y150.92 E2.39567
G1 X173.844 Y151.657 E2.42005
G1 X173.586 Y152.892 E2.46118
G1 X173.396 Y153.692 E2.48798
G1 X173.23 Y154.307 E2.50874
G1 X173.108 Y154.716 E2.52265
G1 X172.911 Y155.332 E2.54373
G1 X172.773 Y155.736 E2.55765
G1 X172.371 Y156.843 E2.59604
G1 X172.071 Y157.605 E2.62273
G1 X171.812 Y158.208 E2.64412
G1 X171.626 Y158.612 E2.65862
G1 X171.221 Y159.447 E2.68887
G1 X170.913 Y160.048 E2.71088
G1 X170.702 Y160.433 E2.72519
G1 X170.388 Y160.979 E2.74572
G1 X170.156 Y161.364 E2.76037
G1 X169.488 Y162.423 E2.80118
G1 X169.073 Y163.034 E2.82526
G1 X168.368 Y164.001 E2.86426
G1 X168.141 Y164.301 E2.87653
G1 X167.661 Y164.906 E2.9017
G1 X167.199 Y165.448 E2.92491
G1 X166.558 Y166.163 E2.95621
G1 X166.219 Y166.525 E2.97238
G1 X165.795 Y166.957 E2.99211
G1 X165.276 Y167.46 E3.01567
G1 X164.094 Y168.521 E3.06744
G1 X163.524 Y168.996 E3.09162
G1 X162.54 Y169.76 E3.13223
G1 X162.1 Y170.084 E3.15004
G1 X161.444 Y170.543 E3.17614
G1 X160.956 Y170.865 E3.19519
G1 X160.449 Y171.181 E3.21467
G1 X160.045 Y171.421 E3.22998
G1 X158.952 Y172.039 E3.27091
G1 X158.286 Y172.387 E3.2954
G1 X157.193 Y172.91 E3.3349
G1 X156.412 Y173.258 E3.36277
G1 X155.781 Y173.516 E3.38499
G1 X154.879 Y173.848 E3.41632
G1 X154.447 Y173.993 E3.43117
G1 X153.285 Y174.357 E3.47086
G1 X152.57 Y174.555 E3.49504
G1 X151.323 Y174.855 E3.53685
G1 X150.489 Y175.03 E3.56462
G1 X149.864 Y175.142 E3.58532
G1 X149.427 Y175.209 E3.59973
G1 X148.492 Y175.332 E3.63047
G1 X147.737 Y175.412 E3.65522
G1 X146.757 Y175.48 E3.68724
G1 X146.296 Y175.498 E3.70227
G1 X145.003 Y175.522 E3.74443
G1 X144.259 Y175.511 E3.76868
G1 X143.08 Y175.453 E3.80715
G1 X142.291 Y175.394 E3.83294
G1 X141.643 Y175.326 E3.85418
G1 X140.61 Y175.177 E3.8882
G1 X140.185 Y175.104 E3.90226
G1 X139.022 Y174.881 E3.94085
G1 X138.28 Y174.712 E3.96566
G1 X137.021 Y174.379 E4.00811
G1 X136.282 Y174.156 E4.03327
G1 X135.092 Y173.75 E4.07425
G1 X134.322 Y173.464 E4.10103
G1 X133.695 Y173.208 E4.1231
G1 X133.303 Y173.036 E4.13705
G1 X132.386 Y172.604 E4.17009
G1 X131.31 Y172.056 E4.20945
G1 X130.573 Y171.656 E4.23678
G1 X129.979 Y171.309 E4.25921
G1 X129.112 Y170.756 E4.29273
G1 X128.76 Y170.518 E4.30658
G1 X127.806 Y169.846 E4.34461
G1 X127.213 Y169.397 E4.36886
G1 X126.203 Y168.578 E4.41124
G1 X125.62 Y168.07 E4.43645
G1 X124.686 Y167.197 E4.47812
G1 X124.134 Y166.644 E4.50359
G1 X123.269 Y165.712 E4.54503
G1 X122.907 Y165.301 E4.56288
G1 X122.421 Y164.722 E4.58752
G1 X122.049 Y164.254 E4.60701
G1 X121.474 Y163.488 E4.63823
G1 X121.24 Y163.164 E4.65126
G1 X120.801 Y162.523 E4.67658
G1 X120.522 Y162.093 E4.69329
G1 X120.269 Y161.683 E4.70899
G1 X119.592 Y160.532 E4.75252
G1 X119.231 Y159.867 E4.77718
G1 X118.71 Y158.823 E4.81521
G1 X118.397 Y158.138 E4.83976
G1 X117.905 Y156.956 E4.88149
G1 X117.596 Y156.154 E4.9095
G1 X117.376 Y155.521 E4.93135
G1 X117.078 Y154.553 E4.96436
G1 X116.953 Y154.102 E4.97962
G1 X116.637 Y152.859 E5.02142
G1 X116.476 Y152.122 E5.04601
G1 X116.259 Y150.932 E5.08544
G1 X116.144 Y150.196 E5.10972
G1 X116.063 Y149.551 E5.13091
G1 X115.97 Y148.502 E5.16523
G1 X115.943 Y148.048 E5.18006
G1 X115.896 Y146.866 E5.21861
G1 X115.887 Y146.333 E5.23599
G1 X115.894 Y145.534 E5.26203
G1 X115.916 Y144.933 E5.28164
G1 X115.974 Y144.02 E5.31146
G1 X116.035 Y143.319 E5.33439
G1 X116.085 Y142.885 E5.34863
G1 X116.212 Y141.946 E5.37952
G1 X116.324 Y141.246 E5.40262
G1 X116.4 Y140.835 E5.41625
G1 X116.524 Y140.233 E5.43628
G1 X116.622 Y139.8 E5.45075
G1 X116.895 Y138.701 E5.48766
G1 X117.096 Y137.996 E5.51156
G1 X117.495 Y136.751 E5.55417
G1 X117.774 Y135.956 E5.58163
G1 X118.016 Y135.332 E5.60345
G1 X118.424 Y134.388 E5.63697
G1 X118.622 Y133.964 E5.65222
G1 X119.183 Y132.825 E5.69361
G1 X119.53 Y132.176 E5.71759
G1 X120.126 Y131.146 E5.75638
G1 X120.527 Y130.504 E5.78105
G1 X121.248 Y129.435 E5.82308
G1 X121.695 Y128.82 E5.84786
G1 X122.465 Y127.833 E5.88867
G1 X122.792 Y127.434 E5.90548
G1 X123.32 Y126.819 E5.9319
G1 X123.77 Y126.325 E5.95368
G1 X124.448 Y125.626 E5.98543
G0 F6000 X124.735 Y125.905
G1 F1200 X125.056 Y125.588 E6.00013
G1 X125.752 Y124.938 E6.03117
G1 X126.271 Y124.487 E6.05358
G1 X127.144 Y123.762 E6.09057
G1 X127.811 Y123.238 E6.11822
G1 X128.299 Y122.877 E6.138
G1 X129.156 Y122.291 E6.17184
G1 X129.516 Y122.059 E6.1858
G1 X130.504 Y121.451 E6.22362
G1 X131.129 Y121.095 E6.24706
G1 X132.29 Y120.485 E6.28981
G1 X132.974 Y120.157 E6.31454
G1 X134.168 Y119.635 E6.35701
G1 X134.628 Y119.446 E6.37322
G1 X135.3 Y119.189 E6.39667
G1 X135.837 Y119 E6.41523
G1 X136.455 Y118.801 E6.43639
G1 X136.892 Y118.671 E6.45125
G1 X138.015 Y118.362 E6.48921
G1 X138.493 Y118.242 E6.50528
G1 X139.264 Y118.068 E6.53104
G1 X139.846 Y117.954 E6.55037
G1 X140.801 Y117.794 E6.58193
G1 X141.365 Y117.711 E6.60052
G1 X142.45 Y117.595 E6.63608
G1 X142.912 Y117.559 E6.65119
G1 X144.149 Y117.49 E6.69157
G1 X144.881 Y117.475 E6.71543
G1 X146.079 Y117.491 E6.75449
G1 X146.924 Y117.525 E6.78205
G1 X147.5 Y117.564 E6.80087
G1 X148.564 Y117.678 E6.83575
G1 X148.996 Y117.737 E6.84996
G1 X150.209 Y117.927 E6.88998
G1 X150.942 Y118.068 E6.91431
G1 X152.139 Y118.343 E6.95434
G1 X152.828 Y118.526 E6.97758
G1 X154.051 Y118.895 E7.01922
G1 X154.76 Y119.136 E7.04363
G1 X155.958 Y119.592 E7.08541
G1 X156.637 Y119.878 E7.10942
G1 X157.785 Y120.409 E7.15065
G1 X158.243 Y120.635 E7.1673
G1 X158.959 Y121.009 E7.19363
G1 X159.511 Y121.318 E7.21425
G1 X160.338 Y121.815 E7.2457
G1 X160.876 Y122.155 E7.26644
G1 X161.712 Y122.728 E7.29948
G1 X162.075 Y122.992 E7.31411
G1 X163.086 Y123.762 E7.35553
G1 X163.659 Y124.232 E7.37969
G1 X164.606 Y125.064 E7.42077
G1 X165.14 Y125.566 E7.44466
G1 X165.999 Y126.433 E7.48445
G1 X166.537 Y127.004 E7.51002
G1 X167.007 Y127.536 E7.53316
G1 X167.616 Y128.279 E7.56447
G1 X167.869 Y128.605 E7.57792
G1 X168.568 Y129.542 E7.61602
G1 X168.853 Y129.943 E7.63206
G1 X169.285 Y130.582 E7.6572
G1 X169.598 Y131.073 E7.67618
G1 X169.925 Y131.619 E7.69692
G1 X170.15 Y132.014 E7.71174
G1 X170.763 Y133.145 E7.75367
G1 X171.091 Y133.802 E7.77761
G1 X171.587 Y134.891 E7.81661
G1 X171.86 Y135.55 E7.83986
G1 X172.313 Y136.753 E7.88176
G1 X172.495 Y137.278 E7.89987
G1 X172.733 Y138.027 E7.92549
G1 X172.888 Y138.561 E7.94361
G1 X173.129 Y139.516 E7.97572
G1 X173.383 Y140.663 E8.01401
G1 X173.54 Y141.479 E8.0411
G1 X173.641 Y142.104 E8.06173
G1 X173.768 Y143.129 E8.0954
G1 X173.81 Y143.569 E8.1098
G1 X173.897 Y144.741 E8.14811
G1 X173.936 Y145.55 E8.17451
G1 X173.947 Y146.138 E8.19368
G1 X173.944 Y146.547 E8.20701
G1 X173.916 Y147.567 E8.24027
G1 X173.882 Y148.239 E8.2622
G1 X173.789 Y149.262 E8.29568
G1 X173.739 Y149.683 E8.3095
G1 X173.575 Y150.865 E8.3484
G1 X173.452 Y151.576 E8.37192
G1 X173.194 Y152.811 E8.41304
G1 X173.111 Y153.174 E8.42518
G1 X172.928 Y153.901 E8.44962
G1 X172.727 Y154.594 E8.47313
G1 X172.53 Y155.21 E8.49421
G1 X172.397 Y155.599 E8.50761
G1 X171.86 Y157.059 E8.55832
G1 X171.589 Y157.72 E8.58161
G1 X171.266 Y158.438 E8.60727
G1 X170.861 Y159.273 E8.63752
G1 X170.558 Y159.863 E8.65914
G1 X170.355 Y160.233 E8.67289
G1 X170.041 Y160.779 E8.69342
G1 X169.817 Y161.15 E8.70755
G1 X169.149 Y162.209 E8.74836
G1 X168.749 Y162.799 E8.77159
G1 X168.044 Y163.766 E8.8106
G1 X167.563 Y164.391 E8.83631
G1 X167.147 Y164.897 E8.85766
G1 X166.902 Y165.181 E8.86988
G1 X166.261 Y165.896 E8.90118
G1 X165.933 Y166.245 E8.91679
G1 X165.509 Y166.677 E8.93652
G1 X165 Y167.171 E8.95964
G1 X163.828 Y168.223 E9.01098
G1 X163.279 Y168.68 E9.03426
G1 X162.295 Y169.444 E9.07487
G1 X161.871 Y169.756 E9.09203
G1 X161.215 Y170.215 E9.11812
G1 X160.745 Y170.526 E9.13649
G1 X160.238 Y170.842 E9.15596
G1 X159.848 Y171.073 E9.17074
G1 X158.755 Y171.691 E9.21167
G1 X158.113 Y172.026 E9.23527
G1 X157.02 Y172.549 E9.27476
G1 X156.252 Y172.891 E9.30217
G1 X155.632 Y173.145 E9.32401
G1 X154.743 Y173.472 E9.35488
G1 X154.328 Y173.611 E9.36915
G1 X153.166 Y173.975 E9.40884
G1 X152.476 Y174.166 E9.43217
G1 X151.229 Y174.466 E9.47398
G1 X150.41 Y174.638 E9.50126
G1 X149.796 Y174.748 E9.52159
G1 X149.375 Y174.812 E9.53547
G1 X148.44 Y174.935 E9.56621
G1 X147.697 Y175.014 E9.59056
G1 X146.733 Y175.081 E9.62206
G1 X146.289 Y175.098 E9.63654
G1 X144.996 Y175.122 E9.67869
G1 X144.278 Y175.111 E9.7021
G1 X143.099 Y175.053 E9.74058
G1 X142.324 Y174.995 E9.76591
G1 X141.688 Y174.928 E9.78675
G1 X140.67 Y174.782 E9.82027
G1 X140.26 Y174.711 E9.83384
G1 X139.097 Y174.488 E9.87244
G1 X138.383 Y174.326 E9.8963
G1 X137.124 Y173.993 E9.93875
G1 X136.411 Y173.777 E9.96303
G1 X135.221 Y173.371 E10.00401
G1 X134.464 Y173.09 E10.03033
G1 X133.849 Y172.839 E10.05198
G1 X133.471 Y172.673 E10.06544
G1 X132.567 Y172.248 E10.098
G1 X131.491 Y171.7 E10.13736
G1 X130.766 Y171.306 E10.16426
G1 X130.184 Y170.965 E10.18624
G1 X129.329 Y170.42 E10.21929
G1 X128.991 Y170.191 E10.2326
G1 X128.037 Y169.519 E10.27063
G1 X127.465 Y169.086 E10.29402
G1 X126.455 Y168.267 E10.3364
G1 X125.893 Y167.778 E10.36068
G1 X124.959 Y166.905 E10.40236
G1 X124.428 Y166.372 E10.42688
G1 X123.563 Y165.44 E10.46832
G1 X123.213 Y165.044 E10.48555
G1 X122.727 Y164.465 E10.51019
G1 X122.369 Y164.014 E10.52896
G1 X121.794 Y163.248 E10.56018
G1 X121.326 Y162.588 E10.58655
G1 X120.858 Y161.876 E10.61432
G1 X120.613 Y161.48 E10.6295
G1 X119.936 Y160.329 E10.67303
G1 X119.588 Y159.688 E10.6968
G1 X119.067 Y158.644 E10.73483
G1 X118.766 Y157.984 E10.75848
G1 X118.274 Y156.802 E10.80021
G1 X118.134 Y156.448 E10.81262
G1 X117.86 Y155.704 E10.83846
G1 X117.638 Y155.028 E10.86165
G1 X117.461 Y154.438 E10.88173
G1 X117.341 Y154.004 E10.89641
G1 X117.025 Y152.761 E10.93821
G1 X116.87 Y152.051 E10.9619
G1 X116.595 Y150.509 E11.01295
G1 X116.5 Y149.84 E11.03498
G1 X116.421 Y149.109 E11.05894
G1 X116.369 Y148.469 E11.07987
G1 X116.342 Y148.032 E11.09414
G1 X116.295 Y146.85 E11.1327
G1 X116.287 Y146.336 E11.14946
G1 X116.294 Y145.537 E11.1755
G1 X116.315 Y144.958 E11.19439
G1 X116.373 Y144.045 E11.2242
G1 X116.433 Y143.357 E11.24672
G1 X116.482 Y142.938 E11.26047
G1 X116.609 Y141.999 E11.29135
G1 X116.718 Y141.311 E11.31406
G1 X116.916 Y140.314 E11.34719
G1 X117.011 Y139.897 E11.36113
G1 X117.284 Y138.798 E11.39804
G1 X117.477 Y138.118 E11.42108
G1 X117.876 Y136.873 E11.46369
G1 X118.003 Y136.501 E11.4765
G1 X118.265 Y135.79 E11.5012
G1 X118.541 Y135.114 E11.525
G1 X118.79 Y134.549 E11.54513
G1 X118.981 Y134.14 E11.55984
G1 X119.542 Y133.001 E11.60123
G1 X119.876 Y132.376 E11.62432
G1 X120.472 Y131.346 E11.66311
G1 X120.859 Y130.728 E11.68688
G1 X121.58 Y129.659 E11.72891
G1 X122.01 Y129.066 E11.75278
G1 X122.78 Y128.079 E11.79359
G1 X123.095 Y127.694 E11.8098
G1 X123.623 Y127.079 E11.83622
G1 X124.057 Y126.604 E11.85719
G1 X124.735 Y125.905 E11.88893
G0 F6000 X125.022 Y126.183
G1 F1200 X125.331 Y125.878 E11.90309
G1 X126.017 Y125.238 E11.93367
G1 X126.526 Y124.795 E11.95566
G1 X127.399 Y124.07 E11.99265
G1 X128.056 Y123.554 E12.01988
G1 X128.535 Y123.2 E12.03929
G1 X128.855 Y122.975 E12.05204
G1 X129.38 Y122.622 E12.07267
G1 X129.725 Y122.4 E12.08604
G1 X130.713 Y121.792 E12.12385
G1 X131.315 Y121.449 E12.14643
G1 X132.476 Y120.839 E12.18918
G1 X133.134 Y120.523 E12.21297
G1 X134.328 Y120.001 E12.25545
G1 X134.77 Y119.82 E12.27102
G1 X135.442 Y119.563 E12.29447
G1 X135.96 Y119.381 E12.31236
G1 X136.578 Y119.182 E12.33353
G1 X136.998 Y119.056 E12.34782
G1 X138.121 Y118.747 E12.38578
G1 X138.582 Y118.632 E12.40127
G1 X139.353 Y118.458 E12.42703
G1 X139.913 Y118.348 E12.44564
G1 X140.868 Y118.188 E12.4772
G1 X141.42 Y118.108 E12.49538
G1 X141.808 Y118.061 E12.50812
G1 X142.49 Y117.993 E12.53046
G1 X142.934 Y117.959 E12.54497
G1 X144.171 Y117.89 E12.58535
G1 X144.875 Y117.875 E12.60831
G1 X146.073 Y117.891 E12.64736
G1 X146.905 Y117.924 E12.6745
G1 X147.47 Y117.963 E12.69296
G1 X147.864 Y118 E12.70586
G1 X148.518 Y118.075 E12.72731
G1 X148.934 Y118.132 E12.741
G1 X150.147 Y118.322 E12.78102
G1 X150.853 Y118.458 E12.80446
G1 X152.05 Y118.733 E12.84449
G1 X152.712 Y118.909 E12.86682
G1 X153.935 Y119.278 E12.90845
G1 X154.618 Y119.51 E12.93197
G1 X155.816 Y119.966 E12.97375
G1 X156.469 Y120.241 E12.99684
G1 X157.617 Y120.772 E13.03807
G1 X158.057 Y120.989 E13.05406
G1 X158.773 Y121.363 E13.08039
G1 X159.305 Y121.661 E13.10027
G1 X160.132 Y122.158 E13.13172
G1 X160.66 Y122.492 E13.15208
G1 X161.483 Y123.056 E13.1846
G1 X161.832 Y123.31 E13.19867
G1 X162.843 Y124.08 E13.24009
G1 X163.395 Y124.532 E13.26335
G1 X164.342 Y125.364 E13.30444
G1 X164.856 Y125.848 E13.32745
G1 X165.715 Y126.715 E13.36723
G1 X166.244 Y127.276 E13.39236
G1 X166.705 Y127.799 E13.41509
G1 X167.305 Y128.531 E13.44594
