;FLAVOR:Marlin
;TIME:5717
;Filament used: 3.91954m
;Layer height: 0.2
;MINX:76
;MINY:76
;MINZ:0.2
;MAXX:224
;MAXY:224
;MAXZ:2
;Generated with Cura_SteamEngine 5.2.2
M140 S50
M105
M190 S50
M104 S200
M105
M109 S200
M82 ;absolute extrusion mode
; Ender 3 Max Custom Start G-code
G92 E0 ; Reset Extruder
G28 ; Home all axes
G1 Z2.0 F3000 ; Move Z Axis up little to prevent scratching of Heat Bed
G1 X0.1 Y20 Z0.3 F5000.0 ; Move to start position
G1 X0.1 Y200.0 Z0.3 F1500.0 E15 ; Draw the first line
G1 X0.4 Y200.0 Z0.3 F5000.0 ; Move to side a little
G1 X0.4 Y20 Z0.3 F1500.0 E30 ; Draw the second line
G92 E0 ; Reset Extruder
G1 Z2.0 F3000 ; Move Z Axis up little to prevent scratching of Heat Bed
G1 X5 Y20 Z0.3 F5000.0 ; Move over to prevent blob squish
G92 E0
G92 E0
G1 F1500 E-6.5
;LAYER_COUNT:9
;LAYER:0
M107
G1 F300 Z0.4
G0 F6000 X80.364 Y81.038 Z0.4
;TYPE:SKIRT
G1 F300 Z0.2
G1 F1500 E0
G1 F1200 X81.112 Y80.298 E0.035
G1 X81.543 Y79.911 E0.05426
G1 X82.521 Y79.129 E0.09591
G1 X82.97 Y78.81 E0.11423
G1 X84.026 Y78.147 E0.1557
G1 X84.517 Y77.876 E0.17435
G1 X85.627 Y77.341 E0.21534
G1 X86.154 Y77.123 E0.23431
G1 X87.054 Y76.796 E0.26615
G1 X87.673 Y76.61 E0.28765
G1 X88.004 Y76.52 E0.29906
G1 X89.047 Y76.29 E0.33458
G1 X89.606 Y76.195 E0.35344
G1 X90.839 Y76.057 E0.39471
G1 X91.415 Y76.025 E0.4139
G1 X91.886 Y76.009 E0.42957
G1 X92.657 Y76 E0.45522
G1 X207.477 Y76.002 E4.27415
G1 X208.203 Y76.012 E4.29829
G1 X208.696 Y76.03 E4.3147
G1 X209.207 Y76.06 E4.33173
G1 X210.406 Y76.197 E4.37187
G1 X210.953 Y76.29 E4.39032
G1 X212.194 Y76.576 E4.43268
G1 X212.745 Y76.737 E4.45177
G1 X213.891 Y77.141 E4.49219
G1 X214.407 Y77.356 E4.51078
G1 X215.508 Y77.889 E4.55146
G1 X215.988 Y78.155 E4.56972
G1 X217.024 Y78.807 E4.61043
G1 X217.531 Y79.167 E4.63111
G1 X218.615 Y80.044 E4.67749
G1 X218.969 Y80.37 E4.69349
G1 X219.689 Y81.099 E4.72757
G1 X220.071 Y81.523 E4.74655
G1 X220.847 Y82.489 E4.78777
G1 X221.168 Y82.938 E4.80612
G1 X221.844 Y84.008 E4.84822
G1 X222.118 Y84.503 E4.86704
G1 X222.661 Y85.63 E4.90864
G1 X222.875 Y86.148 E4.92729
G1 X223.192 Y87.017 E4.95805
G1 X223.376 Y87.628 E4.97928
G1 X223.471 Y87.974 E4.99121
G1 X223.705 Y89.02 E5.02686
G1 X223.8 Y89.572 E5.04549
G1 X223.941 Y90.812 E5.087
G1 X223.973 Y91.373 E5.10569
G1 X223.99 Y91.849 E5.12153
G1 X224 Y92.657 E5.1484
G1 X223.998 Y207.477 E8.96733
G1 X223.988 Y208.202 E8.99145
G1 X223.97 Y208.696 E9.00789
G1 X223.94 Y209.206 E9.02488
G1 X223.807 Y210.381 E9.06421
G1 X223.715 Y210.929 E9.08269
G1 X223.422 Y212.206 E9.12627
G1 X223.245 Y212.809 E9.14717
G1 X222.799 Y214.047 E9.19094
G1 X222.603 Y214.504 E9.20748
G1 X222.115 Y215.5 E9.24437
G1 X221.844 Y215.989 E9.26296
G1 X221.195 Y217.021 E9.30351
G1 X220.873 Y217.475 E9.32202
G1 X220.101 Y218.443 E9.3632
G1 X219.738 Y218.849 E9.38132
G1 X218.905 Y219.685 E9.42057
G1 X218.487 Y220.062 E9.43929
G1 X217.527 Y220.836 E9.48031
G1 X217.072 Y221.162 E9.49892
G1 X215.976 Y221.853 E9.54202
G1 X215.479 Y222.127 E9.56089
G1 X214.373 Y222.659 E9.60171
G1 X213.846 Y222.877 E9.62068
G1 X212.946 Y223.204 E9.65253
G1 X212.297 Y223.398 E9.67506
G1 X211.966 Y223.487 E9.68646
G1 X211.174 Y223.669 E9.71349
G1 X210.518 Y223.787 E9.73566
G1 X210.226 Y223.832 E9.74548
G1 X209.161 Y223.943 E9.7811
G1 X208.585 Y223.975 E9.80029
G1 X208.114 Y223.991 E9.81596
G1 X207.343 Y224 E9.84161
G1 X92.523 Y223.998 E13.66053
G1 X91.798 Y223.988 E13.68465
G1 X91.307 Y223.97 E13.70099
G1 X90.795 Y223.94 E13.71805
G1 X89.594 Y223.803 E13.75826
G1 X89.047 Y223.71 E13.77671
G1 X87.806 Y223.424 E13.81907
G1 X87.255 Y223.263 E13.83816
G1 X86.106 Y222.858 E13.87868
G1 X85.588 Y222.642 E13.89735
G1 X84.482 Y222.106 E13.93822
G1 X84.003 Y221.84 E13.95645
G1 X82.981 Y221.197 E13.99661
G1 X82.476 Y220.839 E14.0172
G1 X81.398 Y219.967 E14.06331
G1 X81.043 Y219.641 E14.07934
G1 X80.302 Y218.892 E14.11439
G1 X79.92 Y218.467 E14.13339
G1 X79.147 Y217.504 E14.17446
G1 X78.823 Y217.05 E14.19302
G1 X78.141 Y215.966 E14.23561
G1 X77.869 Y215.472 E14.25437
G1 X77.336 Y214.361 E14.29535
G1 X77.119 Y213.835 E14.31428
G1 X76.729 Y212.723 E14.35347
G1 X76.576 Y212.199 E14.37163
G1 X76.286 Y210.934 E14.41479
G1 X76.191 Y210.367 E14.43391
G1 X76.057 Y209.162 E14.47424
G1 X76.025 Y208.589 E14.49333
G1 X76.009 Y208.115 E14.5091
G1 X76 Y207.343 E14.53478
G1 X76.002 Y92.523 E18.35371
G1 X76.012 Y91.798 E18.37783
G1 X76.03 Y91.307 E18.39417
G1 X76.06 Y90.795 E18.41123
G1 X76.197 Y89.594 E18.45143
G1 X76.29 Y89.047 E18.46988
G1 X76.576 Y87.806 E18.51224
G1 X76.737 Y87.255 E18.53134
G1 X77.141 Y86.109 E18.57175
G1 X77.356 Y85.593 E18.59034
G1 X77.891 Y84.489 E18.63115
G1 X78.16 Y84.004 E18.64959
G1 X78.8 Y82.985 E18.68961
G1 X79.151 Y82.489 E18.70982
G1 X80.033 Y81.398 E18.75649
G1 X80.364 Y81.038 E18.77275
G0 F6000 X80.658 Y81.309
G1 F1200 X81.379 Y80.596 E18.80648
G1 X81.81 Y80.209 E18.82574
G1 X82.753 Y79.455 E18.8659
G1 X83.202 Y79.136 E18.88422
G1 X84.219 Y78.497 E18.92417
G1 X84.71 Y78.226 E18.94282
G1 X85.78 Y77.711 E18.98232
G1 X86.307 Y77.493 E19.00129
G1 X87.174 Y77.178 E19.03197
G1 X87.778 Y76.996 E19.05295
G1 X88.109 Y76.906 E19.06436
G1 X89.114 Y76.685 E19.09858
G1 X89.673 Y76.59 E19.11744
G1 X90.861 Y76.456 E19.15721
G1 X91.437 Y76.424 E19.17639
G1 X91.891 Y76.409 E19.1915
G1 X92.657 Y76.4 E19.21698
G1 X207.471 Y76.402 E23.03571
G1 X208.197 Y76.412 E23.05986
G1 X208.672 Y76.429 E23.07567
G1 X209.183 Y76.459 E23.09269
G1 X210.339 Y76.591 E23.13139
G1 X210.886 Y76.684 E23.14984
G1 X212.082 Y76.959 E23.19066
G1 X212.633 Y77.12 E23.20975
G1 X213.737 Y77.51 E23.2487
G1 X214.253 Y77.725 E23.26729
G1 X215.314 Y78.238 E23.30649
G1 X215.794 Y78.504 E23.32474
G1 X216.793 Y79.133 E23.364
G1 X217.3 Y79.493 E23.38469
G1 X218.344 Y80.339 E23.42938
G1 X218.698 Y80.665 E23.44539
G1 X219.392 Y81.367 E23.47822
G1 X219.774 Y81.791 E23.4972
G1 X220.522 Y82.721 E23.53689
G1 X220.843 Y83.17 E23.55525
G1 X221.494 Y84.202 E23.59584
G1 X221.768 Y84.697 E23.61465
G1 X222.291 Y85.783 E23.65474
G1 X222.505 Y86.301 E23.67339
G1 X222.81 Y87.138 E23.70301
G1 X222.991 Y87.733 E23.7237
G1 X223.086 Y88.079 E23.73563
G1 X223.31 Y89.088 E23.77001
G1 X223.405 Y89.64 E23.78864
G1 X223.542 Y90.834 E23.82861
G1 X223.574 Y91.395 E23.8473
G1 X223.59 Y91.854 E23.86258
G1 X223.6 Y92.657 E23.88929
G1 X223.598 Y207.471 E27.70802
G1 X223.588 Y208.196 E27.73213
G1 X223.571 Y208.672 E27.74797
G1 X223.541 Y209.182 E27.76497
G1 X223.413 Y210.315 E27.80289
G1 X223.321 Y210.863 E27.82137
G1 X223.038 Y212.093 E27.86335
G1 X222.861 Y212.696 E27.88425
G1 X222.432 Y213.889 E27.92642
G1 X222.236 Y214.346 E27.94296
G1 X221.765 Y215.306 E27.97852
G1 X221.494 Y215.795 E27.99712
G1 X220.869 Y216.789 E28.03617
G1 X220.547 Y217.243 E28.05468
G1 X219.803 Y218.176 E28.09437
G1 X219.44 Y218.582 E28.11249
G1 X218.637 Y219.388 E28.15033
G1 X218.219 Y219.765 E28.16905
G1 X217.294 Y220.511 E28.20858
G1 X216.839 Y220.837 E28.22719
G1 X215.783 Y221.503 E28.26872
G1 X215.286 Y221.777 E28.28759
G1 X214.22 Y222.289 E28.32693
G1 X213.693 Y222.507 E28.34589
G1 X212.826 Y222.822 E28.37658
G1 X212.193 Y223.011 E28.39855
G1 X211.862 Y223.1 E28.40995
G1 X211.099 Y223.276 E28.43599
G1 X210.832 Y223.327 E28.44503
G1 X210.166 Y223.436 E28.46748
G1 X209.139 Y223.544 E28.50182
G1 X208.563 Y223.576 E28.52101
G1 X208.109 Y223.591 E28.53612
G1 X207.343 Y223.6 E28.5616
G1 X92.529 Y223.598 E32.38033
G1 X91.804 Y223.588 E32.40444
G1 X91.33 Y223.571 E32.42022
G1 X90.818 Y223.541 E32.43728
G1 X89.661 Y223.409 E32.47601
G1 X89.114 Y223.316 E32.49446
G1 X87.918 Y223.041 E32.53528
G1 X87.367 Y222.88 E32.55437
G1 X86.26 Y222.488 E32.59343
G1 X85.742 Y222.272 E32.6121
G1 X84.676 Y221.756 E32.65149
G1 X84.197 Y221.49 E32.66971
G1 X83.213 Y220.871 E32.70838
G1 X82.708 Y220.513 E32.72897
G1 X81.668 Y219.672 E32.77345
G1 X81.313 Y219.346 E32.78948
G1 X80.599 Y218.625 E32.82323
G1 X80.217 Y218.2 E32.84224
G1 X79.473 Y217.272 E32.8818
G1 X79.149 Y216.818 E32.90035
G1 X78.491 Y215.773 E32.94142
G1 X78.219 Y215.279 E32.96018
G1 X77.706 Y214.209 E32.99965
G1 X77.489 Y213.683 E33.01857
G1 X77.113 Y212.611 E33.05636
G1 X76.96 Y212.087 E33.07451
G1 X76.681 Y210.868 E33.11611
G1 X76.586 Y210.301 E33.13523
G1 X76.456 Y209.14 E33.17408
G1 X76.424 Y208.567 E33.19317
G1 X76.409 Y208.11 E33.20838
G1 X76.4 Y207.343 E33.23389
G1 X76.402 Y92.529 E37.05262
G1 X76.412 Y91.804 E37.07674
G1 X76.429 Y91.33 E37.09251
G1 X76.459 Y90.818 E37.10957
G1 X76.591 Y89.661 E37.1483
G1 X76.684 Y89.114 E37.16676
G1 X76.959 Y87.918 E37.20757
G1 X77.12 Y87.367 E37.22667
G1 X77.51 Y86.263 E37.26561
G1 X77.725 Y85.747 E37.2842
G1 X78.24 Y84.683 E37.32352
G1 X78.509 Y84.198 E37.34196
G1 X79.126 Y83.216 E37.38054
G1 X79.477 Y82.72 E37.40075
G1 X80.327 Y81.669 E37.4457
G1 X80.658 Y81.309 E37.46197
G0 F6000 X80.952 Y81.579
G1 F1200 X81.646 Y80.894 E37.4944
G1 X82.077 Y80.507 E37.51367
G1 X82.984 Y79.781 E37.55231
G1 X83.433 Y79.462 E37.57063
G1 X84.412 Y78.847 E37.60908
G1 X84.903 Y78.576 E37.62774
G1 X85.933 Y78.081 E37.66574
G1 X86.46 Y77.863 E37.68471
G1 X87.294 Y77.559 E37.71424
G1 X87.883 Y77.382 E37.73469
G1 X88.214 Y77.292 E37.7461
G1 X89.181 Y77.079 E37.77903
G1 X89.74 Y76.984 E37.79789
G1 X90.883 Y76.856 E37.83615
G1 X91.459 Y76.824 E37.85534
G1 X91.896 Y76.809 E37.86988
G1 X92.657 Y76.8 E37.89519
G1 X207.465 Y76.802 E41.71372
G1 X208.191 Y76.812 E41.73787
G1 X208.649 Y76.829 E41.75311
G1 X209.16 Y76.859 E41.77014
G1 X210.272 Y76.985 E41.80736
G1 X210.819 Y77.078 E41.82582
G1 X211.97 Y77.343 E41.8651
G1 X212.521 Y77.504 E41.88419
G1 X213.583 Y77.88 E41.92166
G1 X214.099 Y78.095 E41.94025
G1 X215.12 Y78.588 E41.97797
G1 X215.6 Y78.854 E41.99622
G1 X216.561 Y79.459 E42.03399
G1 X217.068 Y79.819 E42.05467
G1 X218.073 Y80.633 E42.09768
G1 X218.427 Y80.959 E42.11369
G1 X219.095 Y81.635 E42.1453
G1 X219.477 Y82.059 E42.16428
G1 X220.197 Y82.954 E42.20249
G1 X220.518 Y83.403 E42.22084
G1 X221.144 Y84.395 E42.25986
G1 X221.418 Y84.89 E42.27868
G1 X221.921 Y85.935 E42.31725
G1 X222.135 Y86.453 E42.33589
G1 X222.429 Y87.26 E42.36446
G1 X222.605 Y87.839 E42.38458
G1 X222.7 Y88.185 E42.39652
G1 X222.916 Y89.156 E42.4296
G1 X223.011 Y89.708 E42.44823
G1 X223.142 Y90.857 E42.4867
G1 X223.174 Y91.418 E42.50539
G1 X223.19 Y91.859 E42.52006
G1 X223.2 Y92.657 E42.54661
G1 X223.198 Y207.466 E46.36517
G1 X223.188 Y208.191 E46.38929
G1 X223.171 Y208.649 E46.40453
G1 X223.141 Y209.159 E46.42152
G1 X223.018 Y210.249 E46.458
G1 X222.926 Y210.797 E46.47649
G1 X222.654 Y211.981 E46.51689
G1 X222.477 Y212.584 E46.53779
G1 X222.064 Y213.731 E46.57834
G1 X221.868 Y214.188 E46.59488
G1 X221.416 Y215.112 E46.62909
G1 X221.145 Y215.601 E46.64769
G1 X220.543 Y216.558 E46.68529
G1 X220.221 Y217.012 E46.7038
G1 X219.505 Y217.91 E46.742
G1 X219.142 Y218.316 E46.76012
G1 X218.369 Y219.091 E46.79652
G1 X217.951 Y219.468 E46.81525
G1 X217.061 Y220.185 E46.85326
G1 X216.606 Y220.511 E46.87187
G1 X215.59 Y221.152 E46.91183
G1 X215.093 Y221.426 E46.93071
G1 X214.067 Y221.919 E46.96857
G1 X213.54 Y222.137 E46.98754
G1 X212.706 Y222.441 E47.01706
G1 X212.09 Y222.625 E47.03844
G1 X211.759 Y222.714 E47.04984
G1 X211.024 Y222.883 E47.07493
G1 X210.397 Y222.996 E47.09612
G1 X210.105 Y223.041 E47.10594
G1 X209.117 Y223.144 E47.13898
G1 X208.541 Y223.176 E47.15817
G1 X208.104 Y223.191 E47.17271
G1 X207.343 Y223.2 E47.19803
G1 X92.534 Y223.198 E51.01659
G1 X91.809 Y223.188 E51.0407
G1 X91.353 Y223.172 E51.05588
G1 X90.841 Y223.142 E51.07294
G1 X89.728 Y223.015 E51.1102
G1 X89.181 Y222.922 E51.12865
G1 X88.03 Y222.657 E51.16794
G1 X87.479 Y222.496 E51.18703
G1 X86.414 Y222.119 E51.2246
G1 X85.896 Y221.903 E51.24327
G1 X84.87 Y221.406 E51.28119
G1 X84.391 Y221.14 E51.29941
G1 X83.444 Y220.544 E51.33663
G1 X82.939 Y220.186 E51.35722
G1 X81.939 Y219.378 E51.39998
G1 X81.584 Y219.052 E51.41601
G1 X80.897 Y218.358 E51.44849
G1 X80.515 Y217.933 E51.46749
G1 X79.798 Y217.039 E51.50561
G1 X79.474 Y216.585 E51.52416
G1 X78.842 Y215.58 E51.56365
G1 X78.57 Y215.086 E51.5824
G1 X78.076 Y214.056 E51.6204
G1 X77.859 Y213.53 E51.63932
G1 X77.497 Y212.499 E51.67567
G1 X77.344 Y211.975 E51.69382
G1 X77.075 Y210.802 E51.73385
G1 X76.98 Y210.235 E51.75297
G1 X76.856 Y209.118 E51.79035
G1 X76.824 Y208.545 E51.80944
G1 X76.809 Y208.105 E51.82408
G1 X76.8 Y207.343 E51.84943
G1 X76.802 Y92.534 E55.66799
G1 X76.812 Y91.809 E55.69211
G1 X76.828 Y91.353 E55.70728
G1 X76.858 Y90.841 E55.72434
G1 X76.985 Y89.728 E55.7616
G1 X77.078 Y89.181 E55.78005
G1 X77.343 Y88.03 E55.81934
G1 X77.504 Y87.479 E55.83843
G1 X77.88 Y86.417 E55.8759
G1 X78.095 Y85.901 E55.89449
G1 X78.59 Y84.877 E55.93232
G1 X78.859 Y84.392 E55.95077
G1 X79.453 Y83.447 E55.98789
G1 X79.804 Y82.951 E56.0081
G1 X80.621 Y81.939 E56.05136
G1 X80.952 Y81.579 E56.06763
G1 F1500 E49.56763
G1 F300 Z0.4
;MESH:wrapProtector.stl
G0 F6000 X98.303 Y101.474 Z0.4
;TYPE:WALL-INNER
G1 F300 Z0.2
G1 F1500 E56.06763
G1 F1200 X97.634 Y101.552 E56.09003
G1 X96.999 Y101.524 E56.11117
G1 X96.377 Y101.392 E56.13232
G1 X95.765 Y101.166 E56.15402
G1 X95.196 Y100.836 E56.17589
G1 X94.69 Y100.426 E56.19756
G1 X94.257 Y99.938 E56.21925
G1 X93.908 Y99.382 E56.24109
G1 X93.697 Y98.887 E56.25899
G1 X93.627 Y98.676 E56.26638
G1 X93.494 Y98.129 E56.2851
G1 X93.45 Y97.502 E56.30601
G1 X93.496 Y96.846 E56.32788
G1 X93.655 Y96.211 E56.34965
G1 X93.908 Y95.618 E56.3711
G1 X94.259 Y95.061 E56.39299
G1 X94.693 Y94.573 E56.41471
G1 X95.203 Y94.159 E56.43656
G1 X95.758 Y93.838 E56.45789
G1 X96.377 Y93.603 E56.47991
G1 X97.014 Y93.474 E56.50153
G1 X97.68 Y93.449 E56.52369
G1 X98.319 Y93.529 E56.54511
G1 X98.943 Y93.71 E56.56672
G1 X99.526 Y93.985 E56.58816
G1 X100.066 Y94.358 E56.60999
G1 X100.533 Y94.809 E56.63158
G1 X100.929 Y95.336 E56.65351
G1 X101.231 Y95.91 E56.67508
G1 X101.445 Y96.566 E56.69803
G1 X101.537 Y97.172 E56.71842
G1 X101.538 Y97.821 E56.74
G1 X101.437 Y98.479 E56.76215
G1 X101.23 Y99.08 E56.78329
G1 X100.933 Y99.659 E56.80493
G1 X100.534 Y100.189 E56.827
G1 X100.071 Y100.637 E56.84842
G1 X99.529 Y101.014 E56.87038
G1 X98.934 Y101.289 E56.89218
G1 X98.303 Y101.474 E56.91405
G0 F6000 X98.228 Y101.08
G1 F1200 X97.655 Y101.147 E56.93324
G1 X97.056 Y101.127 E56.95318
G1 X96.488 Y101.008 E56.97248
G1 X95.93 Y100.8 E56.99228
G1 X95.427 Y100.508 E57.01163
G1 X94.968 Y100.136 E57.03128
G1 X94.579 Y99.698 E57.05076
G1 X94.263 Y99.195 E57.07052
G1 X94.065 Y98.731 E57.0873
G1 X94.015 Y98.579 E57.09262
G1 X93.898 Y98.1 E57.10902
G1 X93.85 Y97.502 E57.12898
G1 X93.893 Y96.913 E57.14862
G1 X94.036 Y96.338 E57.16833
G1 X94.263 Y95.806 E57.18756
G1 X94.58 Y95.301 E57.20739
G1 X94.959 Y94.877 E57.22631
G1 X95.422 Y94.495 E57.24627
G1 X95.931 Y94.2 E57.26584
G1 X96.488 Y93.989 E57.28565
G1 X97.065 Y93.872 E57.30523
G1 X97.655 Y93.85 E57.32487
G1 X98.231 Y93.921 E57.34417
G1 X98.798 Y94.084 E57.3638
G1 X99.326 Y94.333 E57.38321
G1 X99.812 Y94.669 E57.40286
G1 X100.237 Y95.08 E57.42253
G1 X100.588 Y95.547 E57.44196
G1 X100.86 Y96.065 E57.46142
G1 X101.045 Y96.625 E57.48103
G1 X101.141 Y97.198 E57.50036
G1 X101.139 Y97.79 E57.52005
G1 X101.047 Y98.379 E57.53987
G1 X100.86 Y98.926 E57.5591
G1 X100.591 Y99.449 E57.57866
G1 X100.234 Y99.924 E57.59843
G1 X99.836 Y100.307 E57.6168
G1 X99.333 Y100.664 E57.63731
G1 X98.793 Y100.915 E57.65712
G1 X98.228 Y101.08 E57.6767
G0 F6000 X97.635 Y100.748
G1 F1200 X97.141 Y100.73 E57.69314
G1 X96.603 Y100.627 E57.71136
G1 X96.101 Y100.436 E57.72922
G1 X95.655 Y100.178 E57.74636
G1 X95.245 Y99.845 E57.76392
G1 X94.901 Y99.458 E57.78115
G1 X94.616 Y99.005 E57.79895
G1 X94.433 Y98.574 E57.81452
G1 X94.403 Y98.483 E57.81771
G1 X94.292 Y98.031 E57.83319
G1 X94.247 Y97.504 E57.85078
G1 X94.289 Y96.977 E57.86836
G1 X94.415 Y96.468 E57.8858
G1 X94.616 Y95.995 E57.9029
G1 X94.902 Y95.542 E57.92072
G1 X95.24 Y95.162 E57.93763
G1 X95.655 Y94.822 E57.95547
G1 X96.101 Y94.564 E57.97261
G1 X96.6 Y94.374 E57.99037
G1 X97.079 Y94.277 E58.00663
G1 X97.605 Y94.252 E58.02414
G1 X98.15 Y94.313 E58.04238
G1 X98.655 Y94.459 E58.05987
G1 X99.127 Y94.681 E58.07721
G1 X99.559 Y94.98 E58.09469
G1 X99.932 Y95.341 E58.11195
G1 X100.252 Y95.766 E58.12965
G1 X100.489 Y96.219 E58.14665
G1 X100.659 Y96.72 E58.16425
G1 X100.74 Y97.236 E58.18162
