;FLAVOR:Marlin
;TIME:8915
;Filament used: 6.76697m
;Layer height: 0.2
;MINX:80.193
;MINY:80.179
;MINZ:0.2
;MAXX:219.825
;MAXY:219.818
;MAXZ:7.2
;Generated with Cura_SteamEngine 5.2.2
M140 S50
M105
M190 S50
M104 S200
M105
M109 S200
M82 ;absolute extrusion mode
; Ender 3 Max Custom Start G-code
G92 E0 ; Reset Extruder
G28 ; Home all axes
G1 Z2.0 F3000 ; Move Z Axis up little to prevent scratching of Heat Bed
G1 X0.1 Y20 Z0.3 F5000.0 ; Move to start position
G1 X0.1 Y200.0 Z0.3 F1500.0 E15 ; Draw the first line
G1 X0.4 Y200.0 Z0.3 F5000.0 ; Move to side a little
G1 X0.4 Y20 Z0.3 F1500.0 E30 ; Draw the second line
G92 E0 ; Reset Extruder
G1 Z2.0 F3000 ; Move Z Axis up little to prevent scratching of Heat Bed
G1 X5 Y20 Z0.3 F5000.0 ; Move over to prevent blob squish
G92 E0
G92 E0
G1 F1500 E-6.5
;LAYER_COUNT:36
;LAYER:0
M107
G1 F300 Z0.4
G0 F6000 X100.822 Y100.442 Z0.4
;TYPE:SKIRT
G1 F300 Z0.2
G1 F1500 E0
G1 F1200 X101.082 Y100.185 E0.01216
G1 X102.781 Y98.57 E0.09012
G1 X104.258 Y97.253 E0.15594
G1 X105.774 Y95.975 E0.22189
G1 X106.092 Y95.716 E0.23553
G1 X107.929 Y94.281 E0.31306
G1 X108.226 Y94.058 E0.32542
G1 X109.846 Y92.884 E0.39196
G1 X111.456 Y91.786 E0.45677
G1 X111.976 Y91.443 E0.47749
G1 X113.753 Y90.328 E0.54727
G1 X115.473 Y89.315 E0.61366
G1 X117.722 Y88.09 E0.69884
G1 X118.213 Y87.838 E0.71719
G1 X120.267 Y86.829 E0.79331
G1 X122.117 Y85.991 E0.86086
G1 X122.452 Y85.846 E0.873
G1 X124.557 Y84.981 E0.94869
G1 X126.098 Y84.399 E1.00348
G1 X126.814 Y84.143 E1.02877
G1 X128.631 Y83.531 E1.09254
G1 X130.583 Y82.933 E1.16044
G1 X130.958 Y82.826 E1.17341
G1 X133.131 Y82.249 E1.24819
G1 X135.138 Y81.781 E1.31674
G1 X137.392 Y81.329 E1.3932
G1 X137.784 Y81.258 E1.40645
G1 X140.036 Y80.895 E1.48232
G1 X140.438 Y80.838 E1.49582
G1 X142.414 Y80.594 E1.56204
G1 X144.689 Y80.383 E1.63803
G1 X145.053 Y80.356 E1.65017
G1 X147.038 Y80.243 E1.7163
G1 X147.412 Y80.228 E1.72875
G1 X149.771 Y80.179 E1.80723
G1 X151.443 Y80.193 E1.86284
G1 X153.769 Y80.281 E1.94026
G1 X154.525 Y80.326 E1.96545
G1 X156.795 Y80.51 E2.0412
G1 X158.777 Y80.732 E2.10753
G1 X159.155 Y80.781 E2.12021
G1 X161.139 Y81.073 E2.18691
G1 X163.117 Y81.421 E2.25371
G1 X165.418 Y81.901 E2.33188
G1 X165.813 Y81.992 E2.34537
G1 X167.967 Y82.53 E2.41921
G1 X168.339 Y82.63 E2.43202
G1 X170.201 Y83.165 E2.49646
G1 X170.551 Y83.272 E2.50863
G1 X172.466 Y83.892 E2.57558
G1 X172.821 Y84.014 E2.58806
G1 X175.034 Y84.82 E2.6664
G1 X176.88 Y85.558 E2.73252
G1 X178.701 Y86.349 E2.79856
G1 X179.196 Y86.573 E2.81663
G1 X181.435 Y87.654 E2.89932
G1 X182.937 Y88.433 E2.9556
G1 X184.959 Y89.559 E3.03257
G1 X185.304 Y89.76 E3.04585
G1 X187.535 Y91.124 E3.13283
G1 X188.998 Y92.082 E3.19099
G1 X190.895 Y93.406 E3.26793
G1 X191.194 Y93.624 E3.28024
G1 X193.025 Y95.009 E3.3566
G1 X194.562 Y96.246 E3.42222
G1 X194.853 Y96.488 E3.43481
G1 X196.366 Y97.794 E3.50129
G1 X198.22 Y99.5 E3.58508
G1 X198.62 Y99.886 E3.60357
G1 X199.985 Y101.247 E3.66768
G1 X201.368 Y102.706 E3.73455
G1 X201.881 Y103.27 E3.7599
G1 X203.405 Y105.018 E3.83704
G1 X204.665 Y106.558 E3.90322
G1 X204.894 Y106.848 E3.91551
G1 X206.073 Y108.392 E3.98012
G1 X207.449 Y110.313 E4.05871
G1 X207.665 Y110.628 E4.07142
G1 X208.779 Y112.312 E4.13857
G1 X208.975 Y112.619 E4.15069
G1 X210.158 Y114.554 E4.22612
G1 X211.314 Y116.592 E4.30405
G1 X212.235 Y118.339 E4.36974
G1 X213.121 Y120.146 E4.43667
G1 X213.291 Y120.51 E4.45003
G1 X214.225 Y122.605 E4.52633
G1 X214.379 Y122.968 E4.53944
G1 X215.125 Y124.817 E4.60576
G1 X215.26 Y125.168 E4.61826
G1 X215.943 Y127.043 E4.68463
G1 X216.655 Y129.201 E4.76022
G1 X217.318 Y131.456 E4.83839
G1 X217.816 Y133.37 E4.90417
G1 X217.988 Y134.087 E4.9287
G1 X218.405 Y135.988 E4.99343
G1 X218.477 Y136.348 E5.00564
G1 X218.889 Y138.606 E5.08198
G1 X219.153 Y140.333 E5.14009
G1 X219.436 Y142.637 E5.21729
G1 X219.475 Y143.011 E5.2298
G1 X219.646 Y145.001 E5.29623
G1 X219.672 Y145.393 E5.3093
G1 X219.784 Y147.629 E5.38376
G1 X219.796 Y147.995 E5.39594
G1 X219.825 Y150.01 E5.46297
G1 X219.797 Y151.969 E5.52813
G1 X219.78 Y152.538 E5.54706
G1 X219.646 Y154.998 E5.629
G1 X219.465 Y157.079 E5.69848
G1 X219.238 Y159.037 E5.76404
G1 X219.188 Y159.409 E5.77652
G1 X218.832 Y161.734 E5.85475
G1 X218.477 Y163.654 E5.9197
G1 X218.398 Y164.039 E5.93277
G1 X217.907 Y166.25 E6.0081
G1 X217.813 Y166.642 E6.02151
G1 X217.311 Y168.566 E6.08764
G1 X216.659 Y170.785 E6.16456
G1 X216.549 Y171.134 E6.17674
G1 X215.802 Y173.36 E6.25483
G1 X215.238 Y174.892 E6.30913
G1 X214.368 Y177.057 E6.38673
G1 X214.214 Y177.42 E6.39985
G1 X213.284 Y179.503 E6.47572
G1 X213.114 Y179.866 E6.48905
G1 X212.043 Y182.034 E6.56948
G1 X211.15 Y183.709 E6.63261
G1 X210.968 Y184.036 E6.64506
G1 X209.975 Y185.755 E6.71109
G1 X208.833 Y187.607 E6.78345
G1 X208.632 Y187.92 E6.79583
G1 X207.63 Y189.424 E6.85593
G1 X206.28 Y191.328 E6.93357
G1 X206.06 Y191.627 E6.94591
G1 X204.878 Y193.173 E7.01064
G1 X203.363 Y195.031 E7.09038
G1 X203.121 Y195.317 E7.10284
G1 X201.824 Y196.794 E7.16821
G1 X200.113 Y198.624 E7.25154
G1 X199.741 Y199.001 E7.26916
G1 X198.065 Y200.646 E7.34726
G1 X196.629 Y201.973 E7.4123
G1 X195.065 Y203.334 E7.48125
G1 X194.795 Y203.561 E7.49299
G1 X193.278 Y204.792 E7.55796
G1 X192.658 Y205.276 E7.58412
G1 X191.12 Y206.43 E7.64808
G1 X189.489 Y207.584 E7.71453
G1 X187.538 Y208.874 E7.79232
G1 X187.224 Y209.073 E7.80469
G1 X185.51 Y210.119 E7.87147
G1 X185.167 Y210.32 E7.88469
G1 X183.198 Y211.426 E7.95981
G1 X182.851 Y211.612 E7.9729
G1 X180.855 Y212.635 E8.0475
G1 X179.028 Y213.503 E8.11478
G1 X178.683 Y213.659 E8.12737
G1 X176.568 Y214.571 E8.20398
G1 X174.965 Y215.207 E8.26134
G1 X172.784 Y215.999 E8.33851
G1 X172.438 Y216.118 E8.35068
G1 X170.55 Y216.729 E8.41668
G1 X168.332 Y217.372 E8.49349
G1 X167.95 Y217.474 E8.50664
G1 X165.405 Y218.102 E8.59383
G1 X163.391 Y218.527 E8.66229
G1 X161.466 Y218.874 E8.72735
G1 X160.74 Y218.99 E8.7518
G1 X158.496 Y219.303 E8.82716
G1 X156.423 Y219.526 E8.8965
G1 X154.475 Y219.678 E8.96149
G1 X153.742 Y219.721 E8.98591
G1 X151.754 Y219.799 E9.05208
G1 X151.384 Y219.807 E9.06439
G1 X149.39 Y219.818 E9.13071
G1 X149.016 Y219.814 E9.14315
G1 X147.047 Y219.758 E9.20867
G1 X146.68 Y219.741 E9.22089
G1 X144.316 Y219.589 E9.29968
G1 X142.425 Y219.409 E9.36286
G1 X142.054 Y219.367 E9.37528
G1 X139.672 Y219.053 E9.45519
G1 X137.956 Y218.774 E9.51301
G1 X137.564 Y218.704 E9.52626
G1 X135.402 Y218.277 E9.59955
G1 X135.029 Y218.197 E9.61224
G1 X133.131 Y217.752 E9.67708
G1 X131.199 Y217.242 E9.74354
G1 X128.936 Y216.566 E9.8221
G1 X128.555 Y216.444 E9.8354
G1 X126.418 Y215.715 E9.9105
G1 X126.051 Y215.583 E9.92347
G1 X124.17 Y214.866 E9.99043
G1 X123.819 Y214.725 E10.00301
G1 X121.744 Y213.846 E10.07796
G1 X120.198 Y213.139 E10.1345
G1 X118.123 Y212.117 E10.21143
G1 X117.771 Y211.934 E10.22463
G1 X115.765 Y210.849 E10.30048
G1 X115.407 Y210.647 E10.31415
G1 X113.402 Y209.457 E10.3917
G1 X111.513 Y208.253 E10.46621
G1 X110.073 Y207.276 E10.52408
G1 X109.766 Y207.06 E10.53657
G1 X107.958 Y205.741 E10.611
G1 X107.66 Y205.516 E10.62342
G1 X106.274 Y204.431 E10.68197
G1 X104.496 Y202.952 E10.75889
G1 X104.215 Y202.71 E10.77122
G1 X102.768 Y201.416 E10.83579
G1 X101.138 Y199.87 E10.91051
G1 X100.868 Y199.604 E10.92311
G1 X99.42 Y198.126 E10.99193
G1 X97.846 Y196.416 E11.06923
G1 X97.602 Y196.141 E11.08146
G1 X96.356 Y194.686 E11.14518
G1 X96.12 Y194.401 E11.15748
G1 X94.862 Y192.828 E11.22447
G1 X94.377 Y192.195 E11.251
G1 X93.05 Y190.388 E11.32556
G1 X92.084 Y188.989 E11.38211
G1 X90.834 Y187.065 E11.45842
G1 X90.635 Y186.746 E11.47093
G1 X89.608 Y185.032 E11.53738
G1 X89.411 Y184.69 E11.55051
G1 X88.317 Y182.706 E11.62587
G1 X88.13 Y182.351 E11.63921
G1 X87.08 Y180.258 E11.71709
G1 X86.264 Y178.497 E11.78165
G1 X86.119 Y178.169 E11.79358
G1 X85.208 Y176.009 E11.87155
G1 X84.598 Y174.435 E11.92769
G1 X83.835 Y172.282 E12.00366
G1 X83.663 Y171.769 E12.02166
G1 X83.015 Y169.678 E12.09447
G1 X82.463 Y167.694 E12.16296
G1 X82.376 Y167.358 E12.17451
G1 X81.874 Y165.272 E12.24587
G1 X81.757 Y164.736 E12.26412
G1 X81.378 Y162.862 E12.32771
G1 X81.311 Y162.5 E12.33995
G1 X80.987 Y160.568 E12.40511
G1 X80.931 Y160.194 E12.41769
G1 X80.666 Y158.194 E12.48479
G1 X80.624 Y157.832 E12.49691
G1 X80.431 Y155.881 E12.56212
G1 X80.401 Y155.508 E12.57456
G1 X80.255 Y153.163 E12.65271
G1 X80.193 Y151.182 E12.71863
G1 X80.193 Y148.861 E12.79583
G1 X80.2 Y148.492 E12.8081
G1 X80.292 Y146.099 E12.88775
G1 X80.429 Y144.146 E12.95287
G1 X80.627 Y142.142 E13.01985
G1 X80.929 Y139.827 E13.0975
G1 X80.989 Y139.432 E13.11078
G1 X81.378 Y137.146 E13.18791
G1 X81.449 Y136.766 E13.20077
G1 X81.829 Y134.926 E13.26326
G1 X81.912 Y134.557 E13.27584
G1 X82.4 Y132.546 E13.34467
G1 X82.496 Y132.179 E13.35728
G1 X83.031 Y130.265 E13.42338
G1 X83.135 Y129.915 E13.43553
G1 X83.835 Y127.714 E13.51235
G1 X84.431 Y126.014 E13.57226
G1 X84.57 Y125.638 E13.58559
G1 X85.484 Y123.315 E13.66862
G1 X86.26 Y121.51 E13.73397
G1 X87.232 Y119.428 E13.81039
G1 X88.131 Y117.648 E13.87672
G1 X88.304 Y117.319 E13.88908
G1 X89.282 Y115.535 E13.95675
G1 X90.458 Y113.543 E14.03369
G1 X90.661 Y113.214 E14.04655
G1 X91.873 Y111.327 E14.12114
G1 X92.094 Y110.997 E14.13435
G1 X93.45 Y109.054 E14.21315
G1 X94.462 Y107.692 E14.26959
G1 X95.875 Y105.898 E14.34554
G1 X96.109 Y105.612 E14.35783
G1 X97.516 Y103.954 E14.43016
G1 X97.87 Y103.556 E14.44788
G1 X99.219 Y102.086 E14.51424
G1 X100.822 Y100.442 E14.59061
G0 F6000 X101.358 Y100.474
G1 F1200 X102.802 Y99.095 E14.65702
G1 X104.273 Y97.77 E14.72286
G1 X106.032 Y96.281 E14.79952
G1 X106.339 Y96.032 E14.81266
G1 X108.461 Y94.381 E14.90209
G1 X109.804 Y93.403 E14.95734
G1 X111.837 Y92.013 E15.03926
G1 X112.388 Y91.654 E15.06113
G1 X113.965 Y90.667 E15.12301
G1 X115.974 Y89.491 E15.20043
G1 X117.722 Y88.542 E15.26659
G1 X118.215 Y88.285 E15.28508
G1 X120.108 Y87.347 E15.35534
G1 X120.432 Y87.193 E15.36728
G1 X122.282 Y86.355 E15.43483
G1 X124.392 Y85.477 E15.51084
G1 X126.239 Y84.774 E15.57657
G1 X126.754 Y84.588 E15.59478
G1 X129.06 Y83.814 E15.67568
G1 X130.699 Y83.316 E15.73266
G1 X131.061 Y83.213 E15.74518
G1 X133.576 Y82.551 E15.83167
G1 X135.227 Y82.171 E15.88802
G1 X137.47 Y81.721 E15.96411
G1 X137.847 Y81.653 E15.97685
G1 X140.099 Y81.29 E16.05272
G1 X140.487 Y81.235 E16.06576
G1 X142.809 Y80.954 E16.14355
G1 X145.076 Y80.755 E16.21924
G1 X147.061 Y80.642 E16.28537
G1 X147.421 Y80.628 E16.29735
G1 X149.768 Y80.579 E16.37543
G1 X151.774 Y80.601 E16.44215
G1 X153.753 Y80.68 E16.50803
G1 X154.298 Y80.711 E16.52618
G1 X156.751 Y80.908 E16.60803
G1 X158.733 Y81.13 E16.67437
G1 X159.096 Y81.177 E16.68654
G1 X161.399 Y81.521 E16.76399
G1 X163.374 Y81.878 E16.83074
G1 X165.336 Y82.292 E16.89744
G1 X165.716 Y82.38 E16.91041
G1 X167.87 Y82.918 E16.98425
G1 X168.228 Y83.014 E16.99658
G1 X170.428 Y83.652 E17.07277
G1 X172.343 Y84.272 E17.13972
G1 X172.685 Y84.39 E17.15175
G1 X174.887 Y85.192 E17.22969
G1 X176.72 Y85.925 E17.29535
G1 X178.726 Y86.798 E17.36812
G1 X179.22 Y87.026 E17.38621
G1 X180.969 Y87.868 E17.45078
G1 X182.753 Y88.788 E17.51754
G1 X184.764 Y89.908 E17.5941
G1 X185.096 Y90.101 E17.60687
G1 X187.019 Y91.271 E17.68174
G1 X187.316 Y91.459 E17.69343
G1 X189.058 Y92.606 E17.7628
G1 X190.665 Y93.733 E17.82808
G1 X190.954 Y93.943 E17.83996
G1 X192.774 Y95.32 E17.91587
G1 X194.311 Y96.557 E17.98149
G1 X196.104 Y98.097 E18.0601
G1 X197.789 Y99.644 E18.13618
G1 X198.195 Y100.031 E18.15484
G1 X199.929 Y101.763 E18.23636
G1 X201.077 Y102.98 E18.292
G1 X201.449 Y103.387 E18.31034
G1 X202.863 Y104.998 E18.38163
G1 X203.095 Y105.272 E18.39357
G1 X204.576 Y107.091 E18.47159
G1 X205.755 Y108.635 E18.53621
G1 X207.123 Y110.545 E18.61435
G1 X207.332 Y110.849 E18.62662
G1 X208.446 Y112.533 E18.69377
G1 X208.634 Y112.829 E18.70543
G1 X209.811 Y114.752 E18.78042
G1 X210.804 Y116.493 E18.84709
G1 X211.876 Y118.515 E18.9232
G1 X212.762 Y120.322 E18.99014
G1 X212.925 Y120.673 E19.00301
G1 X213.859 Y122.768 E19.0793
G1 X214.008 Y123.118 E19.09196
G1 X214.884 Y125.305 E19.17031
G1 X215.567 Y127.18 E19.23669
G1 X216.275 Y129.326 E19.31185
G1 X216.841 Y131.235 E19.37807
G1 X217.477 Y133.665 E19.46162
G1 X217.597 Y134.173 E19.47898
G1 X218.014 Y136.074 E19.54371
G1 X218.439 Y138.344 E19.62052
G1 X218.757 Y140.393 E19.68949
G1 X219.039 Y142.685 E19.76629
G1 X219.076 Y143.045 E19.77833
G1 X219.247 Y145.035 E19.84476
G1 X219.273 Y145.413 E19.85736
G1 X219.397 Y148.002 E19.94357
G1 X219.425 Y149.676 E19.99926
G1 X219.397 Y151.963 E20.07533
G1 X219.371 Y152.739 E20.10115
G1 X219.27 Y154.636 E20.16434
G1 X219.1 Y156.704 E20.23335
G1 X218.84 Y158.991 E20.30991
G1 X218.793 Y159.35 E20.32195
G1 X218.497 Y161.314 E20.38801
G1 X218.083 Y163.581 E20.46466
G1 X218.008 Y163.952 E20.47725
G1 X217.517 Y166.163 E20.55258
G1 X217.426 Y166.541 E20.56551
G1 X216.924 Y168.465 E20.63164
G1 X216.275 Y170.671 E20.70813
G1 X216.17 Y171.007 E20.71983
G1 X215.536 Y172.91 E20.78655
G1 X214.862 Y174.754 E20.85185
G1 X213.997 Y176.908 E20.92905
G1 X213.849 Y177.256 E20.94163
G1 X212.919 Y179.339 E21.0175
G1 X212.755 Y179.69 E21.03039
G1 X211.69 Y181.846 E21.11037
G1 X210.797 Y183.521 E21.1735
G1 X210.622 Y183.836 E21.18549
G1 X209.629 Y185.555 E21.25151
G1 X208.496 Y187.391 E21.32327
G1 X208.194 Y187.859 E21.3418
G1 X207.298 Y189.202 E21.39549
G1 X205.954 Y191.096 E21.47274
G1 X205.742 Y191.384 E21.48463
G1 X204.56 Y192.93 E21.54936
G1 X203.054 Y194.777 E21.62862
G1 X202.82 Y195.053 E21.64066
G1 X201.291 Y196.786 E21.71752
G1 X199.827 Y198.344 E21.78863
G1 X199.46 Y198.716 E21.80601
G1 X197.793 Y200.352 E21.8837
G1 X196.357 Y201.679 E21.94873
G1 X194.803 Y203.032 E22.01726
G1 X192.867 Y204.608 E22.10029
G1 X192.418 Y204.956 E22.11918
G1 X190.88 Y206.11 E22.18314
G1 X189.259 Y207.257 E22.24918
G1 X187.318 Y208.539 E22.32655
G1 X187.016 Y208.731 E22.33846
G1 X185.302 Y209.777 E22.40524
G1 X184.971 Y209.971 E22.418
G1 X183.002 Y211.077 E22.49311
G1 X182.668 Y211.257 E22.50573
G1 X180.992 Y212.121 E22.56845
G1 X178.857 Y213.141 E22.64715
G1 X178.524 Y213.292 E22.65931
G1 X176.42 Y214.199 E22.73551
G1 X174.817 Y214.835 E22.79287
G1 X172.648 Y215.623 E22.86963
G1 X172.315 Y215.737 E22.88133
G1 X170.09 Y216.451 E22.95905
G1 X168.221 Y216.988 E23.02373
G1 X167.854 Y217.086 E23.03637
G1 X165.664 Y217.631 E23.11143
G1 X165.322 Y217.71 E23.1231
G1 X163.32 Y218.133 E23.19116
G1 X161.395 Y218.48 E23.25622
G1 X160.684 Y218.594 E23.28017
G1 X158.452 Y218.905 E23.35512
G1 X156.392 Y219.127 E23.42403
G1 X154.444 Y219.279 E23.48902
G1 X153.727 Y219.321 E23.51291
G1 X151.739 Y219.399 E23.57908
G1 X151.381 Y219.407 E23.59099
G1 X149.387 Y219.418 E23.65731
G1 X149.028 Y219.414 E23.66925
G1 X147.059 Y219.358 E23.73477
G1 X146.705 Y219.342 E23.74656
G1 X144.703 Y219.218 E23.81327
G1 X142.463 Y219.01 E23.88809
G1 X142.105 Y218.97 E23.90007
G1 X139.736 Y218.658 E23.97955
G1 X138.197 Y218.409 E24.0314
G1 X137.438 Y218.273 E24.05705
G1 X135.48 Y217.885 E24.12344
G1 X135.12 Y217.807 E24.13569
G1 X133.222 Y217.362 E24.20053
G1 X131.302 Y216.855 E24.26658
G1 X129.051 Y216.183 E24.34471
G1 X128.684 Y216.065 E24.35753
G1 X126.547 Y215.336 E24.43263
G1 X126.193 Y215.209 E24.44514
G1 X124.312 Y214.492 E24.51209
G1 X123.974 Y214.356 E24.52421
G1 X121.911 Y213.482 E24.59873
G1 X120.069 Y212.634 E24.66618
G1 X118.3 Y211.758 E24.73183
G1 X117.961 Y211.583 E24.74452
G1 X115.955 Y210.498 E24.82038
G1 X115.611 Y210.303 E24.83353
G1 X113.616 Y209.119 E24.91069
G1 X111.738 Y207.922 E24.98476
G1 X110.298 Y206.945 E25.04264
G1 X110.002 Y206.736 E25.05469
G1 X107.907 Y205.201 E25.14107
G1 X106.259 Y203.904 E25.21082
G1 X104.752 Y202.645 E25.27613
G1 X104.482 Y202.411 E25.28802
G1 X102.789 Y200.891 E25.36369
G1 X101.414 Y199.581 E25.42686
G1 X99.706 Y197.846 E25.50783
G1 X98.141 Y196.146 E25.58469
G1 X97.906 Y195.881 E25.59647
G1 X96.66 Y194.426 E25.66018
G1 X96.433 Y194.151 E25.67204
G1 X95.035 Y192.4 E25.74657
G1 X94.699 Y191.958 E25.76503
G1 X93.379 Y190.161 E25.83919
G1 X92.413 Y188.762 E25.89574
G1 X91.17 Y186.848 E25.97164
G1 X90.978 Y186.54 E25.98372
G1 X89.951 Y184.826 E26.05017
G1 X89.762 Y184.496 E26.06282
G1 X88.668 Y182.512 E26.13818
G1 X88.487 Y182.171 E26.15102
