;FLAVOR:Marlin
;TIME:8343
;Filament used: 6.29399m
;Layer height: 0.2
;MINX:80.187
;MINY:80.182
;MINZ:0.2
;MAXX:219.825
;MAXY:219.82
;MAXZ:5.2
;Generated with Cura_SteamEngine 5.2.2
M140 S50
M105
M190 S50
M104 S200
M105
M109 S200
M82 ;absolute extrusion mode
; Ender 3 Max Custom Start G-code
G92 E0 ; Reset Extruder
G28 ; Home all axes
G1 Z2.0 F3000 ; Move Z Axis up little to prevent scratching of Heat Bed
G1 X0.1 Y20 Z0.3 F5000.0 ; Move to start position
G1 X0.1 Y200.0 Z0.3 F1500.0 E15 ; Draw the first line
G1 X0.4 Y200.0 Z0.3 F5000.0 ; Move to side a little
G1 X0.4 Y20 Z0.3 F1500.0 E30 ; Draw the second line
G92 E0 ; Reset Extruder
G1 Z2.0 F3000 ; Move Z Axis up little to prevent scratching of Heat Bed
G1 X5 Y20 Z0.3 F5000.0 ; Move over to prevent blob squish
G92 E0
G92 E0
G1 F1500 E-6.5
;LAYER_COUNT:26
;LAYER:0
M107
G1 F300 Z0.4
G0 F6000 X100.84 Y100.424 Z0.4
;TYPE:SKIRT
G1 F300 Z0.2
G1 F1500 E0
G1 F1200 X102.531 Y98.803 E0.07791
G1 X102.804 Y98.551 E0.09027
G1 X104.333 Y97.188 E0.15839
G1 X104.621 Y96.94 E0.17104
G1 X106.121 Y95.693 E0.23591
G1 X107.92 Y94.287 E0.31186
G1 X108.215 Y94.066 E0.32412
G1 X110.08 Y92.72 E0.40061
G1 X111.831 Y91.539 E0.47086
G1 X112.136 Y91.341 E0.48296
G1 X114.041 Y90.152 E0.55764
G1 X115.473 Y89.315 E0.61281
G1 X117.503 Y88.206 E0.68975
G1 X117.828 Y88.036 E0.70195
G1 X119.607 Y87.144 E0.76814
G1 X119.942 Y86.983 E0.7805
G1 X121.756 Y86.149 E0.84691
G1 X122.44 Y85.85 E0.87173
G1 X124.224 Y85.113 E0.93593
G1 X126.12 Y84.392 E1.0034
G1 X128.263 Y83.651 E1.07882
G1 X128.613 Y83.537 E1.09106
G1 X130.559 Y82.941 E1.15875
G1 X130.927 Y82.835 E1.17149
G1 X132.8 Y82.332 E1.23599
G1 X133.315 Y82.202 E1.25366
G1 X135.42 Y81.72 E1.32548
G1 X137.441 Y81.319 E1.39401
G1 X137.802 Y81.254 E1.40621
G1 X140.003 Y80.899 E1.48037
G1 X140.403 Y80.842 E1.4938
G1 X142.413 Y80.593 E1.56117
G1 X144.401 Y80.405 E1.62758
G1 X146.681 Y80.259 E1.70357
G1 X147.048 Y80.242 E1.71579
G1 X149.036 Y80.186 E1.78194
G1 X149.411 Y80.182 E1.79441
G1 X151.439 Y80.194 E1.86187
G1 X153.746 Y80.28 E1.93865
G1 X154.468 Y80.322 E1.9627
G1 X156.432 Y80.475 E2.02823
G1 X158.463 Y80.693 E2.09616
G1 X160.739 Y81.01 E2.1726
G1 X161.104 Y81.067 E2.18488
G1 X163.076 Y81.414 E2.25148
G1 X165.393 Y81.895 E2.33019
G1 X165.77 Y81.981 E2.34305
G1 X167.636 Y82.442 E2.40698
G1 X168.011 Y82.542 E2.41988
G1 X170.195 Y83.164 E2.49541
G1 X170.542 Y83.269 E2.50747
G1 X172.497 Y83.902 E2.57582
G1 X174.666 Y84.68 E2.65246
G1 X176.541 Y85.417 E2.71947
G1 X176.897 Y85.565 E2.73229
G1 X178.989 Y86.479 E2.80822
G1 X180.822 Y87.348 E2.87569
G1 X181.154 Y87.512 E2.88801
G1 X182.879 Y88.402 E2.95257
G1 X184.925 Y89.538 E3.0304
G1 X185.25 Y89.727 E3.04291
G1 X186.948 Y90.753 E3.10889
G1 X187.599 Y91.164 E3.1345
G1 X189.214 Y92.228 E3.19882
G1 X189.526 Y92.442 E3.21141
G1 X191.506 Y93.853 E3.29227
G1 X193.013 Y94.998 E3.35522
G1 X194.575 Y96.255 E3.42191
G1 X194.847 Y96.482 E3.43369
G1 X196.367 Y97.794 E3.50048
G1 X196.641 Y98.039 E3.5127
G1 X198.305 Y99.583 E3.5882
G1 X199.719 Y100.976 E3.65422
G1 X200.001 Y101.264 E3.66763
G1 X201.579 Y102.937 E3.74412
G1 X201.846 Y103.231 E3.75733
G1 X203.357 Y104.961 E3.83372
G1 X204.658 Y106.55 E3.90203
G1 X205.83 Y108.066 E3.96576
G1 X206.304 Y108.705 E3.99222
G1 X207.397 Y110.237 E4.05482
G1 X208.714 Y112.211 E4.13374
G1 X209.813 Y113.974 E4.20284
G1 X210.007 Y114.298 E4.2154
G1 X211.14 Y116.274 E4.29116
G1 X211.317 Y116.595 E4.30335
G1 X212.235 Y118.339 E4.3689
G1 X213.124 Y120.152 E4.43606
G1 X213.28 Y120.486 E4.44832
G1 X214.222 Y122.595 E4.52515
G1 X214.982 Y124.446 E4.5917
G1 X215.123 Y124.808 E4.60462
G1 X215.812 Y126.671 E4.67069
G1 X215.939 Y127.034 E4.68348
G1 X216.64 Y129.154 E4.75774
G1 X216.751 Y129.51 E4.77015
G1 X217.325 Y131.484 E4.83852
G1 X217.816 Y133.372 E4.90341
G1 X217.908 Y133.754 E4.91648
G1 X218.398 Y135.958 E4.99157
G1 X218.477 Y136.35 E5.00487
G1 X218.899 Y138.67 E5.0833
G1 X219.196 Y140.65 E5.14989
G1 X219.245 Y141.02 E5.16231
G1 X219.505 Y143.313 E5.23906
G1 X219.645 Y144.985 E5.29487
G1 X219.78 Y147.459 E5.37727
G1 X219.792 Y147.808 E5.38889
G1 X219.825 Y150.012 E5.4622
G1 X219.795 Y152.037 E5.52956
G1 X219.679 Y154.528 E5.6125
G1 X219.642 Y155.06 E5.63024
G1 X219.437 Y157.358 E5.70697
G1 X219.238 Y159.038 E5.76324
G1 X219.135 Y159.79 E5.78849
G1 X218.834 Y161.721 E5.85349
G1 X218.772 Y162.08 E5.8656
G1 X218.41 Y163.986 E5.93013
G1 X217.902 Y166.272 E6.00802
G1 X217.356 Y168.409 E6.08138
G1 X217.213 Y168.92 E6.09903
G1 X216.659 Y170.787 E6.1638
G1 X215.906 Y173.061 E6.24347
G1 X215.784 Y173.408 E6.25571
G1 X214.989 Y175.535 E6.33123
G1 X214.37 Y177.056 E6.38585
G1 X213.419 Y179.215 E6.46432
G1 X213.261 Y179.557 E6.47685
G1 X212.41 Y181.314 E6.54178
G1 X212.164 Y181.803 E6.55998
G1 X211.142 Y183.72 E6.63224
G1 X210.052 Y185.626 E6.70527
G1 X209.748 Y186.131 E6.72487
G1 X208.538 Y188.062 E6.80066
G1 X207.45 Y189.686 E6.86568
G1 X207.233 Y189.998 E6.87832
G1 X205.834 Y191.928 E6.9576
G1 X204.623 Y193.494 E7.02345
G1 X203.134 Y195.301 E7.10132
G1 X201.815 Y196.804 E7.16783
G1 X201.566 Y197.078 E7.18015
G1 X200.241 Y198.489 E7.24452
G1 X198.597 Y200.136 E7.32192
G1 X198.312 Y200.41 E7.33507
G1 X196.661 Y201.942 E7.40998
G1 X196.366 Y202.207 E7.42317
G1 X194.855 Y203.511 E7.48956
G1 X194.566 Y203.752 E7.50207
G1 X193.007 Y205.007 E7.56864
G1 X191.152 Y206.408 E7.64596
G1 X190.848 Y206.628 E7.65844
G1 X189.193 Y207.785 E7.7256
G1 X188.892 Y207.988 E7.73768
G1 X186.971 Y209.233 E7.81381
G1 X185.531 Y210.108 E7.86986
G1 X183.56 Y211.229 E7.94527
G1 X183.077 Y211.493 E7.96358
G1 X180.772 Y212.677 E8.04977
G1 X179.04 Y213.498 E8.11352
G1 X177.138 Y214.334 E8.18262
G1 X174.998 Y215.194 E8.25933
G1 X174.633 Y215.333 E8.27232
G1 X172.562 Y216.076 E8.3455
G1 X172.212 Y216.195 E8.3578
G1 X170.19 Y216.839 E8.42838
G1 X168.29 Y217.384 E8.49412
G1 X167.91 Y217.485 E8.5072
G1 X165.4 Y218.103 E8.59317
G1 X163.737 Y218.458 E8.64973
G1 X161.476 Y218.871 E8.72618
G1 X160.687 Y218.998 E8.75276
G1 X158.476 Y219.305 E8.827
G1 X156.787 Y219.491 E8.88352
G1 X154.266 Y219.692 E8.96763
G1 X153.707 Y219.723 E8.98625
G1 X151.753 Y219.799 E9.05129
G1 X149.689 Y219.82 E9.11994
G1 X147.447 Y219.774 E9.19453
G1 X147.072 Y219.759 E9.20701
G1 X144.715 Y219.62 E9.28554
G1 X142.769 Y219.445 E9.35053
G1 X142.009 Y219.361 E9.37596
G1 X140.032 Y219.105 E9.44226
G1 X137.756 Y218.738 E9.51894
G1 X135.464 Y218.29 E9.59662
G1 X135.098 Y218.211 E9.60907
G1 X132.804 Y217.669 E9.68747
G1 X130.86 Y217.145 E9.75443
G1 X128.662 Y216.479 E9.83082
G1 X128.309 Y216.365 E9.84316
G1 X126.449 Y215.727 E9.90856
G1 X126.103 Y215.602 E9.9208
G1 X124.189 Y214.873 E9.98892
G1 X123.849 Y214.737 E10.0011
G1 X121.803 Y213.873 E10.07497
G1 X120.176 Y213.129 E10.13447
G1 X117.965 Y212.037 E10.21649
G1 X117.454 Y211.769 E10.23568
G1 X115.779 Y210.859 E10.29908
G1 X115.438 Y210.666 E10.31212
G1 X113.722 Y209.653 E10.37839
G1 X111.785 Y208.431 E10.45457
G1 X111.474 Y208.227 E10.46694
G1 X109.828 Y207.104 E10.53321
G1 X108.22 Y205.938 E10.59928
G1 X106.369 Y204.506 E10.67711
G1 X106.078 Y204.272 E10.68953
G1 X104.39 Y202.863 E10.76266
G1 X103.993 Y202.516 E10.7802
G1 X102.54 Y201.206 E10.84527
G1 X101.082 Y199.815 E10.91229
G1 X100.695 Y199.433 E10.93038
G1 X99.16 Y197.852 E11.00367
G1 X97.816 Y196.384 E11.06987
G1 X97.572 Y196.107 E11.08215
G1 X95.869 Y194.097 E11.16977
G1 X94.86 Y192.827 E11.22372
G1 X93.483 Y190.99 E11.30008
G1 X93.01 Y190.33 E11.32708
G1 X91.899 Y188.714 E11.39231
G1 X90.858 Y187.105 E11.45605
G1 X90.66 Y186.787 E11.46851
G1 X89.637 Y185.081 E11.53467
G1 X89.25 Y184.406 E11.56055
G1 X88.272 Y182.621 E11.62824
G1 X88.097 Y182.287 E11.64078
G1 X87.114 Y180.328 E11.71368
G1 X86.37 Y178.735 E11.77216
G1 X85.456 Y176.617 E11.84889
G1 X85.307 Y176.252 E11.862
G1 X84.487 Y174.133 E11.93757
G1 X84.351 Y173.762 E11.95071
G1 X83.715 Y171.925 E12.01537
G1 X83.098 Y169.961 E12.08384
G1 X82.472 Y167.727 E12.161
G1 X82.374 Y167.35 E12.17396
G1 X81.849 Y165.161 E12.24883
G1 X81.768 Y164.796 E12.26127
G1 X81.435 Y163.165 E12.31663
G1 X80.992 Y160.59 E12.40354
G1 X80.932 Y160.195 E12.41682
G1 X80.624 Y157.833 E12.49605
G1 X80.431 Y155.88 E12.56132
G1 X80.401 Y155.513 E12.57357
G1 X80.274 Y153.564 E12.63853
G1 X80.256 Y153.188 E12.65105
G1 X80.192 Y151.111 E12.72017
G1 X80.187 Y150.738 E12.73257
G1 X80.2 Y148.415 E12.80984
G1 X80.271 Y146.489 E12.87394
G1 X80.402 Y144.48 E12.9409
G1 X80.629 Y142.125 E13.01959
G1 X80.675 Y141.731 E13.03279
G1 X80.975 Y139.515 E13.10716
G1 X81.036 Y139.124 E13.12033
G1 X81.437 Y136.83 E13.19778
G1 X81.851 Y134.833 E13.26561
G1 X82.313 Y132.883 E13.33227
G1 X82.401 Y132.539 E13.34408
G1 X82.929 Y130.613 E13.4105
G1 X83.603 Y128.417 E13.4869
G1 X83.716 Y128.072 E13.49898
G1 X84.351 Y126.238 E13.56353
G1 X84.608 Y125.541 E13.58824
G1 X85.456 Y123.382 E13.66538
G1 X86.119 Y121.829 E13.72155
G1 X87.102 Y119.698 E13.7996
G1 X87.264 Y119.364 E13.81195
G1 X88.309 Y117.309 E13.88863
G1 X89.258 Y115.578 E13.95429
G1 X89.553 Y115.06 E13.97411
G1 X90.64 Y113.246 E14.04445
G1 X90.833 Y112.936 E14.0566
G1 X92.123 Y110.951 E14.13533
G1 X93.248 Y109.334 E14.20085
G1 X94.658 Y107.436 E14.27949
G1 X96.103 Y105.619 E14.35671
G1 X96.345 Y105.326 E14.36935
G1 X97.869 Y103.557 E14.44701
G1 X99.19 Y102.114 E14.51207
G1 X99.454 Y101.836 E14.52483
G1 X100.84 Y100.424 E14.59063
G0 F6000 X101.373 Y100.46
G1 F1200 X102.807 Y99.092 E14.65655
G1 X104.6 Y97.486 E14.73661
G1 X104.877 Y97.248 E14.74876
G1 X106.646 Y95.784 E14.82513
G1 X108.166 Y94.602 E14.88917
G1 X110.008 Y93.259 E14.96499
G1 X110.304 Y93.052 E14.97701
G1 X112.055 Y91.871 E15.04725
G1 X112.349 Y91.68 E15.05891
G1 X114.243 Y90.498 E15.13317
G1 X115.96 Y89.5 E15.19922
G1 X118.007 Y88.393 E15.27662
G1 X119.786 Y87.501 E15.34282
G1 X120.109 Y87.346 E15.35473
G1 X121.923 Y86.512 E15.42114
G1 X122.404 Y86.3 E15.43862
G1 X124.678 Y85.364 E15.52041
G1 X126.566 Y84.656 E15.58748
G1 X128.393 Y84.029 E15.65172
G1 X130.676 Y83.324 E15.73119
G1 X131.031 Y83.222 E15.74348
G1 X132.904 Y82.719 E15.80798
G1 X133.608 Y82.544 E15.83211
G1 X135.832 Y82.041 E15.90795
G1 X137.866 Y81.649 E15.97684
G1 X140.067 Y81.294 E16.05099
G1 X140.452 Y81.239 E16.06393
G1 X142.462 Y80.99 E16.13129
G1 X144.438 Y80.803 E16.19731
G1 X146.706 Y80.658 E16.2729
G1 X147.06 Y80.642 E16.28468
G1 X149.048 Y80.586 E16.35083
G1 X149.409 Y80.582 E16.36284
G1 X151.796 Y80.602 E16.44223
G1 X153.73 Y80.679 E16.50661
G1 X154.236 Y80.707 E16.52346
G1 X156.736 Y80.905 E16.60687
G1 X158.42 Y81.09 E16.66322
G1 X160.683 Y81.406 E16.73922
G1 X161.035 Y81.461 E16.75107
G1 X163.007 Y81.808 E16.81767
G1 X165.31 Y82.286 E16.8959
G1 X165.674 Y82.369 E16.90831
G1 X167.54 Y82.83 E16.97224
G1 X167.901 Y82.926 E16.98467
G1 X170.085 Y83.548 E17.0602
G1 X172.044 Y84.171 E17.12857
G1 X174.199 Y84.933 E17.20459
G1 X176.395 Y85.79 E17.283
G1 X176.738 Y85.932 E17.29534
G1 X178.818 Y86.841 E17.37084
G1 X180.651 Y87.71 E17.43831
G1 X182.695 Y88.758 E17.51471
G1 X184.73 Y89.888 E17.59213
G1 X185.043 Y90.07 E17.60417
G1 X186.922 Y91.207 E17.67722
G1 X187.379 Y91.498 E17.69524
G1 X188.994 Y92.562 E17.75957
G1 X189.295 Y92.768 E17.7717
G1 X190.984 Y93.966 E17.84057
G1 X192.771 Y95.317 E17.91508
G1 X194.324 Y96.567 E17.98139
G1 X196.105 Y98.097 E18.05948
G1 X196.369 Y98.333 E18.07126
G1 X198.024 Y99.868 E18.14633
G1 X199.438 Y101.261 E18.21235
G1 X199.71 Y101.539 E18.22529
G1 X201.288 Y103.212 E18.30178
G1 X201.546 Y103.495 E18.31452
G1 X202.832 Y104.961 E18.37938
G1 X204.14 Y106.543 E18.44765
G1 X205.648 Y108.489 E18.52953
G1 X205.978 Y108.938 E18.54807
G1 X207.071 Y110.47 E18.61066
G1 X207.274 Y110.765 E18.62257
G1 X208.381 Y112.433 E18.68915
G1 X209.473 Y114.185 E18.75782
G1 X209.66 Y114.497 E18.76992
G1 X210.793 Y116.473 E18.84568
G1 X211.724 Y118.218 E18.91146
G1 X212.764 Y120.328 E18.9897
G1 X212.916 Y120.65 E19.00154
G1 X213.715 Y122.428 E19.06638
G1 X214.612 Y124.598 E19.14447
G1 X214.748 Y124.947 E19.15693
G1 X215.437 Y126.81 E19.223
G1 X215.559 Y127.159 E19.23529
G1 X216.26 Y129.279 E19.30956
G1 X216.367 Y129.622 E19.32151
G1 X216.938 Y131.585 E19.38951
G1 X217.429 Y133.473 E19.45439
G1 X217.517 Y133.841 E19.46697
G1 X218.007 Y136.045 E19.54207
G1 X218.084 Y136.422 E19.55487
G1 X218.504 Y138.73 E19.63289
G1 X218.801 Y140.71 E19.69948
G1 X218.848 Y141.066 E19.71143
G1 X219.106 Y143.347 E19.78778
G1 X219.268 Y145.339 E19.85425
G1 X219.371 Y147.273 E19.91867
G1 X219.392 Y147.822 E19.93694
G1 X219.425 Y150.006 E20.00959
G1 X219.395 Y152.031 E20.07695
G1 X219.292 Y154.301 E20.15253
G1 X219.243 Y155.026 E20.17669
G1 X219.073 Y156.982 E20.242
G1 X218.817 Y159.176 E20.31546
G1 X218.74 Y159.729 E20.33403
G1 X218.439 Y161.66 E20.39904
G1 X218.017 Y163.911 E20.47521
G1 X217.945 Y164.257 E20.48696
G1 X217.436 Y166.5 E20.56346
G1 X216.971 Y168.302 E20.62536
G1 X216.829 Y168.806 E20.64278
G1 X216.168 Y171.013 E20.7194
G1 X215.527 Y172.934 E20.78676
G1 X215.409 Y173.268 E20.79854
G1 X214.618 Y175.385 E20.87371
G1 X213.999 Y176.906 E20.92832
G1 X213.053 Y179.053 E21.00636
G1 X212.901 Y179.383 E21.01844
G1 X212.05 Y181.14 E21.08337
G1 X211.807 Y181.622 E21.10133
G1 X210.789 Y183.532 E21.17331
G1 X209.709 Y185.421 E21.24569
G1 X209.409 Y185.92 E21.26505
G1 X208.395 Y187.547 E21.32882
G1 X207.117 Y189.464 E21.40544
G1 X206.909 Y189.764 E21.41759
G1 X205.73 Y191.399 E21.48463
G1 X205.517 Y191.683 E21.49644
G1 X204.101 Y193.507 E21.57324
G1 X203.046 Y194.787 E21.62841
G1 X201.514 Y196.54 E21.70584
G1 X201.274 Y196.804 E21.71771
G1 X199.707 Y198.465 E21.79366
G1 X198.315 Y199.853 E21.85904
G1 X198.04 Y200.117 E21.87172
G1 X196.389 Y201.649 E21.94663
G1 X196.104 Y201.904 E21.95935
G1 X194.593 Y203.208 E22.02573
G1 X194.315 Y203.44 E22.03778
G1 X192.476 Y204.913 E22.11614
G1 X190.912 Y206.088 E22.18121
G1 X190.618 Y206.301 E22.19328
G1 X188.963 Y207.458 E22.26045
G1 X187.043 Y208.715 E22.33677
G1 X185.323 Y209.766 E22.40382
G1 X183.363 Y210.881 E22.47882
G1 X182.689 Y211.246 E22.50431
G1 X180.915 Y212.16 E22.57068
G1 X180.6 Y212.315 E22.58236
G1 X178.568 Y213.273 E22.65708
G1 X176.67 Y214.096 E22.72589
G1 X174.85 Y214.823 E22.79107
G1 X174.498 Y214.956 E22.80359
G1 X172.09 Y215.814 E22.88861
G1 X170.4 Y216.357 E22.94765
G1 X168.18 Y216.999 E23.02451
G1 X167.813 Y217.097 E23.03715
G1 X165.66 Y217.632 E23.11093
G1 X165.317 Y217.711 E23.12264
G1 X163.323 Y218.132 E23.19042
G1 X161.405 Y218.478 E23.25524
G1 X160.631 Y218.602 E23.28132
G1 X158.754 Y218.867 E23.34436
G1 X156.411 Y219.125 E23.42276
G1 X154.446 Y219.279 E23.48832
G1 X153.903 Y219.313 E23.50642
G1 X151.405 Y219.407 E23.58956
G1 X149.686 Y219.42 E23.64673
G1 X147.456 Y219.374 E23.72092
G1 X147.094 Y219.36 E23.73297
G1 X145.1 Y219.247 E23.7994
G1 X142.58 Y219.024 E23.88354
G1 X142.061 Y218.964 E23.90092
G1 X140.084 Y218.708 E23.96722
G1 X139.731 Y218.656 E23.97909
G1 X137.476 Y218.281 E24.05512
G1 X135.542 Y217.898 E24.12069
G1 X135.189 Y217.822 E24.1327
G1 X132.908 Y217.283 E24.21066
G1 X130.964 Y216.759 E24.27763
G1 X128.779 Y216.097 E24.35356
G1 X128.439 Y215.987 E24.36545
G1 X126.579 Y215.349 E24.43085
G1 X124.331 Y214.499 E24.51078
G1 X124.004 Y214.368 E24.5225
G1 X121.97 Y213.509 E24.59594
G1 X120.343 Y212.765 E24.65544
G1 X118.35 Y211.784 E24.72932
G1 X117.645 Y211.417 E24.75576
G1 X115.97 Y210.507 E24.81916
G1 X115.641 Y210.321 E24.83173
G1 X113.925 Y209.308 E24.89801
G1 X111.999 Y208.093 E24.97375
G1 X111.699 Y207.896 E24.98569
G1 X109.783 Y206.583 E25.06294
G1 X108.455 Y205.615 E25.1176
G1 X106.614 Y204.19 E25.19503
G1 X106.334 Y203.965 E25.20698
G1 X104.652 Y202.561 E25.27985
G1 X104.261 Y202.219 E25.29713
G1 X102.57 Y200.688 E25.373
G1 X101.359 Y199.527 E25.42879
G1 X100.976 Y199.149 E25.44669
G1 X99.221 Y197.334 E25.53066
G1 X98.111 Y196.115 E25.5855
G1 X96.409 Y194.123 E25.67264
G1 X96.183 Y193.848 E25.68448
G1 X94.979 Y192.326 E25.74903
G1 X93.803 Y190.751 E25.8144
G1 X93.435 Y190.24 E25.83535
G1 X92.235 Y188.497 E25.90573
G1 X91.194 Y186.888 E25.96947
G1 X91.003 Y186.581 E25.9815
G1 X89.871 Y184.69 E26.0548
G1 X89.697 Y184.386 E26.06645
G1 X88.623 Y182.428 E26.14073
G1 X88.454 Y182.107 E26.15279
G1 X87.477 Y180.159 E26.22528
G1 X86.595 Y178.258 E26.29498
G1 X85.824 Y176.46 E26.36005
