;FLAVOR:Marlin
;TIME:11801
;Filament used: 6.27431m
;Layer height: 0.2
;MINX:119.504
;MINY:124.93
;MINZ:0.2
;MAXX:184.328
;MAXY:175.063
;MAXZ:101.4
;POSTPROCESSED
;Generated with Cura_SteamEngine 5.2.2
M140 S60
M105
M190 S60
M104 S225
M105
M109 S225
M82 ;absolute extrusion mode
; Ender 3 Max Custom Start G-code
G92 E0 ; Reset Extruder
G28 ; Home all axes
G1 Z2.0 F3000 ; Move Z Axis up little to prevent scratching of Heat Bed
G1 X0.1 Y20 Z0.3 F5000.0 ; Move to start position
G1 X0.1 Y200.0 Z0.3 F1500.0 E15 ; Draw the first line
G1 X0.4 Y200.0 Z0.3 F5000.0 ; Move to side a little
G1 X0.4 Y20 Z0.3 F1500.0 E30 ; Draw the second line
G92 E0 ; Reset Extruder
G1 Z2.0 F3000 ; Move Z Axis up little to prevent scratching of Heat Bed
G1 X5 Y20 Z0.3 F5000.0 ; Move over to prevent blob squish
G92 E0
G92 E0
G1 F1500 E-6.5
;LAYER_COUNT:507
;LAYER:0
M107
G0 F6000 X123.233 Y127.968 Z0.2
;TYPE:SKIRT
G1 F1500 E0
G1 F1200 X123.962 Y127.377 E0.03121
G1 X124.704 Y126.872 E0.06107
G1 X125.046 Y126.659 E0.07447
G1 X125.862 Y126.197 E0.10566
G1 X126.715 Y125.807 E0.13685
G1 X127.598 Y125.491 E0.16804
G1 X128.505 Y125.251 E0.19925
G1 X129.795 Y125.048 E0.24268
G1 X130.062 Y125.022 E0.2516
G1 X131.315 Y124.972 E0.29331
G1 X131.786 Y124.98 E0.30898
G1 X132.941 Y125.055 E0.34748
G1 X133.758 Y125.175 E0.37494
G1 X135.359 Y125.462 E0.42904
G1 X135.973 Y125.582 E0.44985
G1 X138.411 Y125.989 E0.53206
G1 X140.942 Y126.338 E0.61704
G1 X143.414 Y126.608 E0.69974
G1 X145.956 Y126.813 E0.78457
G1 X148.455 Y126.944 E0.8678
G1 X150.971 Y127.003 E0.9515
G1 X153.493 Y126.993 E1.03539
G1 X155.989 Y126.911 E1.11845
G1 X158.539 Y126.755 E1.20342
G1 X161.013 Y126.534 E1.28603
G1 X163.529 Y126.236 E1.3703
G1 X166.021 Y125.87 E1.45407
G1 X168.489 Y125.437 E1.53741
G1 X169.661 Y125.213 E1.5771
G1 X170.729 Y125.049 E1.61304
G1 X171.661 Y124.951 E1.64421
G1 X172.398 Y124.93 E1.66873
G1 X172.779 Y124.932 E1.6814
G1 X173.716 Y124.977 E1.7126
G1 X174.645 Y125.102 E1.74378
G1 X175.477 Y125.28 E1.77208
G1 X176.381 Y125.531 E1.80328
G1 X177.26 Y125.858 E1.83448
G1 X178.084 Y126.245 E1.86476
G1 X178.905 Y126.7 E1.89598
G1 X179.683 Y127.223 E1.92715
G1 X180.414 Y127.811 E1.95836
G1 X181.093 Y128.458 E1.98955
G1 X181.884 Y129.368 E2.02965
G1 X182.496 Y130.221 E2.06457
G1 X182.975 Y131.027 E2.09576
G1 X183.385 Y131.871 E2.12697
G1 X183.721 Y132.747 E2.15817
G1 X183.981 Y133.648 E2.18936
G1 X184.163 Y134.568 E2.22055
G1 X184.272 Y135.586 E2.25461
G1 X184.289 Y135.869 E2.26404
G1 X184.305 Y136.807 E2.29524
G1 X184.242 Y137.744 E2.32647
G1 X184.156 Y138.503 E2.35188
G1 X183.971 Y139.953 E2.4005
G1 X183.722 Y142.474 E2.48475
G1 X183.546 Y144.985 E2.56847
G1 X183.441 Y147.483 E2.65163
G1 X183.407 Y150 E2.73536
G1 X183.445 Y152.531 E2.81955
G1 X183.552 Y155.038 E2.90301
G1 X183.731 Y157.538 E2.98637
G1 X183.988 Y160.106 E3.07221
G1 X184.254 Y162.288 E3.14532
G1 X184.328 Y163.223 E3.17651
G1 X184.322 Y164.161 E3.20771
G1 X184.236 Y165.095 E3.23891
G1 X184.071 Y166.018 E3.27009
G1 X183.661 Y167.43 E3.319
G1 X183.258 Y168.415 E3.35439
G1 X182.83 Y169.25 E3.3856
G1 X182.333 Y170.045 E3.41679
G1 X181.77 Y170.795 E3.44798
G1 X181.145 Y171.494 E3.47916
G1 X180.462 Y172.138 E3.51039
G1 X179.821 Y172.658 E3.53784
G1 X178.97 Y173.251 E3.57234
G1 X178.157 Y173.719 E3.60354
G1 X177.307 Y174.116 E3.63474
G1 X176.109 Y174.542 E3.67703
G1 X175.072 Y174.802 E3.71259
G1 X174.014 Y174.967 E3.7482
G1 X173.732 Y174.997 E3.75764
G1 X172.796 Y175.057 E3.78883
G1 X171.907 Y175.039 E3.81841
G1 X171.475 Y175.013 E3.8328
G1 X170.244 Y174.869 E3.87402
G1 X168.859 Y174.625 E3.9208
G1 X167.822 Y174.421 E3.95595
G1 X165.373 Y174.013 E4.03853
G1 X162.872 Y173.669 E4.12249
G1 X160.384 Y173.397 E4.20574
G1 X157.842 Y173.192 E4.29056
G1 X155.343 Y173.061 E4.37379
G1 X152.827 Y173.002 E4.4575
G1 X150.305 Y173.012 E4.54138
G1 X147.809 Y173.094 E4.62444
G1 X145.259 Y173.25 E4.70941
G1 X142.785 Y173.471 E4.79203
G1 X140.269 Y173.769 E4.87629
G1 X137.797 Y174.132 E4.95939
G1 X135.285 Y174.573 E5.04422
G1 X134.846 Y174.662 E5.05912
G1 X133.855 Y174.843 E5.09263
G1 X133.175 Y174.947 E5.11551
G1 X132.355 Y175.034 E5.14293
G1 X131.22 Y175.063 E5.18069
G1 X130.768 Y175.053 E5.19573
G1 X129.832 Y174.993 E5.22693
G1 X128.904 Y174.852 E5.25815
G1 X127.992 Y174.634 E5.28933
G1 X127.372 Y174.437 E5.31097
G1 X127.081 Y174.335 E5.32123
G1 X126.21 Y173.987 E5.35242
G1 X125.372 Y173.566 E5.38362
G1 X124.573 Y173.076 E5.41479
G1 X123.818 Y172.519 E5.446
G1 X123.265 Y172.043 E5.47026
G1 X123.048 Y171.843 E5.48008
G1 X122.386 Y171.178 E5.51129
G1 X121.783 Y170.46 E5.54247
G1 X121.244 Y169.693 E5.57365
G1 X120.772 Y168.882 E5.60486
G1 X120.37 Y168.035 E5.63605
G1 X120.042 Y167.156 E5.66725
G1 X119.791 Y166.252 E5.69846
G1 X119.617 Y165.331 E5.72963
G1 X119.522 Y164.398 E5.76082
G1 X119.507 Y163.46 E5.79202
G1 X119.565 Y162.587 E5.82112
G1 X119.668 Y161.622 E5.8534
G1 X119.874 Y159.966 E5.90891
G1 X120.119 Y157.453 E5.99289
G1 X120.29 Y154.955 E6.07616
G1 X120.392 Y152.424 E6.16041
G1 X120.422 Y149.935 E6.2432
G1 X120.38 Y147.385 E6.32803
G1 X120.268 Y144.886 E6.41123
G1 X120.085 Y142.377 E6.4949
G1 X119.823 Y139.805 E6.58089
G1 X119.581 Y137.885 E6.64525
G1 X119.504 Y136.95 E6.67646
G1 X119.53 Y135.64 E6.72004
G1 X119.554 Y135.338 E6.73011
G1 X119.668 Y134.407 E6.76131
G1 X119.861 Y133.489 E6.79251
G1 X120.131 Y132.591 E6.8237
G1 X120.477 Y131.719 E6.8549
G1 X120.896 Y130.88 E6.88609
G1 X121.385 Y130.08 E6.91728
G1 X121.94 Y129.324 E6.94847
G1 X122.558 Y128.618 E6.97968
G1 X123.233 Y127.968 E7.01084
G0 F6000 X123.613 Y128.167
G1 F1200 X124.337 Y127.598 E7.04147
G1 X124.915 Y127.211 E7.06461
G1 X125.257 Y126.998 E7.07801
G1 X126.059 Y126.546 E7.10863
G1 X126.897 Y126.165 E7.13924
G1 X127.765 Y125.858 E7.16987
G1 X128.657 Y125.628 E7.20051
G1 X129.834 Y125.446 E7.24012
G1 X130.101 Y125.42 E7.24904
G1 X131.308 Y125.372 E7.28922
G1 X131.779 Y125.38 E7.30488
G1 X132.894 Y125.453 E7.34205
G1 X133.688 Y125.569 E7.36874
G1 X135.283 Y125.855 E7.42263
G1 X135.869 Y125.97 E7.4425
G1 X138.398 Y126.391 E7.52777
G1 X140.881 Y126.734 E7.61114
G1 X143.375 Y127.007 E7.69458
G1 X145.939 Y127.213 E7.78014
G1 X148.424 Y127.343 E7.8629
G1 X150.964 Y127.403 E7.94741
G1 X153.507 Y127.393 E8.03199
G1 X156.026 Y127.31 E8.11582
G1 X158.531 Y127.157 E8.19929
G1 X161.06 Y126.931 E8.28374
G1 X163.598 Y126.631 E8.36874
G1 X166.076 Y126.267 E8.45204
G1 X168.597 Y125.824 E8.53718
G1 X169.255 Y125.693 E8.55949
G1 X170.078 Y125.549 E8.58728
G1 X170.787 Y125.444 E8.61112
G1 X171.703 Y125.349 E8.64175
G1 X172.396 Y125.33 E8.66481
G1 X172.777 Y125.332 E8.67748
G1 X173.696 Y125.377 E8.70808
G1 X174.608 Y125.501 E8.73869
G1 X175.387 Y125.669 E8.7652
G1 X176.273 Y125.917 E8.7958
G1 X177.135 Y126.24 E8.82642
G1 X177.905 Y126.603 E8.85473
G1 X178.71 Y127.05 E8.88536
G1 X179.473 Y127.565 E8.91597
G1 X180.189 Y128.145 E8.94662
G1 X180.851 Y128.784 E8.97722
G1 X181.572 Y129.619 E9.01391
G1 X182.17 Y130.455 E9.0481
G1 X182.639 Y131.247 E9.07872
G1 X183.038 Y132.077 E9.10935
G1 X183.363 Y132.938 E9.13996
G1 X183.612 Y133.825 E9.1706
G1 X183.783 Y134.729 E9.2012
G1 X183.873 Y135.61 E9.23065
G1 X183.89 Y135.893 E9.24008
G1 X183.905 Y136.814 E9.27072
G1 X183.844 Y137.7 E9.30026
G1 X183.759 Y138.453 E9.32546
G1 X183.575 Y139.9 E9.37398
G1 X183.324 Y142.443 E9.45897
G1 X183.148 Y144.94 E9.54222
G1 X183.041 Y147.495 E9.62728
G1 X183.007 Y150 E9.7106
G1 X183.045 Y152.554 E9.79556
G1 X183.152 Y155.05 E9.87865
G1 X183.332 Y157.567 E9.96258
G1 X183.591 Y160.155 E10.04909
G1 X183.857 Y162.337 E10.1222
G1 X183.929 Y163.255 E10.15283
G1 X183.92 Y164.175 E10.18343
G1 X183.832 Y165.092 E10.21407
G1 X183.665 Y165.997 E10.24467
G1 X183.283 Y167.297 E10.28974
G1 X182.887 Y168.263 E10.32447
G1 X182.465 Y169.082 E10.35511
G1 X181.974 Y169.86 E10.38571
G1 X181.417 Y170.593 E10.41633
G1 X180.799 Y171.275 E10.44694
G1 X180.124 Y171.901 E10.47756
G1 X179.498 Y172.397 E10.50412
G1 X178.741 Y172.922 E10.53476
G1 X177.942 Y173.379 E10.56538
G1 X177.107 Y173.766 E10.59599
G1 X175.992 Y174.159 E10.63531
G1 X174.974 Y174.414 E10.67021
G1 X173.971 Y174.57 E10.70397
G1 X173.689 Y174.6 E10.71341
G1 X172.77 Y174.657 E10.74403
G1 X171.931 Y174.64 E10.77194
G1 X171.499 Y174.614 E10.78634
G1 X170.313 Y174.475 E10.82605
G1 X169.156 Y174.273 E10.86512
G1 X167.933 Y174.035 E10.90656
G1 X165.421 Y173.616 E10.99126
G1 X162.898 Y173.269 E11.07597
G1 X160.423 Y172.998 E11.15878
G1 X157.859 Y172.792 E11.24433
G1 X155.374 Y172.662 E11.3271
G1 X152.834 Y172.602 E11.4116
G1 X150.291 Y172.612 E11.49618
G1 X147.772 Y172.695 E11.58001
G1 X145.267 Y172.848 E11.66348
G1 X142.738 Y173.074 E11.74793
G1 X140.2 Y173.374 E11.83293
G1 X137.741 Y173.735 E11.9156
G1 X135.215 Y174.18 E12.0009
G1 X134.558 Y174.31 E12.02318
G1 X133.784 Y174.45 E12.04934
G1 X133.121 Y174.551 E12.07165
G1 X132.244 Y174.637 E12.10096
G1 X131.229 Y174.663 E12.13473
G1 X130.777 Y174.653 E12.14976
G1 X129.858 Y174.593 E12.18039
G1 X128.948 Y174.453 E12.21102
G1 X128.053 Y174.235 E12.24166
G1 X127.505 Y174.059 E12.2608
G1 X127.214 Y173.957 E12.27106
G1 X126.359 Y173.615 E12.30168
G1 X125.537 Y173.2 E12.33231
G1 X124.754 Y172.716 E12.36293
G1 X124.016 Y172.165 E12.39356
G1 X123.536 Y171.748 E12.41471
G1 X123.319 Y171.548 E12.42452
G1 X122.67 Y170.896 E12.45512
G1 X122.08 Y170.189 E12.48575
G1 X121.553 Y169.434 E12.51637
G1 X121.094 Y168.636 E12.54699
G1 X120.706 Y167.801 E12.57761
G1 X120.392 Y166.936 E12.60822
G1 X120.154 Y166.046 E12.63886
G1 X119.994 Y165.14 E12.66946
G1 X119.913 Y164.222 E12.70011
G1 X119.913 Y163.302 E12.73071
G1 X119.963 Y162.629 E12.75316
G1 X120.066 Y161.664 E12.78544
G1 X120.271 Y160.018 E12.84061
G1 X120.518 Y157.483 E12.92532
G1 X120.69 Y154.965 E13.00926
G1 X120.792 Y152.445 E13.09315
G1 X120.822 Y149.933 E13.1767
G1 X120.78 Y147.361 E13.26226
G1 X120.668 Y144.875 E13.34503
G1 X120.483 Y142.34 E13.42957
G1 X120.224 Y139.788 E13.51488
G1 X119.978 Y137.835 E13.58035
G1 X119.903 Y136.917 E13.61099
G1 X119.928 Y135.671 E13.65244
G1 X119.952 Y135.369 E13.66252
G1 X120.065 Y134.456 E13.69311
G1 X120.257 Y133.555 E13.72375
G1 X120.526 Y132.675 E13.75436
G1 X120.87 Y131.821 E13.78498
G1 X121.287 Y131 E13.81561
G1 X121.774 Y130.219 E13.84622
G1 X122.327 Y129.482 E13.87687
G1 X122.941 Y128.797 E13.90746
G1 X123.613 Y128.167 E13.9381
G0 F6000 X123.992 Y128.371
G1 F1200 X124.711 Y127.824 E13.96815
G1 X125.127 Y127.551 E13.9847
G1 X125.469 Y127.338 E13.9981
G1 X126.256 Y126.895 E14.02814
G1 X127.079 Y126.523 E14.05818
G1 X127.931 Y126.226 E14.08819
G1 X128.807 Y126.005 E14.11823
G1 X129.872 Y125.844 E14.15406
G1 X130.139 Y125.818 E14.16298
G1 X131.301 Y125.771 E14.20166
G1 X131.772 Y125.779 E14.21733
G1 X132.851 Y125.85 E14.25329
G1 X133.618 Y125.963 E14.27908
G1 X135.206 Y126.247 E14.33274
G1 X135.832 Y126.37 E14.35395
G1 X138.314 Y126.783 E14.43764
G1 X140.819 Y127.129 E14.52175
G1 X143.367 Y127.408 E14.607
G1 X145.886 Y127.61 E14.69105
G1 X148.428 Y127.744 E14.77572
G1 X150.956 Y127.803 E14.85982
G1 X153.523 Y127.793 E14.9452
G1 X156.028 Y127.71 E15.02856
G1 X158.587 Y127.554 E15.11383
G1 X161.109 Y127.329 E15.19805
G1 X163.602 Y127.034 E15.28155
G1 X166.168 Y126.657 E15.36781
G1 X168.66 Y126.22 E15.45196
G1 X169.327 Y126.087 E15.47458
G1 X170.137 Y125.945 E15.50193
G1 X170.846 Y125.84 E15.52577
G1 X171.744 Y125.747 E15.5558
G1 X172.394 Y125.73 E15.57742
G1 X172.775 Y125.732 E15.59009
G1 X173.677 Y125.777 E15.62013
G1 X174.571 Y125.901 E15.65015
G1 X175.296 Y126.059 E15.67483
G1 X176.166 Y126.302 E15.70487
G1 X177.01 Y126.622 E15.7349
G1 X177.727 Y126.961 E15.76127
G1 X178.516 Y127.4 E15.79131
G1 X179.263 Y127.907 E15.82133
G1 X179.962 Y128.479 E15.85137
G1 X180.608 Y129.11 E15.88141
G1 X181.26 Y129.87 E15.91471
G1 X181.844 Y130.688 E15.94814
G1 X182.303 Y131.466 E15.97819
G1 X182.69 Y132.282 E16.00823
G1 X183.004 Y133.129 E16.03827
G1 X183.242 Y134 E16.0683
G1 X183.401 Y134.889 E16.09834
G1 X183.474 Y135.634 E16.12324
G1 X183.491 Y135.917 E16.13267
G1 X183.505 Y136.82 E16.1627
G1 X183.447 Y137.655 E16.19054
G1 X183.382 Y138.24 E16.21012
G1 X183.178 Y139.846 E16.26396
G1 X182.925 Y142.408 E16.34959
G1 X182.748 Y144.932 E16.43375
G1 X182.641 Y147.473 E16.51834
G1 X182.607 Y150 E16.60239
G1 X182.645 Y152.541 E16.68691
G1 X182.754 Y155.095 E16.77194
G1 X182.936 Y157.637 E16.8567
G1 X183.187 Y160.148 E16.94063
G1 X183.46 Y162.385 E17.01559
G1 X183.529 Y163.286 E17.04564
G1 X183.519 Y164.189 E17.07568
G1 X183.429 Y165.087 E17.1057
G1 X183.26 Y165.975 E17.13576
G1 X182.905 Y167.166 E17.1771
G1 X182.517 Y168.111 E17.21107
G1 X182.101 Y168.913 E17.24112
G1 X181.616 Y169.675 E17.27117
G1 X181.066 Y170.391 E17.3012
G1 X180.454 Y171.055 E17.33123
G1 X179.369 Y171.999 E17.37906
G1 X178.513 Y172.593 E17.41372
G1 X177.728 Y173.04 E17.44376
G1 X176.907 Y173.415 E17.47378
G1 X175.876 Y173.777 E17.51013
G1 X174.877 Y174.026 E17.54437
G1 X173.929 Y174.172 E17.57627
G1 X173.647 Y174.202 E17.58571
G1 X172.746 Y174.257 E17.61573
G1 X171.955 Y174.241 E17.64204
G1 X171.523 Y174.215 E17.65644
G1 X170.382 Y174.081 E17.69465
G1 X169.013 Y173.84 E17.74088
G1 X167.971 Y173.635 E17.7762
G1 X165.505 Y173.224 E17.85935
G1 X162.96 Y172.874 E17.9448
G1 X160.431 Y172.597 E18.02942
G1 X157.912 Y172.395 E18.11347
G1 X155.37 Y172.261 E18.19813
G1 X152.842 Y172.202 E18.28224
G1 X150.275 Y172.212 E18.36762
G1 X147.77 Y172.295 E18.45098
G1 X145.211 Y172.451 E18.53625
G1 X142.689 Y172.676 E18.62046
G1 X140.196 Y172.971 E18.70396
G1 X137.656 Y173.344 E18.78935
G1 X135.146 Y173.786 E18.87411
G1 X134.688 Y173.878 E18.88965
G1 X133.713 Y174.056 E18.92262
G1 X133.066 Y174.155 E18.94439
G1 X132.215 Y174.238 E18.97282
G1 X131.237 Y174.264 E19.00536
G1 X130.785 Y174.254 E19.0204
G1 X129.884 Y174.194 E19.05043
G1 X128.992 Y174.054 E19.08047
G1 X128.116 Y173.836 E19.11049
G1 X127.346 Y173.58 E19.13748
G1 X126.508 Y173.244 E19.16751
G1 X125.703 Y172.835 E19.19754
G1 X124.937 Y172.356 E19.22759
G1 X124.216 Y171.812 E19.25763
G1 X123.59 Y171.254 E19.28552
G1 X122.954 Y170.613 E19.31555
G1 X122.377 Y169.919 E19.34557
G1 X121.863 Y169.176 E19.37562
G1 X121.418 Y168.39 E19.40566
G1 X121.043 Y167.569 E19.43568
G1 X120.743 Y166.717 E19.46573
G1 X120.519 Y165.842 E19.49577
G1 X120.373 Y164.951 E19.5258
G1 X120.307 Y164.05 E19.55585
G1 X120.321 Y163.147 E19.58588
G1 X120.361 Y162.671 E19.60177
G1 X120.485 Y161.518 E19.64034
G1 X120.672 Y160.031 E19.69019
G1 X120.916 Y157.516 E19.77423
G1 X121.088 Y155.008 E19.85784
G1 X121.192 Y152.431 E19.94362
G1 X121.222 Y149.931 E20.02678
G1 X121.18 Y147.371 E20.11194
G1 X121.066 Y144.829 E20.19657
G1 X120.882 Y142.307 E20.28067
G1 X120.621 Y139.738 E20.36656
G1 X120.375 Y137.785 E20.43203
G1 X120.302 Y136.885 E20.46206
G1 X120.327 Y135.703 E20.50138
G1 X120.351 Y135.401 E20.51146
G1 X120.462 Y134.505 E20.54149
G1 X120.653 Y133.622 E20.57154
G1 X120.92 Y132.759 E20.60158
G1 X121.263 Y131.924 E20.63161
G1 X121.678 Y131.122 E20.66164
G1 X122.163 Y130.36 E20.69168
G1 X122.713 Y129.644 E20.72171
G1 X123.324 Y128.979 E20.75175
G1 X123.992 Y128.371 E20.78179
G1 F1500 E14.28179
;MESH:SmartTemperatureTower_PLA_180-225.stl
G0 F6000 X140.529 Y150.494
;TYPE:WALL-OUTER
G1 F1500 E20.78179
G1 F766.8 X140.453 Y150.494 E20.78575
G1 X140.413 Y150.561 E20.78981
G1 X140.452 Y150.628 E20.79385
G1 X140.529 Y150.628 E20.79785
G1 X140.569 Y150.561 E20.80192
G1 F1500 E14.30192
G0 F6000 X149.437 Y150.522
G1 F1500 E20.80192
G1 F1297.3 X149.553 Y150.576 E20.80585
G1 X149.678 Y150.528 E20.80997
G1 X149.743 Y150.287 E20.81765
G1 X149.744 Y149.561 E20.83999
G1 F1293.8 X149.744 Y149.537 E20.84073
G1 X149.68 Y149.293 E20.84851
G1 X149.634 Y149.25 E20.85045
G1 X149.442 Y149.258 E20.85638
G1 X149.372 Y149.538 E20.86528
G1 F1297.3 X149.372 Y150.29 E20.88842
G1 X149.437 Y150.522 E20.89583
G1 F1500 E14.39583
G0 F6000 X163.806 Y150.527
G1 F1500 E20.89583
G1 F1395.3 X163.968 Y150.589 E20.90079
G1 X164.086 Y150.529 E20.90458
G1 X164.15 Y150.353 E20.90994
G1 X164.15 Y149.679 E20.92922
G1 X164.15 Y149.657 E20.92984
G1 X164.084 Y149.404 E20.93732
G1 X164.027 Y149.345 E20.93967
G1 X163.806 Y149.402 E20.9462
G1 X163.806 Y150.527 E20.97838
G1 F1500 E14.47838
G0 F6000 X161.896 Y150.522
