;FLAVOR:Marlin
;TIME:8511
;Filament used: 4.45458m
;Layer height: 0.2
;MINX:175.065
;MINY:71.803
;MINZ:0.2
;MAXX:239.897
;MAXY:121.93
;MAXZ:71
;POSTPROCESSED
;Generated with Cura_SteamEngine 5.2.2
M140 S60
M105
M190 S60
M104 S220
M105
M109 S220
M82 ;absolute extrusion mode
; Ender 3 Max Custom Start G-code
G92 E0 ; Reset Extruder
G28 ; Home all axes
G1 Z2.0 F3000 ; Move Z Axis up little to prevent scratching of Heat Bed
G1 X0.1 Y20 Z0.3 F5000.0 ; Move to start position
G1 X0.1 Y200.0 Z0.3 F1500.0 E15 ; Draw the first line
G1 X0.4 Y200.0 Z0.3 F5000.0 ; Move to side a little
G1 X0.4 Y20 Z0.3 F1500.0 E30 ; Draw the second line
G92 E0 ; Reset Extruder
G1 Z2.0 F3000 ; Move Z Axis up little to prevent scratching of Heat Bed
G1 X5 Y20 Z0.3 F5000.0 ; Move over to prevent blob squish
G92 E0
G92 E0
G1 F1500 E-6.5
;LAYER_COUNT:355
;LAYER:0
M107
G0 F6000 X175.9 Y79.02 Z0.2
;TYPE:SKIRT
G1 F1500 E0
G1 F1200 X176.283 Y78.164 E0.03119
G1 X176.738 Y77.343 E0.06241
G1 X177.26 Y76.565 E0.09357
G1 X177.848 Y75.833 E0.1248
G1 X178.495 Y75.155 E0.15597
G1 X179.102 Y74.606 E0.18319
G1 X179.918 Y73.971 E0.21758
G1 X180.704 Y73.46 E0.24876
G1 X181.532 Y73.018 E0.27998
G1 X182.393 Y72.649 E0.31114
G1 X183.343 Y72.337 E0.34439
G1 X183.709 Y72.235 E0.35703
G1 X184.622 Y72.022 E0.38821
G1 X185.55 Y71.887 E0.4194
G1 X186.632 Y71.831 E0.45544
G1 X187 Y71.83 E0.46768
G1 X188.029 Y71.875 E0.50194
G1 X188.358 Y71.905 E0.51292
G1 X189.494 Y72.069 E0.5511
G1 X189.987 Y72.167 E0.56782
G1 X192.55 Y72.636 E0.65448
G1 X195.036 Y73.02 E0.73814
G1 X197.522 Y73.333 E0.82148
G1 X200.05 Y73.578 E0.90596
G1 X202.553 Y73.751 E0.98941
G1 X205.061 Y73.851 E1.07289
G1 X207.589 Y73.881 E1.15698
G1 X210.08 Y73.84 E1.23984
G1 X212.602 Y73.727 E1.3238
G1 X215.116 Y73.544 E1.40764
G1 X217.652 Y73.286 E1.49243
G1 X220.097 Y72.967 E1.57444
G1 X222.585 Y72.572 E1.65822
G1 X224.325 Y72.235 E1.71717
G1 X224.586 Y72.196 E1.72595
G1 X225.09 Y72.101 E1.74301
G1 X225.939 Y71.959 E1.77164
G1 X226.87 Y71.847 E1.80283
G1 X227.406 Y71.818 E1.82068
G1 X227.936 Y71.803 E1.83831
G1 X228.874 Y71.817 E1.86952
G1 X230.238 Y71.981 E1.91521
G1 X230.689 Y72.064 E1.93046
G1 X231.603 Y72.273 E1.96165
G1 X232.496 Y72.559 E1.99283
G1 X233.362 Y72.92 E2.02404
G1 X234.194 Y73.353 E2.05523
G1 X234.985 Y73.856 E2.08641
G1 X235.731 Y74.424 E2.1176
G1 X236.426 Y75.054 E2.1488
G1 X237.065 Y75.741 E2.18
G1 X237.643 Y76.48 E2.21121
G1 X238.358 Y77.621 E2.25599
G1 X238.541 Y77.957 E2.26872
G1 X238.954 Y78.799 E2.29991
G1 X239.294 Y79.673 E2.3311
G1 X239.558 Y80.573 E2.3623
G1 X239.745 Y81.492 E2.39349
G1 X239.852 Y82.424 E2.42469
G1 X239.88 Y83.361 E2.45587
G1 X239.844 Y84.143 E2.48191
G1 X239.79 Y84.735 E2.50168
G1 X239.452 Y87.577 E2.59687
G1 X239.225 Y90.099 E2.68109
G1 X239.073 Y92.58 E2.76376
G1 X238.99 Y95.101 E2.84766
G1 X238.98 Y97.623 E2.93154
G1 X239.04 Y100.149 E3.01558
G1 X239.169 Y102.633 E3.09831
G1 X239.375 Y105.192 E3.1837
G1 X239.669 Y107.873 E3.2734
G1 X239.802 Y108.952 E3.30956
G1 X239.868 Y109.695 E3.33437
G1 X239.885 Y110.004 E3.34466
G1 X239.897 Y110.942 E3.37587
G1 X239.829 Y111.877 E3.40705
G1 X239.681 Y112.803 E3.43824
G1 X239.455 Y113.713 E3.46942
G1 X239.152 Y114.601 E3.50063
G1 X238.774 Y115.459 E3.53181
G1 X238.325 Y116.283 E3.56302
G1 X237.808 Y117.065 E3.5942
G1 X237.225 Y117.8 E3.62541
G1 X236.582 Y118.483 E3.65661
G1 X235.944 Y119.058 E3.68517
G1 X235.686 Y119.273 E3.69634
G1 X234.941 Y119.843 E3.72754
G1 X234.149 Y120.346 E3.75875
G1 X233.318 Y120.781 E3.78994
G1 X232.453 Y121.142 E3.82112
G1 X231.56 Y121.429 E3.85232
G1 X230.825 Y121.605 E3.87745
G1 X230.39 Y121.693 E3.89222
G1 X229.464 Y121.839 E3.92339
G1 X228.062 Y121.91 E3.97009
G1 X227.612 Y121.904 E3.98505
G1 X226.257 Y121.802 E4.03025
G1 X225.518 Y121.691 E4.0551
G1 X224.659 Y121.537 E4.08413
G1 X223.206 Y121.255 E4.13336
G1 X220.695 Y120.844 E4.21799
G1 X218.212 Y120.507 E4.30133
G1 X215.712 Y120.241 E4.38495
G1 X213.229 Y120.047 E4.46778
G1 X210.689 Y119.921 E4.55237
G1 X208.164 Y119.867 E4.63637
G1 X205.643 Y119.884 E4.72022
G1 X203.145 Y119.972 E4.80336
G1 X200.632 Y120.132 E4.88711
G1 X198.127 Y120.362 E4.97077
G1 X195.599 Y120.667 E5.05547
G1 X193.154 Y121.033 E5.13769
G1 X190.597 Y121.489 E5.22408
G1 X189.968 Y121.614 E5.24541
G1 X189.029 Y121.773 E5.27709
G1 X188.098 Y121.885 E5.30828
G1 X187.579 Y121.912 E5.32556
G1 X186.962 Y121.93 E5.34609
G1 X186.024 Y121.918 E5.37729
G1 X185.091 Y121.825 E5.40848
G1 X183.714 Y121.538 E5.45526
G1 X183.33 Y121.432 E5.46851
G1 X182.437 Y121.145 E5.49971
G1 X181.573 Y120.782 E5.53088
G1 X180.742 Y120.346 E5.56209
G1 X179.951 Y119.842 E5.59329
G1 X179.206 Y119.272 E5.62448
G1 X178.513 Y118.641 E5.65566
G1 X177.875 Y117.953 E5.68686
G1 X177.332 Y117.264 E5.71604
G1 X176.798 Y116.493 E5.74724
G1 X176.332 Y115.679 E5.77843
G1 X175.937 Y114.828 E5.80964
G1 X175.615 Y113.947 E5.84084
G1 X175.37 Y113.042 E5.87202
G1 X175.203 Y112.119 E5.90322
G1 X175.108 Y111.023 E5.93981
G1 X175.096 Y110.693 E5.95079
G1 X175.102 Y109.755 E5.98199
G1 X175.169 Y108.966 E6.00832
G1 X175.464 Y106.538 E6.08967
G1 X175.698 Y104.057 E6.17256
G1 X175.866 Y101.522 E6.25706
G1 X175.961 Y99.011 E6.34063
G1 X175.984 Y96.518 E6.42356
G1 X175.936 Y93.99 E6.50765
G1 X175.818 Y91.473 E6.59146
G1 X175.628 Y88.959 E6.67531
G1 X175.362 Y86.407 E6.76065
G1 X175.144 Y84.702 E6.81782
G1 X175.065 Y83.768 E6.849
G1 X175.065 Y82.83 E6.8802
G1 X175.146 Y81.895 E6.91141
G1 X175.306 Y80.971 E6.9426
G1 X175.554 Y80.015 E6.97545
G1 X175.9 Y79.02 E7.01049
G0 F6000 X176.278 Y79.152
G1 F1200 X176.656 Y78.312 E7.04113
G1 X177.106 Y77.509 E7.07174
G1 X177.623 Y76.747 E7.10237
G1 X178.204 Y76.033 E7.13299
G1 X178.846 Y75.373 E7.16361
G1 X179.436 Y74.852 E7.18979
G1 X180.163 Y74.287 E7.22041
G1 X180.937 Y73.788 E7.25104
G1 X181.751 Y73.357 E7.28168
G1 X182.599 Y72.999 E7.31229
G1 X183.45 Y72.722 E7.34206
G1 X183.816 Y72.62 E7.3547
G1 X184.713 Y72.412 E7.38532
G1 X185.625 Y72.282 E7.41596
G1 X186.633 Y72.231 E7.44953
G1 X187.001 Y72.23 E7.46177
G1 X187.993 Y72.274 E7.4948
G1 X188.322 Y72.304 E7.50578
G1 X189.417 Y72.462 E7.54258
G1 X189.916 Y72.561 E7.5595
G1 X192.454 Y73.026 E7.64532
G1 X194.992 Y73.418 E7.73074
G1 X197.47 Y73.73 E7.81381
G1 X200.023 Y73.977 E7.89912
G1 X202.507 Y74.148 E7.98193
G1 X205.077 Y74.251 E8.06748
G1 X207.556 Y74.281 E8.14993
G1 X210.141 Y74.238 E8.23592
G1 X212.613 Y74.128 E8.31822
G1 X215.153 Y73.942 E8.40293
G1 X217.674 Y73.686 E8.48721
G1 X220.17 Y73.36 E8.57093
G1 X222.667 Y72.963 E8.65503
G1 X224.401 Y72.628 E8.71377
G1 X224.65 Y72.591 E8.72214
G1 X225.417 Y72.449 E8.74808
G1 X226.003 Y72.353 E8.76783
G1 X226.917 Y72.244 E8.79845
G1 X227.417 Y72.218 E8.8151
G1 X227.947 Y72.203 E8.83274
G1 X228.868 Y72.217 E8.86337
G1 X230.166 Y72.374 E8.90686
G1 X230.617 Y72.457 E8.92211
G1 X231.514 Y72.663 E8.95272
G1 X232.39 Y72.946 E8.98334
G1 X233.238 Y73.304 E9.01396
G1 X234.052 Y73.734 E9.04457
G1 X234.826 Y74.233 E9.0752
G1 X235.553 Y74.797 E9.10581
G1 X236.229 Y75.423 E9.13645
G1 X236.848 Y76.104 E9.16706
G1 X237.405 Y76.837 E9.19768
G1 X238.007 Y77.812 E9.23579
G1 X238.19 Y78.148 E9.24852
G1 X238.595 Y78.975 E9.27914
G1 X238.926 Y79.834 E9.30976
G1 X239.182 Y80.718 E9.34037
G1 X239.36 Y81.621 E9.37098
G1 X239.459 Y82.537 E9.40163
G1 X239.459 Y83.9 E9.44696
G1 X239.393 Y84.688 E9.47326
G1 X239.055 Y87.53 E9.56845
G1 X238.827 Y90.072 E9.65334
G1 X238.673 Y92.579 E9.73688
G1 X238.59 Y95.087 E9.82034
G1 X238.58 Y97.631 E9.90496
G1 X238.639 Y100.144 E9.98856
G1 X238.771 Y102.685 E10.07319
G1 X238.974 Y105.197 E10.15701
G1 X239.278 Y107.97 E10.2498
G1 X239.405 Y109.001 E10.28435
G1 X239.469 Y109.717 E10.30826
G1 X239.486 Y110.026 E10.31855
G1 X239.497 Y110.946 E10.34915
G1 X239.427 Y111.864 E10.37977
G1 X239.279 Y112.773 E10.4104
G1 X239.052 Y113.665 E10.44102
G1 X238.748 Y114.534 E10.47164
G1 X238.37 Y115.374 E10.50227
G1 X237.921 Y116.177 E10.53287
G1 X237.404 Y116.939 E10.5635
G1 X236.822 Y117.653 E10.59414
G1 X236.181 Y118.314 E10.62476
G1 X235.688 Y118.751 E10.64667
G1 X235.43 Y118.966 E10.65784
G1 X234.698 Y119.524 E10.68846
G1 X233.92 Y120.017 E10.71909
G1 X233.102 Y120.44 E10.74972
G1 X232.251 Y120.79 E10.78033
G1 X231.372 Y121.066 E10.81097
G1 X230.746 Y121.213 E10.83236
G1 X230.311 Y121.301 E10.84712
G1 X229.401 Y121.444 E10.87776
G1 X228.068 Y121.51 E10.92215
G1 X227.618 Y121.504 E10.93711
G1 X226.312 Y121.406 E10.98067
G1 X225.588 Y121.298 E11.00502
G1 X224.735 Y121.145 E11.03384
G1 X223.241 Y120.856 E11.08446
G1 X220.778 Y120.451 E11.16748
G1 X218.272 Y120.112 E11.25159
G1 X215.75 Y119.844 E11.33594
G1 X213.213 Y119.645 E11.42058
G1 X210.718 Y119.521 E11.50367
G1 X208.17 Y119.467 E11.58843
G1 X205.626 Y119.484 E11.67305
G1 X203.142 Y119.572 E11.75572
G1 X200.568 Y119.735 E11.8415
G1 X198.114 Y119.961 E11.92347
G1 X195.564 Y120.269 E12.0089
G1 X193.062 Y120.642 E12.09303
G1 X190.508 Y121.099 E12.17933
G1 X189.535 Y121.286 E12.21228
G1 X188.965 Y121.379 E12.23149
G1 X188.051 Y121.487 E12.2621
G1 X187.567 Y121.512 E12.27822
G1 X186.95 Y121.53 E12.29875
G1 X186.03 Y121.517 E12.32936
G1 X185.114 Y121.424 E12.35998
G1 X183.82 Y121.153 E12.40395
G1 X183.436 Y121.047 E12.4172
G1 X182.56 Y120.764 E12.44782
G1 X181.712 Y120.405 E12.47845
G1 X180.899 Y119.975 E12.50904
G1 X180.125 Y119.475 E12.53968
G1 X179.398 Y118.911 E12.57029
G1 X178.723 Y118.285 E12.60091
G1 X178.104 Y117.603 E12.63154
G1 X177.651 Y117.022 E12.65604
G1 X177.127 Y116.265 E12.68667
G1 X176.672 Y115.465 E12.71728
G1 X176.287 Y114.628 E12.74792
G1 X175.976 Y113.762 E12.77852
G1 X175.742 Y112.871 E12.80916
G1 X175.586 Y111.964 E12.83977
G1 X175.508 Y111.008 E12.87167
G1 X175.496 Y110.678 E12.88266
G1 X175.503 Y109.758 E12.91326
G1 X175.566 Y109.014 E12.93809
G1 X175.861 Y106.587 E13.01941
G1 X176.097 Y104.085 E13.10299
G1 X176.264 Y101.562 E13.18709
G1 X176.359 Y99.029 E13.2714
G1 X176.384 Y96.479 E13.35622
G1 X176.336 Y93.964 E13.43988
G1 X176.218 Y91.459 E13.52329
G1 X176.026 Y88.92 E13.60798
G1 X175.764 Y86.401 E13.69221
G1 X175.54 Y84.651 E13.75089
G1 X175.464 Y83.734 E13.7815
G1 X175.467 Y82.813 E13.81213
G1 X175.549 Y81.896 E13.84275
G1 X175.712 Y80.99 E13.87337
G1 X175.939 Y80.125 E13.90311
G1 X176.278 Y79.152 E13.93738
G0 F6000 X176.656 Y79.284
G1 F1200 X177.029 Y78.461 E13.96744
G1 X177.473 Y77.675 E13.99746
G1 X177.985 Y76.931 E14.0275
G1 X178.561 Y76.235 E14.05755
G1 X179.588 Y75.24 E14.10511
G1 X180.409 Y74.603 E14.13967
G1 X181.169 Y74.115 E14.16971
G1 X181.969 Y73.696 E14.19975
G1 X182.803 Y73.35 E14.22978
G1 X183.558 Y73.107 E14.25616
G1 X183.924 Y73.005 E14.2688
G1 X184.804 Y72.802 E14.29884
G1 X185.698 Y72.677 E14.32886
G1 X186.634 Y72.631 E14.36003
G1 X187.002 Y72.63 E14.37227
G1 X187.956 Y72.672 E14.40403
G1 X188.285 Y72.702 E14.41502
G1 X189.339 Y72.854 E14.45044
G1 X189.831 Y72.951 E14.46711
G1 X192.432 Y73.428 E14.55507
G1 X194.912 Y73.811 E14.63853
G1 X197.453 Y74.131 E14.72371
G1 X199.954 Y74.374 E14.80729
G1 X202.5 Y74.549 E14.89217
G1 X205.056 Y74.651 E14.97725
G1 X207.558 Y74.681 E15.06047
G1 X210.13 Y74.638 E15.14603
G1 X212.66 Y74.525 E15.23026
G1 X215.186 Y74.341 E15.3145
G1 X217.733 Y74.082 E15.39965
G1 X220.213 Y73.758 E15.48283
G1 X222.745 Y73.356 E15.5681
G1 X224.477 Y73.021 E15.62678
G1 X224.718 Y72.985 E15.63488
G1 X225.482 Y72.844 E15.66072
G1 X226.068 Y72.748 E15.68047
G1 X226.965 Y72.642 E15.71051
G1 X227.428 Y72.618 E15.72593
G1 X227.958 Y72.603 E15.74357
G1 X228.861 Y72.618 E15.77361
G1 X230.093 Y72.767 E15.81488
G1 X230.544 Y72.85 E15.83013
G1 X231.424 Y73.053 E15.86017
G1 X232.283 Y73.333 E15.89022
G1 X233.114 Y73.687 E15.92026
G1 X233.91 Y74.114 E15.95031
G1 X234.665 Y74.609 E15.98034
G1 X235.373 Y75.169 E16.01036
G1 X236.029 Y75.79 E16.0404
G1 X236.628 Y76.466 E16.07044
G1 X237.164 Y77.193 E16.10049
G1 X237.656 Y78.003 E16.13201
G1 X237.839 Y78.339 E16.14473
G1 X238.235 Y79.151 E16.17478
G1 X238.558 Y79.994 E16.20481
G1 X238.805 Y80.863 E16.23485
G1 X238.975 Y81.75 E16.26489
G1 X239.065 Y82.648 E16.29491
G1 X239.06 Y83.875 E16.33572
G1 X238.996 Y84.64 E16.36125
G1 X238.654 Y87.514 E16.45752
G1 X238.43 Y90.012 E16.54093
G1 X238.273 Y92.576 E16.62637
G1 X238.19 Y95.071 E16.7094
G1 X238.18 Y97.639 E16.79482
G1 X238.24 Y100.175 E16.87919
G1 X238.371 Y102.702 E16.96335
G1 X238.576 Y105.24 E17.04804
G1 X238.877 Y107.986 E17.13992
G1 X239.008 Y109.05 E17.17557
G1 X239.07 Y109.739 E17.19858
G1 X239.087 Y110.048 E17.20887
G1 X239.096 Y110.951 E17.23891
G1 X239.026 Y111.851 E17.26893
G1 X238.876 Y112.742 E17.29899
G1 X238.648 Y113.616 E17.32903
G1 X238.344 Y114.466 E17.35905
G1 X237.966 Y115.286 E17.38908
G1 X237.517 Y116.069 E17.41911
G1 X237 Y116.81 E17.44916
G1 X236.42 Y117.502 E17.47919
G1 X235.78 Y118.14 E17.50925
G1 X235.174 Y118.659 E17.53578
G1 X234.455 Y119.206 E17.56583
G1 X233.691 Y119.687 E17.59586
G1 X232.887 Y120.099 E17.62591
G1 X232.05 Y120.438 E17.65594
G1 X231.186 Y120.701 E17.68598
G1 X230.666 Y120.82 E17.70372
G1 X230.231 Y120.908 E17.71848
G1 X229.339 Y121.048 E17.74851
G1 X228.073 Y121.11 E17.79067
G1 X227.623 Y121.104 E17.80564
G1 X226.366 Y121.009 E17.84757
G1 X225.658 Y120.904 E17.87137
G1 X224.811 Y120.752 E17.89999
G1 X223.316 Y120.462 E17.95065
G1 X220.854 Y120.058 E18.03363
G1 X218.301 Y119.712 E18.11932
G1 X215.787 Y119.445 E18.2034
G1 X213.264 Y119.247 E18.28758
G1 X210.71 Y119.121 E18.37263
G1 X208.175 Y119.067 E18.45696
G1 X205.644 Y119.084 E18.54114
G1 X203.103 Y119.174 E18.62571
G1 X200.543 Y119.336 E18.71103
G1 X198.027 Y119.568 E18.79506
G1 X195.528 Y119.869 E18.87878
G1 X192.998 Y120.247 E18.96386
G1 X190.468 Y120.699 E19.04934
G1 X189.813 Y120.829 E19.07155
G1 X188.9 Y120.984 E19.10236
G1 X187.555 Y121.113 E19.1473
G1 X186.938 Y121.131 E19.16783
G1 X186.035 Y121.117 E19.19786
G1 X185.137 Y121.024 E19.22789
G1 X183.927 Y120.767 E19.26903
G1 X183.543 Y120.661 E19.28228
G1 X182.684 Y120.383 E19.31231
G1 X181.853 Y120.029 E19.34235
G1 X181.056 Y119.604 E19.3724
G1 X180.301 Y119.109 E19.40242
G1 X179.591 Y118.55 E19.43248
G1 X178.935 Y117.93 E19.4625
G1 X178.126 Y116.987 E19.50383
G1 X177.97 Y116.781 E19.51242
G1 X177.457 Y116.037 E19.54248
G1 X177.012 Y115.252 E19.57249
G1 X176.638 Y114.429 E19.60256
G1 X176.338 Y113.578 E19.63257
G1 X176.115 Y112.702 E19.66263
G1 X175.97 Y111.811 E19.69266
G1 X175.908 Y110.994 E19.71991
G1 X175.896 Y110.664 E19.73089
G1 X175.903 Y109.761 E19.76093
G1 X175.963 Y109.063 E19.78423
G1 X176.258 Y106.638 E19.86548
G1 X176.496 Y104.113 E19.94983
G1 X176.665 Y101.57 E20.0346
G1 X176.759 Y99.048 E20.11854
G1 X176.784 Y96.476 E20.20409
G1 X176.736 Y93.974 E20.28732
G1 X176.615 Y91.41 E20.3727
G1 X176.425 Y88.885 E20.45692
G1 X176.161 Y86.354 E20.54155
G1 X175.937 Y84.601 E20.60033
G1 X175.863 Y83.701 E20.63037
G1 X175.868 Y82.798 E20.6604
G1 X175.953 Y81.898 E20.69047
G1 X176.117 Y81.01 E20.7205
G1 X176.325 Y80.231 E20.74732
G1 X176.656 Y79.284 E20.78069
G1 F1500 E14.28069
;MESH:Raspatorre_temperatura_190-220.stl
G0 F6000 X196.092 Y97.358
;TYPE:WALL-OUTER
G1 F1500 E20.78069
G1 F774.2 X196.016 Y97.358 E20.78461
G1 X195.977 Y97.424 E20.78856
G1 X196.016 Y97.49 E20.79251
G1 X196.092 Y97.49 E20.79643
G1 X196.131 Y97.424 E20.80038
G1 F1500 E14.30038
G0 F6000 X197.036 Y97.054
G0 X200.468 Y97.069
G0 X199.525 Y97.358
G1 F1500 E20.80038
G1 F771.7 X199.449 Y97.358 E20.80431
G1 X199.41 Y97.424 E20.80828
G1 X199.449 Y97.49 E20.81224
G1 X199.525 Y97.49 E20.81617
G1 X199.564 Y97.424 E20.82014
G1 F1500 E14.32014
G0 F6000 X205.184 Y97.436
G1 F1500 E20.82014
G1 F1297.3 X205.243 Y97.386 E20.82252
G1 X205.307 Y97.156 E20.82986
G1 X205.308 Y96.428 E20.85226
G1 F1293.8 X205.308 Y96.404 E20.853
G1 X205.245 Y96.162 E20.86071
G1 X205.186 Y96.111 E20.86312
G1 X205.04 Y96.118 E20.86763
G1 X204.997 Y96.16 E20.86948
G1 X204.936 Y96.405 E20.87727
G1 F1297.3 X204.937 Y97.157 E20.90041
G1 X205.042 Y97.429 E20.90938
G1 X205.184 Y97.436 E20.91375
G1 F1500 E14.41375
G0 F6000 X219.371 Y97.391
G1 F1500 E20.91375
G1 F1395.3 X219.445 Y97.44 E20.91629
G1 X219.585 Y97.45 E20.9203
G1 X219.65 Y97.394 E20.92276
G1 X219.715 Y97.191 E20.92885
G1 X219.715 Y96.546 E20.9473
G1 X219.715 Y96.524 E20.94793
G1 X219.647 Y96.265 E20.95559
G1 X219.547 Y96.205 E20.95893
