;FLAVOR:Marlin
;TIME:36191
;Filament used: 16.431m
;Layer height: 0.12
;MINX:4.148
;MINY:30.677
;MINZ:0.12
;MAXX:296.126
;MAXY:269.324
;MAXZ:5.36
;Generated with Cura_SteamEngine 5.2.2
M140 S60
M105
M190 S60
M104 S200
M105
M109 S200
M82 ;absolute extrusion mode
; Ender 3 Max Custom Start G-code
G92 E0 ; Reset Extruder
G28 ; Home all axes
G1 Z2.0 F3000 ; Move Z Axis up little to prevent scratching of Heat Bed
G1 X0.1 Y20 Z0.3 F5000.0 ; Move to start position
G1 X0.1 Y200.0 Z0.3 F1500.0 E15 ; Draw the first line
G1 X0.4 Y200.0 Z0.3 F5000.0 ; Move to side a little
G1 X0.4 Y20 Z0.3 F1500.0 E30 ; Draw the second line
G92 E0 ; Reset Extruder
G1 Z2.0 F3000 ; Move Z Axis up little to prevent scratching of Heat Bed
G1 X5 Y20 Z0.3 F5000.0 ; Move over to prevent blob squish
G92 E0
G92 E0
G1 F1500 E-6.5
;LAYER_COUNT:43
;LAYER:0
M107
G1 F300 Z0.32
G0 F6000 X47.909 Y57.644 Z0.32
;TYPE:SKIRT
G1 F300 Z0.12
G1 F1500 E0
G1 F1200 X49.854 Y56.086 E0.04973
G1 X51.289 Y54.98 E0.08589
G1 X53.245 Y53.523 E0.13456
G1 X54.694 Y52.485 E0.17013
G1 X56.755 Y51.063 E0.2201
G1 X58.203 Y50.102 E0.25478
G1 X60.26 Y48.787 E0.3035
G1 X61.819 Y47.832 E0.33999
G1 X63.926 Y46.589 E0.38881
G1 X65.51 Y45.694 E0.42511
G1 X67.657 Y44.529 E0.47386
G1 X69.229 Y43.712 E0.50922
G1 X71.444 Y42.61 E0.55859
G1 X73.05 Y41.846 E0.59408
G1 X75.281 Y40.834 E0.64297
G1 X76.954 Y40.111 E0.67934
G1 X79.18 Y39.195 E0.72737
G1 X80.924 Y38.515 E0.76473
G1 X83.151 Y37.69 E0.81212
G1 X84.881 Y37.085 E0.8487
G1 X87.211 Y36.314 E0.89767
G1 X88.931 Y35.78 E0.93361
G1 X91.271 Y35.098 E0.98225
G1 X92.998 Y34.628 E1.01797
G1 X95.372 Y34.027 E1.06684
G1 X97.156 Y33.611 E1.1034
G1 X99.506 Y33.103 E1.15138
G1 X101.306 Y32.749 E1.18799
G1 X103.714 Y32.319 E1.2368
G1 X105.471 Y32.037 E1.27231
G1 X107.902 Y31.693 E1.32131
G1 X109.701 Y31.47 E1.35749
G1 X112.108 Y31.215 E1.40579
G1 X113.938 Y31.053 E1.44245
G1 X116.345 Y30.885 E1.4906
G1 X118.164 Y30.791 E1.52695
G1 X120.631 Y30.706 E1.57621
G1 X122.382 Y30.677 E1.61116
G1 X124.87 Y30.68 E1.66081
G1 X126.647 Y30.715 E1.69628
G1 X129.112 Y30.806 E1.74551
G1 X130.841 Y30.9 E1.78006
G1 X133.386 Y31.085 E1.83098
G1 X135.078 Y31.239 E1.86489
G1 X137.548 Y31.506 E1.91447
G1 X139.369 Y31.737 E1.9511
G1 X141.784 Y32.087 E1.99979
G1 X143.542 Y32.374 E2.03534
G1 X145.952 Y32.81 E2.08422
G1 X147.721 Y33.164 E2.12022
G1 X150.122 Y33.688 E2.16926
G1 X151.877 Y34.104 E2.20525
G1 X154.255 Y34.713 E2.25424
G1 X155.936 Y35.176 E2.28904
G1 X158.333 Y35.88 E2.33889
G1 X160.039 Y36.415 E2.37457
G1 X162.382 Y37.196 E2.42386
G1 X164.021 Y37.775 E2.45855
G1 X166.355 Y38.647 E2.50827
G1 X168.025 Y39.305 E2.54409
G1 X170.282 Y40.241 E2.59285
G1 X171.96 Y40.972 E2.62938
G1 X174.172 Y41.983 E2.67791
G1 X175.77 Y42.747 E2.71326
G1 X178 Y43.864 E2.76303
G1 X179.541 Y44.669 E2.79773
G1 X181.753 Y45.877 E2.84802
G1 X183.262 Y46.738 E2.88269
G1 X185.406 Y48.008 E2.93242
G1 X186.897 Y48.929 E2.9674
G1 X188.983 Y50.269 E3.01687
G1 X190.482 Y51.27 E3.05284
G1 X192.489 Y52.662 E3.10159
G1 X193.949 Y53.714 E3.1375
G1 X195.919 Y55.188 E3.1866
G1 X197.306 Y56.264 E3.22163
G1 X199.256 Y57.833 E3.27158
G1 X200.616 Y58.97 E3.30695
G1 X202.459 Y60.564 E3.35558
G1 X203.816 Y61.782 E3.39197
G1 X205.62 Y63.459 E3.44112
G1 X206.897 Y64.69 E3.47652
G1 X208.605 Y66.395 E3.52468
G1 X209.906 Y67.741 E3.56204
G1 X211.576 Y69.532 E3.6109
G1 X212.735 Y70.819 E3.64547
G1 X214.367 Y72.7 E3.69516
G1 X215.519 Y74.074 E3.73095
G1 X217.042 Y75.961 E3.77934
G1 X218.172 Y77.412 E3.81604
G1 X219.649 Y79.38 E3.86514
G1 X220.661 Y80.779 E3.8996
G1 X222.097 Y82.841 E3.94975
G1 X223.087 Y84.318 E3.98523
G1 X224.406 Y86.366 E4.03384
G1 X225.372 Y87.925 E4.07044
G1 X226.618 Y90.018 E4.11905
G1 X227.492 Y91.547 E4.1542
G1 X228.687 Y93.726 E4.20379
G1 X229.52 Y95.312 E4.23954
G1 X230.618 Y97.499 E4.28838
G1 X231.404 Y99.133 E4.32456
G1 X232.429 Y101.367 E4.37361
G1 X233.131 Y102.973 E4.40859
G1 X234.085 Y105.264 E4.45812
G1 X234.749 Y106.943 E4.49415
G1 X235.599 Y109.207 E4.54241
G1 X236.209 Y110.926 E4.57881
G1 X236.996 Y113.275 E4.62824
G1 X237.514 Y114.916 E4.66259
G1 X238.233 Y117.345 E4.71314
G1 X238.692 Y119.008 E4.74757
G1 X239.315 Y121.421 E4.7973
G1 X239.729 Y123.154 E4.83286
G1 X240.258 Y125.562 E4.88206
G1 X240.61 Y127.307 E4.91758
G1 X241.055 Y129.743 E4.967
G1 X241.339 Y131.473 E5.00198
G1 X241.7 Y133.933 E5.0516
G1 X241.927 Y135.701 E5.08717
G1 X242.195 Y138.127 E5.13588
G1 X242.364 Y139.967 E5.17276
G1 X242.541 Y142.361 E5.22066
G1 X242.643 Y144.177 E5.25696
G1 X242.738 Y146.634 E5.30603
G1 X242.775 Y148.385 E5.34098
G1 X242.782 Y150.882 E5.39081
G1 X242.756 Y152.665 E5.42639
G1 X242.652 Y155.991 E5.4928
G1 X242.61 Y157.098 E5.51491
G1 X242.583 Y159.899 E5.57081
G1 X242.635 Y162.697 E5.62665
G1 X242.768 Y165.52 E5.68305
G1 X242.977 Y168.287 E5.73843
G1 X243.269 Y171.099 E5.79485
G1 X243.633 Y173.847 E5.85016
G1 X244.084 Y176.633 E5.90649
G1 X244.604 Y179.362 E5.96193
G1 X245.206 Y182.101 E6.01789
G1 X245.885 Y184.813 E6.07368
G1 X246.64 Y187.509 E6.12955
G1 X247.477 Y190.203 E6.18585
G1 X248.379 Y192.832 E6.24132
G1 X249.37 Y195.482 E6.29778
G1 X250.414 Y198.05 E6.3531
G1 X251.543 Y200.612 E6.40897
G1 X252.755 Y203.167 E6.4654
G1 X254.014 Y205.637 E6.52073
G1 X255.354 Y208.095 E6.5766
G1 X256.779 Y210.538 E6.63304
G1 X258.242 Y212.892 E6.68835
G1 X259.8 Y215.247 E6.7447
G1 X261.398 Y217.519 E6.80013
G1 X263.089 Y219.786 E6.85657
G1 X264.807 Y221.958 E6.91183
G1 X266.607 Y224.105 E6.96774
G1 X268.465 Y226.199 E7.02361
G1 X270.402 Y228.261 E7.08007
G1 X272.346 Y230.218 E7.13512
G1 X274.402 Y232.173 E7.19173
G1 X276.468 Y234.028 E7.24714
G1 X278.625 Y235.857 E7.30358
G1 X280.787 Y237.59 E7.35888
G1 X283.022 Y239.278 E7.41477
G1 X285.311 Y240.907 E7.47083
G1 X287.653 Y242.477 E7.5271
G1 X289.998 Y243.954 E7.58241
G1 X292.427 Y245.389 E7.63871
G1 X294.539 Y246.564 E7.68694
G1 X295.592 Y247.133 E7.71082
G1 X295.819 Y247.301 E7.71646
G1 X295.99 Y247.525 E7.72208
G1 X296.113 Y247.844 E7.72891
G1 X296.126 Y248.308 E7.73817
G1 X296.126 Y267.602 E8.1232
G1 X296.116 Y268.329 E8.13771
G1 X296.072 Y268.607 E8.14333
G1 X295.953 Y268.863 E8.14896
G1 X295.766 Y269.075 E8.1546
G1 X295.528 Y269.226 E8.16023
G1 X295.144 Y269.315 E8.1681
G1 X294.796 Y269.324 E8.17504
G1 X123.999 Y269.32 E11.58348
G1 X121.024 Y269.287 E11.64285
G1 X119.284 Y269.238 E11.67759
G1 X116.806 Y269.125 E11.72709
G1 X115.036 Y269.013 E11.76249
G1 X112.569 Y268.813 E11.81188
G1 X110.781 Y268.635 E11.84774
G1 X108.381 Y268.354 E11.89596
G1 X106.545 Y268.105 E11.93293
G1 X104.155 Y267.739 E11.98119
G1 X102.394 Y267.436 E12.01684
G1 X99.955 Y266.972 E12.06639
G1 X98.208 Y266.607 E12.10201
G1 X95.817 Y266.064 E12.15094
G1 X94.094 Y265.64 E12.18635
G1 X91.693 Y265.003 E12.23592
G1 X89.992 Y264.52 E12.27121
G1 X87.641 Y263.806 E12.32024
G1 X85.92 Y263.25 E12.35633
G1 X83.608 Y262.456 E12.40511
G1 X81.911 Y261.841 E12.44114
G1 X79.621 Y260.963 E12.49008
G1 X77.954 Y260.291 E12.52595
G1 X75.725 Y259.345 E12.57427
G1 X74.056 Y258.6 E12.61074
G1 X71.862 Y257.575 E12.65907
G1 X70.253 Y256.789 E12.6948
G1 X68.041 Y255.657 E12.74439
G1 X66.459 Y254.812 E12.78018
G1 X64.311 Y253.615 E12.82926
G1 X62.775 Y252.722 E12.86471
G1 X60.648 Y251.436 E12.91431
G1 X59.167 Y250.505 E12.94922
G1 X57.089 Y249.145 E12.99878
G1 X55.617 Y248.143 E13.03432
G1 X53.623 Y246.734 E13.08304
G1 X52.152 Y245.655 E13.11945
G1 X50.205 Y244.172 E13.16829
G1 X48.792 Y243.056 E13.20422
G1 X46.913 Y241.516 E13.25271
G1 X45.529 Y240.34 E13.28895
G1 X43.689 Y238.72 E13.33787
G1 X42.385 Y237.53 E13.3731
G1 X40.581 Y235.825 E13.42264
G1 X39.307 Y234.576 E13.45824
G1 X37.592 Y232.833 E13.50704
G1 X36.345 Y231.52 E13.54318
G1 X34.678 Y229.703 E13.59238
G1 X33.515 Y228.389 E13.6274
G1 X31.886 Y226.478 E13.67751
G1 X30.776 Y225.129 E13.71238
G1 X29.253 Y223.21 E13.76127
G1 X28.145 Y221.762 E13.79765
G1 X26.697 Y219.797 E13.84636
G1 X25.659 Y218.336 E13.88213
G1 X24.275 Y216.31 E13.93109
G1 X23.289 Y214.811 E13.9669
G1 X21.956 Y212.704 E14.01665
G1 X21.039 Y211.193 E14.05193
G1 X19.803 Y209.079 E14.1008
G1 X18.93 Y207.519 E14.13647
G1 X17.777 Y205.374 E14.18507
G1 X16.952 Y203.768 E14.2211
G1 X15.861 Y201.549 E14.27044
G1 X15.108 Y199.946 E14.30579
G1 X14.102 Y197.703 E14.35484
G1 X13.382 Y196.021 E14.39136
G1 X12.468 Y193.769 E14.43986
G1 X11.833 Y192.125 E14.47503
G1 X10.974 Y189.776 E14.52494
G1 X10.399 Y188.111 E14.56009
G1 X9.639 Y185.775 E14.60912
G1 X9.105 Y184.029 E14.64555
G1 X8.434 Y181.689 E14.69413
G1 X7.972 Y179.96 E14.72985
G1 X7.38 Y177.581 E14.77877
G1 X6.975 Y175.814 E14.81495
G1 X6.472 Y173.433 E14.86351
G1 X6.132 Y171.666 E14.89942
G1 X5.717 Y169.286 E14.94763
G1 X5.428 Y167.434 E14.98504
G1 X5.099 Y165.038 E15.0333
G1 X4.887 Y163.264 E15.06896
G1 X4.642 Y160.851 E15.11736
G1 X4.488 Y159.008 E15.15426
G1 X4.33 Y156.602 E15.20238
G1 X4.243 Y154.792 E15.23854
G1 X4.17 Y152.344 E15.28742
G1 X4.148 Y150.516 E15.3239
G1 X4.162 Y148.091 E15.3723
G1 X4.204 Y146.319 E15.40767
G1 X4.305 Y143.852 E15.45694
G1 X4.411 Y142.049 E15.49298
G1 X4.601 Y139.575 E15.5425
G1 X4.765 Y137.853 E15.57702
G1 X5.047 Y135.357 E15.62715
G1 X5.274 Y133.631 E15.66189
G1 X5.639 Y131.183 E15.71128
G1 X5.938 Y129.4 E15.74736
G1 X6.386 Y126.983 E15.79641
G1 X6.744 Y125.234 E15.83204
G1 X7.269 Y122.876 E15.88025
G1 X7.702 Y121.083 E15.91706
G1 X8.318 Y118.718 E15.96583
G1 X8.8 Y117 E16.00144
G1 X9.504 Y114.639 E16.0506
G1 X10.043 Y112.951 E16.08597
G1 X10.84 Y110.59 E16.13569
G1 X11.431 Y108.94 E16.17067
G1 X12.306 Y106.627 E16.22002
G1 X12.975 Y104.949 E16.25607
G1 X13.922 Y102.693 E16.3049
G1 X14.646 Y101.053 E16.34067
G1 X15.665 Y98.846 E16.38918
G1 X16.454 Y97.215 E16.42534
G1 X17.56 Y95.029 E16.47423
G1 X18.406 Y93.428 E16.51037
G1 X19.597 Y91.271 E16.55954
G1 X20.472 Y89.747 E16.59461
G1 X21.741 Y87.628 E16.6439
G1 X22.682 Y86.12 E16.67937
G1 X24.03 Y84.04 E16.72883
G1 X25.028 Y82.562 E16.76442
G1 X26.437 Y80.548 E16.81347
G1 X27.494 Y79.095 E16.84933
G1 X28.982 Y77.124 E16.89861
G1 X30.068 Y75.737 E16.93377
G1 X31.614 Y73.833 E16.98271
G1 X32.776 Y72.453 E17.01871
G1 X34.384 Y70.61 E17.06752
G1 X35.601 Y69.265 E17.10372
G1 X37.279 Y67.476 E17.15267
G1 X38.518 Y66.2 E17.18816
G1 X40.272 Y64.459 E17.23748
G1 X41.563 Y63.222 E17.27316
G1 X43.365 Y61.556 E17.32214
G1 X44.696 Y60.369 E17.35773
G1 X46.589 Y58.74 E17.40757
G1 X47.909 Y57.644 E17.44181
G0 F6000 X48.159 Y57.956
G1 F1200 X50.098 Y56.403 E17.49138
G1 X51.528 Y55.301 E17.52741
G1 X53.478 Y53.848 E17.57594
G1 X54.921 Y52.814 E17.61136
G1 X56.976 Y51.396 E17.66119
G1 X58.419 Y50.439 E17.69574
G1 X60.485 Y49.119 E17.74467
G1 X62.022 Y48.176 E17.78066
G1 X64.123 Y46.938 E17.82932
G1 X65.701 Y46.046 E17.86549
G1 X67.841 Y44.884 E17.91409
G1 X69.407 Y44.07 E17.94931
G1 X71.616 Y42.971 E17.99855
G1 X73.215 Y42.211 E18.03388
G1 X75.44 Y41.201 E18.08264
G1 X77.107 Y40.481 E18.11888
G1 X79.326 Y39.568 E18.16676
G1 X81.063 Y38.89 E18.20397
G1 X83.283 Y38.068 E18.25122
G1 X85.007 Y37.464 E18.28767
G1 X87.329 Y36.696 E18.33648
G1 X89.043 Y36.164 E18.37229
G1 X91.376 Y35.484 E18.42079
G1 X93.096 Y35.015 E18.45636
G1 X95.463 Y34.417 E18.50508
G1 X97.24 Y34.002 E18.5415
G1 X99.583 Y33.495 E18.58934
G1 X101.376 Y33.142 E18.62581
G1 X103.777 Y32.714 E18.67448
G1 X105.527 Y32.433 E18.70985
G1 X107.951 Y32.09 E18.7587
G1 X109.743 Y31.867 E18.79474
G1 X112.143 Y31.613 E18.8429
G1 X113.966 Y31.452 E18.87942
G1 X116.366 Y31.285 E18.92743
G1 X118.177 Y31.19 E18.96362
G1 X120.638 Y31.106 E19.01277
G1 X122.382 Y31.077 E19.04757
G1 X124.863 Y31.08 E19.09708
G1 X126.632 Y31.114 E19.13239
G1 X129.091 Y31.206 E19.1815
G1 X130.83 Y31.301 E19.21626
G1 X133.35 Y31.483 E19.26668
G1 X135.035 Y31.636 E19.30044
G1 X137.498 Y31.903 E19.34988
G1 X139.312 Y32.133 E19.38637
G1 X141.72 Y32.482 E19.43493
G1 X143.471 Y32.768 E19.47033
G1 X145.874 Y33.203 E19.51907
G1 X147.636 Y33.555 E19.55492
G1 X150.029 Y34.077 E19.6038
G1 X151.778 Y34.492 E19.63967
G1 X154.149 Y35.099 E19.68852
G1 X155.823 Y35.559 E19.72316
G1 X158.214 Y36.262 E19.7729
G1 X159.913 Y36.795 E19.80843
G1 X162.249 Y37.573 E19.85756
G1 X163.881 Y38.15 E19.89211
G1 X166.208 Y39.019 E19.94168
G1 X167.872 Y39.675 E19.97737
G1 X170.123 Y40.608 E20.026
G1 X171.794 Y41.336 E20.06237
G1 X174 Y42.344 E20.11078
G1 X175.591 Y43.104 E20.14596
G1 X177.815 Y44.218 E20.1956
G1 X179.35 Y45.02 E20.23016
G1 X181.555 Y46.225 E20.28031
G1 X183.058 Y47.082 E20.31483
G1 X185.195 Y48.349 E20.36441
G1 X186.695 Y49.275 E20.39959
G1 X188.761 Y50.602 E20.44859
G1 X190.254 Y51.599 E20.48442
G1 X192.255 Y52.986 E20.53301
G1 X193.709 Y54.035 E20.56879
G1 X195.674 Y55.504 E20.61775
G1 X197.055 Y56.576 E20.65263
G1 X199 Y58.14 E20.70244
G1 X200.355 Y59.272 E20.73768
G1 X202.192 Y60.862 E20.78616
G1 X203.543 Y62.075 E20.82239
G1 X205.342 Y63.747 E20.87141
G1 X206.615 Y64.973 E20.90668
G1 X208.317 Y66.673 E20.95468
G1 X209.614 Y68.014 E20.99191
G1 X211.279 Y69.799 E21.04062
G1 X212.433 Y71.081 E21.07505
G1 X214.061 Y72.957 E21.12462
G1 X215.208 Y74.325 E21.16024
G1 X216.726 Y76.206 E21.20848
G1 X217.852 Y77.652 E21.24505
G1 X219.325 Y79.615 E21.29403
G1 X220.332 Y81.008 E21.32833
G1 X221.764 Y83.064 E21.37833
G1 X222.75 Y84.535 E21.41367
G1 X224.066 Y86.577 E21.46215
G1 X225.029 Y88.13 E21.49862
G1 X226.271 Y90.216 E21.54706
G1 X227.141 Y91.739 E21.58207
G1 X228.333 Y93.912 E21.63153
G1 X229.162 Y95.492 E21.66714
G1 X230.258 Y97.672 E21.71583
G1 X231.04 Y99.3 E21.75187
G1 X232.063 Y101.528 E21.8008
G1 X232.762 Y103.126 E21.8356
G1 X233.713 Y105.411 E21.88499
G1 X234.375 Y107.084 E21.9209
G1 X235.222 Y109.341 E21.96901
G1 X235.83 Y111.053 E22.00526
G1 X236.614 Y113.395 E22.05455
G1 X237.13 Y115.03 E22.08876
G1 X237.847 Y117.451 E22.13915
G1 X238.305 Y119.108 E22.17346
G1 X238.926 Y121.514 E22.22305
G1 X239.338 Y123.24 E22.25846
G1 X239.866 Y125.641 E22.30752
G1 X240.216 Y127.379 E22.3429
G1 X240.66 Y129.808 E22.39217
G1 X240.944 Y131.531 E22.42702
G1 X241.303 Y133.984 E22.4765
G1 X241.529 Y135.745 E22.51193
G1 X241.796 Y138.164 E22.56049
G1 X241.965 Y139.997 E22.59723
G1 X242.142 Y142.383 E22.64497
G1 X242.244 Y144.193 E22.68115
G1 X242.338 Y146.642 E22.73006
G1 X242.375 Y148.386 E22.76487
G1 X242.382 Y150.876 E22.81456
G1 X242.356 Y152.653 E22.85003
G1 X242.253 Y155.976 E22.91637
G1 X242.21 Y157.111 E22.93904
G1 X242.183 Y159.924 E22.99518
G1 X242.236 Y162.733 E23.05125
G1 X242.367 Y165.526 E23.10705
G1 X242.579 Y168.328 E23.16312
G1 X242.869 Y171.123 E23.2192
G1 X243.241 Y173.928 E23.27567
G1 X243.687 Y176.686 E23.33142
G1 X244.213 Y179.448 E23.38753
G1 X244.811 Y182.17 E23.44314
G1 X245.5 Y184.921 E23.49974
G1 X246.263 Y187.644 E23.55617
G1 X247.093 Y190.313 E23.61195
G1 X248.01 Y192.987 E23.66836
G1 X248.989 Y195.606 E23.72416
G1 X250.048 Y198.211 E23.78028
G1 X251.181 Y200.784 E23.83638
G1 X252.386 Y203.323 E23.89247
G1 X253.671 Y205.843 E23.94892
G1 X255.017 Y208.312 E24.00504
G1 X256.425 Y210.725 E24.06079
G1 X257.917 Y213.127 E24.11722
G1 X259.46 Y215.458 E24.173
G1 X261.077 Y217.758 E24.22911
G1 X262.758 Y220.012 E24.28522
G1 X264.501 Y222.215 E24.34128
G1 X266.319 Y224.383 E24.39775
G1 X268.173 Y226.473 E24.4535
G1 X270.099 Y228.523 E24.50963
G1 X272.083 Y230.52 E24.56581
G1 X274.117 Y232.455 E24.62183
G1 X276.209 Y234.333 E24.67794
G1 X278.366 Y236.162 E24.73437
G1 X280.546 Y237.909 E24.79012
G1 X282.803 Y239.613 E24.84656
G1 X285.093 Y241.243 E24.90265
G1 X287.416 Y242.8 E24.95846
G1 X289.806 Y244.305 E25.01482
G1 X292.229 Y245.737 E25.07099
G1 X294.349 Y246.916 E25.1194
G1 X295.402 Y247.485 E25.14329
G1 X295.572 Y247.622 E25.14764
G1 X295.713 Y247.865 E25.15325
G1 X295.726 Y248.319 E25.16231
G1 X295.726 Y267.596 E25.54701
G1 X295.716 Y268.323 E25.56152
G1 X295.673 Y268.537 E25.56587
G1 X295.557 Y268.722 E25.57023
G1 X295.382 Y268.853 E25.57459
G1 X295.133 Y268.915 E25.57971
G1 X294.796 Y268.924 E25.58644
G1 X124.003 Y268.92 E28.9948
G1 X121.035 Y268.887 E29.05403
G1 X119.302 Y268.838 E29.08863
G1 X116.831 Y268.726 E29.13799
G1 X115.069 Y268.614 E29.17323
G1 X112.609 Y268.415 E29.22248
G1 X110.827 Y268.238 E29.25821
G1 X108.435 Y267.958 E29.30628
G1 X106.606 Y267.71 E29.34311
G1 X104.223 Y267.344 E29.39122
