;FLAVOR:Marlin
;TIME:1871
;Filament used: 0.25959m
;Layer height: 0.12
;MINX:129.747
;MINY:129.808
;MINZ:0.12
;MAXX:168.628
;MAXY:164.38
;MAXZ:18.08
;Generated with Cura_SteamEngine 5.2.2
M140 S60
M105
M190 S60
M104 S200
M105
M109 S200
M82 ;absolute extrusion mode
; Ender 3 Max Custom Start G-code
G92 E0 ; Reset Extruder
G28 ; Home all axes
G1 Z2.0 F3000 ; Move Z Axis up little to prevent scratching of Heat Bed
G1 X0.1 Y20 Z0.3 F5000.0 ; Move to start position
G1 X0.1 Y200.0 Z0.3 F1500.0 E15 ; Draw the first line
G1 X0.4 Y200.0 Z0.3 F5000.0 ; Move to side a little
G1 X0.4 Y20 Z0.3 F1500.0 E30 ; Draw the second line
G92 E0 ; Reset Extruder
G1 Z2.0 F3000 ; Move Z Axis up little to prevent scratching of Heat Bed
G1 X5 Y20 Z0.3 F5000.0 ; Move over to prevent blob squish
G92 E0
G92 E0
G1 F1500 E-6.5
;LAYER_COUNT:149
;LAYER:0
M107
G1 F300 Z0.32
G0 F6000 X133.681 Y134.301 Z0.32
;TYPE:SKIRT
G1 F300 Z0.12
G1 F1500 E0
G1 F1200 X134.35 Y133.643 E0.01873
G1 X134.87 Y133.202 E0.03233
G1 X135.301 Y132.859 E0.04332
G1 X135.855 Y132.44 E0.05719
G1 X136.631 Y131.914 E0.07589
G1 X137.449 Y131.456 E0.0946
G1 X138.003 Y131.195 E0.10682
G1 X138.554 Y130.954 E0.11883
G1 X139.112 Y130.724 E0.13087
G1 X139.996 Y130.412 E0.14958
G1 X140.904 Y130.177 E0.1683
G1 X141.57 Y130.055 E0.18181
G1 X142.213 Y129.958 E0.19478
G1 X142.886 Y129.874 E0.20832
G1 X143.821 Y129.808 E0.22702
G1 X144.718 Y129.82 E0.24493
G1 X145.308 Y129.852 E0.25672
G1 X147.881 Y129.954 E0.30811
G1 X150.375 Y129.982 E0.35788
G1 X152.926 Y129.94 E0.40879
G1 X153.719 Y129.917 E0.42463
G1 X154.657 Y129.929 E0.44335
G1 X155.56 Y130.018 E0.46145
G1 X156.557 Y130.171 E0.48158
G1 X157.473 Y130.372 E0.5003
G1 X158.369 Y130.649 E0.51901
G1 X159.651 Y131.202 E0.54688
G1 X160.202 Y131.482 E0.55921
G1 X161.02 Y131.942 E0.57794
G1 X161.795 Y132.47 E0.59665
G1 X162.522 Y133.062 E0.61536
G1 X162.961 Y133.474 E0.62738
G1 X163.398 Y133.907 E0.63965
G1 X164.036 Y134.595 E0.65838
G1 X164.612 Y135.335 E0.67709
G1 X165.124 Y136.121 E0.69581
G1 X165.427 Y136.669 E0.70831
G1 X165.716 Y137.228 E0.72087
G1 X166.111 Y138.079 E0.73959
G1 X166.432 Y138.96 E0.7583
G1 X166.72 Y140.067 E0.78113
G1 X166.928 Y141.078 E0.80173
G1 X167.491 Y143.643 E0.85413
G1 X167.956 Y145.474 E0.89183
G1 X168.193 Y146.448 E0.91183
G1 X168.383 Y147.418 E0.93156
G1 X168.48 Y148.065 E0.94462
G1 X168.558 Y148.677 E0.95693
G1 X168.628 Y149.612 E0.97564
G1 X168.619 Y150.55 E0.99436
G1 X168.553 Y151.297 E1.00932
G1 X168.445 Y152.184 E1.02716
G1 X168.292 Y153.109 E1.04587
G1 X168.061 Y154.018 E1.06458
G1 X167.756 Y154.898 E1.08317
G1 X167.554 Y155.409 E1.09413
G1 X167.308 Y155.993 E1.10678
G1 X166.903 Y156.839 E1.1255
G1 X166.427 Y157.647 E1.14421
G1 X166.024 Y158.227 E1.15831
G1 X165.659 Y158.718 E1.17052
G1 X165.305 Y159.175 E1.18205
G1 X164.694 Y159.887 E1.20078
G1 X164.025 Y160.545 E1.2195
G1 X163.505 Y160.986 E1.23311
G1 X163.074 Y161.329 E1.2441
G1 X162.52 Y161.748 E1.25796
G1 X161.744 Y162.274 E1.27667
G1 X160.926 Y162.732 E1.29538
G1 X160.372 Y162.993 E1.3076
G1 X159.821 Y163.234 E1.3196
G1 X159.263 Y163.464 E1.33165
G1 X158.379 Y163.776 E1.35035
G1 X157.471 Y164.011 E1.36907
G1 X156.805 Y164.133 E1.38258
G1 X156.162 Y164.23 E1.39556
G1 X155.495 Y164.313 E1.40897
G1 X154.559 Y164.38 E1.4277
G1 X153.658 Y164.368 E1.44568
G1 X153.068 Y164.336 E1.45747
G1 X150.494 Y164.234 E1.50888
G1 X148 Y164.206 E1.55865
G1 X145.449 Y164.248 E1.60957
G1 X144.656 Y164.271 E1.6254
G1 X143.718 Y164.259 E1.64412
G1 X142.815 Y164.17 E1.66223
G1 X142.428 Y164.116 E1.67003
G1 X141.822 Y164.017 E1.68228
G1 X140.906 Y163.817 E1.70099
G1 X140.01 Y163.539 E1.71971
G1 X138.758 Y163.002 E1.7469
G1 X138.201 Y162.721 E1.75935
G1 X137.383 Y162.263 E1.77806
G1 X136.606 Y161.737 E1.79678
G1 X135.877 Y161.147 E1.8155
G1 X135.414 Y160.714 E1.82815
G1 X134.977 Y160.281 E1.84042
G1 X134.339 Y159.593 E1.85915
G1 X133.763 Y158.853 E1.87786
G1 X133.251 Y158.067 E1.89658
G1 X132.94 Y157.504 E1.90942
G1 X132.65 Y156.941 E1.92206
G1 X132.257 Y156.09 E1.94076
G1 X131.937 Y155.208 E1.95949
G1 X131.654 Y154.115 E1.98202
G1 X131.456 Y153.149 E2.0017
G1 X130.884 Y150.545 E2.0549
G1 X130.418 Y148.711 E2.09266
G1 X130.181 Y147.736 E2.11269
G1 X129.992 Y146.771 E2.13231
G1 X129.895 Y146.125 E2.14535
G1 X129.816 Y145.505 E2.15782
G1 X129.747 Y144.57 E2.17653
G1 X129.757 Y143.632 E2.19525
G1 X129.822 Y142.889 E2.21013
G1 X129.93 Y142.003 E2.22794
G1 X130.083 Y141.078 E2.24666
G1 X130.314 Y140.169 E2.26537
G1 X130.618 Y139.293 E2.28388
G1 X130.825 Y138.769 E2.29512
G1 X131.074 Y138.178 E2.30792
G1 X131.481 Y137.333 E2.32663
G1 X131.958 Y136.526 E2.34534
G1 X132.351 Y135.961 E2.35908
G1 X132.716 Y135.47 E2.37129
G1 X133.07 Y135.013 E2.38282
G1 X133.681 Y134.301 E2.40154
G0 F6000 X133.985 Y134.562
G1 F1200 X134.643 Y133.918 E2.41992
G1 X135.119 Y133.515 E2.43237
G1 X135.55 Y133.172 E2.44336
G1 X136.093 Y132.762 E2.45694
G1 X136.855 Y132.246 E2.4753
G1 X137.66 Y131.798 E2.49369
G1 X138.163 Y131.561 E2.50478
G1 X138.714 Y131.32 E2.51678
G1 X139.261 Y131.096 E2.52858
G1 X140.129 Y130.79 E2.54695
G1 X141.021 Y130.561 E2.56532
G1 X141.63 Y130.451 E2.57767
G1 X142.273 Y130.354 E2.59065
G1 X142.931 Y130.272 E2.60388
G1 X143.849 Y130.208 E2.62225
G1 X144.697 Y130.219 E2.63917
G1 X145.273 Y130.25 E2.65068
G1 X147.896 Y130.354 E2.70307
G1 X150.377 Y130.382 E2.75258
G1 X152.941 Y130.34 E2.80376
G1 X153.731 Y130.317 E2.81953
G1 X154.651 Y130.33 E2.83789
G1 X155.505 Y130.414 E2.85502
G1 X156.488 Y130.565 E2.87486
G1 X157.387 Y130.763 E2.89323
G1 X158.266 Y131.037 E2.91161
G1 X159.47 Y131.558 E2.93779
G1 X160.021 Y131.838 E2.95012
G1 X160.823 Y132.29 E2.96849
G1 X161.583 Y132.811 E2.98688
G1 X162.294 Y133.395 E3.00524
G1 X162.68 Y133.758 E3.01582
G1 X163.117 Y134.191 E3.02809
G1 X163.742 Y134.867 E3.04647
G1 X164.306 Y135.595 E3.06484
G1 X164.805 Y136.368 E3.0832
G1 X165.072 Y136.853 E3.09425
G1 X165.361 Y137.412 E3.10681
G1 X165.748 Y138.247 E3.12518
G1 X166.061 Y139.113 E3.14355
G1 X166.328 Y140.148 E3.16488
G1 X166.532 Y141.143 E3.18515
G1 X167.096 Y143.709 E3.23758
G1 X167.542 Y145.465 E3.27374
G1 X167.804 Y146.543 E3.29588
G1 X167.988 Y147.477 E3.31488
G1 X168.085 Y148.124 E3.32793
G1 X168.161 Y148.724 E3.34
G1 X168.229 Y149.642 E3.35837
G1 X168.217 Y150.563 E3.37675
G1 X168.156 Y151.248 E3.39048
G1 X168.048 Y152.135 E3.40831
G1 X167.897 Y153.043 E3.42668
G1 X167.668 Y153.935 E3.44505
G1 X167.384 Y154.751 E3.4623
G1 X167.182 Y155.262 E3.47326
G1 X166.941 Y155.836 E3.48569
G1 X166.542 Y156.665 E3.50405
G1 X166.073 Y157.458 E3.52243
G1 X165.703 Y157.988 E3.53533
G1 X165.338 Y158.479 E3.54754
G1 X164.99 Y158.928 E3.55888
G1 X164.39 Y159.626 E3.57724
G1 X163.732 Y160.27 E3.59562
G1 X163.256 Y160.673 E3.60806
G1 X162.825 Y161.016 E3.61906
G1 X162.282 Y161.426 E3.63263
G1 X161.52 Y161.942 E3.651
G1 X160.715 Y162.39 E3.66938
G1 X160.212 Y162.627 E3.68048
G1 X159.661 Y162.868 E3.69248
G1 X159.114 Y163.092 E3.70428
G1 X158.246 Y163.398 E3.72264
G1 X157.354 Y163.627 E3.74102
G1 X156.745 Y163.737 E3.75337
G1 X156.102 Y163.834 E3.76635
G1 X155.449 Y163.916 E3.77948
G1 X154.531 Y163.98 E3.79785
G1 X153.68 Y163.969 E3.81483
G1 X153.106 Y163.938 E3.8263
G1 X150.479 Y163.834 E3.87877
G1 X147.998 Y163.806 E3.92828
G1 X145.434 Y163.848 E3.97946
G1 X144.644 Y163.871 E3.99523
G1 X143.724 Y163.858 E4.01359
G1 X142.87 Y163.774 E4.03072
G1 X142.483 Y163.72 E4.03851
G1 X141.891 Y163.623 E4.05048
G1 X140.992 Y163.426 E4.06885
G1 X140.113 Y163.151 E4.08723
G1 X138.939 Y162.645 E4.11274
G1 X138.382 Y162.364 E4.12519
G1 X137.578 Y161.914 E4.14358
G1 X136.817 Y161.396 E4.16195
G1 X136.104 Y160.814 E4.18032
G1 X135.695 Y160.43 E4.19151
G1 X135.258 Y159.997 E4.20379
G1 X134.633 Y159.321 E4.22216
G1 X134.069 Y158.593 E4.24054
G1 X133.57 Y157.82 E4.2589
G1 X133.296 Y157.321 E4.27026
G1 X133.006 Y156.758 E4.2829
G1 X132.62 Y155.922 E4.30128
G1 X132.308 Y155.056 E4.31965
G1 X132.045 Y154.035 E4.34069
G1 X131.825 Y152.963 E4.36252
G1 X131.279 Y150.479 E4.41328
G1 X130.807 Y148.617 E4.45161
G1 X130.57 Y147.642 E4.47164
G1 X130.388 Y146.712 E4.49055
G1 X130.291 Y146.066 E4.50358
G1 X130.214 Y145.459 E4.51579
G1 X130.146 Y144.54 E4.53418
G1 X130.158 Y143.62 E4.55254
G1 X130.219 Y142.937 E4.56623
G1 X130.327 Y142.051 E4.58404
G1 X130.478 Y141.143 E4.60241
G1 X130.707 Y140.252 E4.62077
G1 X130.99 Y139.439 E4.63795
G1 X131.197 Y138.915 E4.64919
G1 X131.441 Y138.336 E4.66173
G1 X131.841 Y137.507 E4.6801
G1 X132.312 Y136.716 E4.69847
G1 X132.672 Y136.2 E4.71103
G1 X133.037 Y135.709 E4.72324
G1 X133.385 Y135.26 E4.73457
G1 X133.985 Y134.562 E4.75294
G0 F6000 X134.288 Y134.822
G1 F1200 X134.936 Y134.193 E4.77096
G1 X135.368 Y133.828 E4.78225
G1 X135.799 Y133.485 E4.79324
G1 X136.331 Y133.083 E4.80655
G1 X137.08 Y132.577 E4.82459
G1 X137.87 Y132.14 E4.8426
G1 X138.324 Y131.928 E4.8526
G1 X138.875 Y131.687 E4.8646
G1 X139.41 Y131.467 E4.87615
G1 X140.262 Y131.168 E4.89417
G1 X141.137 Y130.945 E4.91219
G1 X141.689 Y130.846 E4.92338
G1 X142.332 Y130.749 E4.93635
G1 X142.976 Y130.669 E4.9493
G1 X143.877 Y130.607 E4.96733
G1 X144.675 Y130.619 E4.98325
G1 X145.234 Y130.649 E4.99443
G1 X147.875 Y130.754 E5.04717
G1 X150.379 Y130.782 E5.09714
G1 X152.884 Y130.741 E5.14714
G1 X153.742 Y130.716 E5.16427
G1 X154.645 Y130.73 E5.18229
G1 X155.45 Y130.81 E5.19844
G1 X155.837 Y130.864 E5.20624
G1 X156.419 Y130.959 E5.218
G1 X157.301 Y131.154 E5.23603
G1 X158.162 Y131.425 E5.25404
G1 X159.289 Y131.915 E5.27857
G1 X159.84 Y132.195 E5.2909
G1 X160.626 Y132.639 E5.30892
G1 X161.37 Y133.151 E5.32694
G1 X162.066 Y133.727 E5.34497
G1 X162.398 Y134.042 E5.3541
G1 X162.835 Y134.475 E5.36638
G1 X163.448 Y135.139 E5.38441
G1 X164 Y135.854 E5.40244
G1 X164.486 Y136.615 E5.42046
G1 X164.717 Y137.037 E5.43006
G1 X165.006 Y137.596 E5.44262
G1 X165.385 Y138.415 E5.46063
G1 X165.689 Y139.266 E5.47866
G1 X165.936 Y140.228 E5.49848
G1 X166.15 Y141.271 E5.51973
G1 X166.705 Y143.796 E5.57132
G1 X167.179 Y145.663 E5.60976
G1 X167.416 Y146.637 E5.62976
G1 X167.592 Y147.537 E5.64806
G1 X167.689 Y148.184 E5.66112
G1 X167.764 Y148.771 E5.67293
G1 X167.83 Y149.672 E5.69096
G1 X167.816 Y150.575 E5.70898
G1 X167.759 Y151.2 E5.72151
G1 X167.651 Y152.087 E5.73934
G1 X167.502 Y152.978 E5.75737
G1 X167.276 Y153.852 E5.77538
G1 X167.012 Y154.604 E5.79129
G1 X166.81 Y155.115 E5.80225
G1 X166.573 Y155.678 E5.81444
G1 X166.181 Y156.492 E5.83247
G1 X165.719 Y157.268 E5.85049
G1 X165.382 Y157.749 E5.86221
G1 X165.017 Y158.24 E5.87442
G1 X164.675 Y158.681 E5.88556
G1 X164.087 Y159.366 E5.90358
G1 X163.439 Y159.995 E5.9216
G1 X163.007 Y160.36 E5.93288
G1 X162.576 Y160.703 E5.94388
G1 X162.044 Y161.105 E5.95718
G1 X161.295 Y161.611 E5.97522
G1 X160.505 Y162.048 E5.99324
G1 X160.051 Y162.26 E6.00324
G1 X159.5 Y162.501 E6.01524
G1 X158.965 Y162.721 E6.02678
G1 X158.113 Y163.02 E6.0448
G1 X157.238 Y163.243 E6.06282
G1 X156.686 Y163.342 E6.07401
G1 X156.043 Y163.439 E6.08699
G1 X155.404 Y163.518 E6.09984
G1 X154.503 Y163.581 E6.11786
G1 X153.701 Y163.569 E6.13387
G1 X153.141 Y163.539 E6.14506
G1 X150.5 Y163.434 E6.19781
G1 X147.996 Y163.406 E6.24778
G1 X145.491 Y163.447 E6.29778
G1 X144.633 Y163.472 E6.31491
G1 X143.73 Y163.458 E6.33293
G1 X142.925 Y163.378 E6.34907
G1 X142.538 Y163.324 E6.35687
G1 X141.96 Y163.229 E6.36856
G1 X141.078 Y163.035 E6.38658
G1 X140.217 Y162.763 E6.4046
G1 X139.119 Y162.288 E6.42847
G1 X138.562 Y162.007 E6.44092
G1 X137.774 Y161.565 E6.45896
G1 X137.029 Y161.055 E6.47697
G1 X136.332 Y160.481 E6.49499
G1 X135.977 Y160.146 E6.50473
G1 X135.54 Y159.713 E6.51701
G1 X134.927 Y159.049 E6.53504
G1 X134.375 Y158.334 E6.55307
G1 X133.889 Y157.573 E6.57109
G1 X133.651 Y157.138 E6.58098
G1 X133.361 Y156.575 E6.59362
G1 X132.984 Y155.754 E6.61165
G1 X132.68 Y154.904 E6.62967
G1 X132.437 Y153.954 E6.64923
G1 X132.216 Y152.876 E6.67119
G1 X131.67 Y150.392 E6.72195
G1 X131.221 Y148.625 E6.75833
G1 X130.959 Y147.547 E6.78047
G1 X130.783 Y146.653 E6.79865
G1 X130.686 Y146.007 E6.81169
G1 X130.611 Y145.412 E6.82366
G1 X130.545 Y144.511 E6.84169
G1 X130.559 Y143.608 E6.85971
G1 X130.616 Y142.986 E6.87217
G1 X130.724 Y142.1 E6.88999
G1 X130.873 Y141.209 E6.90801
G1 X131.1 Y140.335 E6.92603
G1 X131.362 Y139.586 E6.94187
G1 X131.569 Y139.062 E6.95311
G1 X131.809 Y138.494 E6.96542
G1 X132.202 Y137.681 E6.98344
G1 X132.666 Y136.906 E7.00146
G1 X132.993 Y136.439 E7.01284
G1 X133.358 Y135.948 E7.02505
G1 X133.7 Y135.507 E7.03619
G1 X134.288 Y134.822 E7.0542
G1 F1500 E0.5542
G1 F300 Z0.32
;MESH:Spice-snap-connector_and_pin.stl(1)
G0 F6000 X144.124 Y146.193 Z0.32
;TYPE:WALL-INNER
G1 F300 Z0.12
G1 F1500 E7.0542
G1 F1200 X143.561 Y146.104 E7.06558
G1 X143.462 Y146.072 E7.06765
G1 X142.96 Y145.818 E7.07888
G1 X142.502 Y145.37 E7.09167
G1 X142.214 Y144.802 E7.10438
G1 X142.119 Y144.186 E7.11681
G1 X142.214 Y143.575 E7.12915
G1 X142.493 Y143.025 E7.14146
G1 X142.959 Y142.559 E7.15461
G1 X143.51 Y142.279 E7.16695
G1 X144.126 Y142.183 E7.17939
G1 X144.742 Y142.281 E7.19183
G1 X145.289 Y142.561 E7.2041
G1 X145.751 Y143.023 E7.21714
G1 X146.028 Y143.567 E7.22932
G1 X146.127 Y144.189 E7.24189
G1 X146.029 Y144.808 E7.25439
G1 X145.749 Y145.355 E7.26666
G1 X145.286 Y145.819 E7.27974
G1 X144.736 Y146.097 E7.29204
G1 X144.124 Y146.193 E7.3044
G0 F6000 X144.124 Y145.787
;TYPE:WALL-OUTER
G1 F1200 X143.648 Y145.713 E7.31401
G1 X143.6 Y145.696 E7.31503
G1 X143.182 Y145.481 E7.32441
G1 X142.828 Y145.128 E7.33439
G1 X142.6 Y144.684 E7.34435
G1 X142.524 Y144.187 E7.35438
G1 X142.6 Y143.693 E7.36435
G1 X142.829 Y143.248 E7.37434
G1 X143.179 Y142.9 E7.38419
G1 X143.631 Y142.665 E7.39436
G1 X144.121 Y142.591 E7.40425
G1 X144.63 Y142.673 E7.41454
G1 X145.065 Y142.899 E7.42432
G1 X145.411 Y143.245 E7.43408
G1 X145.635 Y143.677 E7.44379
G1 X145.721 Y144.185 E7.45408
G1 X145.637 Y144.696 E7.46441
G1 X145.411 Y145.131 E7.47419
G1 X145.066 Y145.477 E7.48394
G1 X144.63 Y145.703 E7.49374
G1 X144.124 Y145.787 E7.50398
G0 F6000 X144.123 Y146.977
;TYPE:WALL-INNER
G1 F1200 X144.845 Y146.882 E7.51851
G1 X145.514 Y146.605 E7.53296
G1 X146.095 Y146.157 E7.5476
G1 X146.537 Y145.579 E7.56212
G1 X146.814 Y144.91 E7.57657
G1 X146.911 Y144.186 E7.59115
G1 X146.822 Y143.514 E7.60468
G1 X146.815 Y143.463 E7.60571
G1 X146.539 Y142.796 E7.62011
G1 X146.095 Y142.219 E7.63464
G1 X145.514 Y141.772 E7.64927
G1 X144.845 Y141.496 E7.66371
G1 X144.121 Y141.401 E7.67828
G1 X143.399 Y141.495 E7.69281
G1 X142.731 Y141.772 E7.70724
G1 X142.15 Y142.22 E7.72189
G1 X141.707 Y142.797 E7.7364
G1 X141.43 Y143.464 E7.75082
G1 X141.332 Y144.19 E7.76543
G1 X141.428 Y144.911 E7.77995
G1 X141.706 Y145.579 E7.79439
G1 X142.15 Y146.158 E7.80895
G1 X142.731 Y146.603 E7.82355
G1 X143.4 Y146.88 E7.838
G1 X144.123 Y146.977 E7.85256
G0 F6000 X144.123 Y147.381
;TYPE:WALL-OUTER
G1 F1200 X144.95 Y147.272 E7.86921
G1 X145.716 Y146.954 E7.88576
G1 X146.381 Y146.443 E7.9025
G1 X146.887 Y145.781 E7.91912
G1 X147.204 Y145.015 E7.93567
G1 X147.315 Y144.186 E7.95236
G1 X147.219 Y143.461 E7.96695
G1 X147.205 Y143.358 E7.96903
G1 X146.888 Y142.594 E7.98553
G1 X146.381 Y141.934 E8.00214
G1 X145.716 Y141.422 E8.01889
G1 X144.949 Y141.106 E8.03545
G1 X144.121 Y140.997 E8.05211
G1 X143.294 Y141.105 E8.06876
G1 X142.529 Y141.423 E8.08529
G1 X141.864 Y141.934 E8.10202
G1 X141.357 Y142.595 E8.11865
G1 X141.04 Y143.359 E8.13516
G1 X140.929 Y144.19 E8.15189
G1 X141.039 Y145.016 E8.16852
G1 X141.357 Y145.781 E8.18505
G1 X141.864 Y146.443 E8.20169
G1 X142.529 Y146.953 E8.21841
G1 X143.295 Y147.27 E8.23496
G1 X144.123 Y147.381 E8.25163
G0 F6000 X143.437 Y146.485
;TYPE:WALL-INNER
G1 F1218.3 X144.123 Y146.587 E8.26526
G1 F1215.2 X144.808 Y146.486 E8.27891
G1 F1197 X145.311 Y146.254 E8.28999
G1 F1246.8 X145.544 Y146.099 E8.29536
G1 X145.808 Y145.871 E8.30206
G1 X146.034 Y145.607 E8.30874
G1 F1253.3 X146.187 Y145.378 E8.314
G1 F1209.1 X146.419 Y144.874 E8.32499
G1 F1221.4 X146.521 Y144.186 E8.33863
G1 F1224.5 X146.429 Y143.566 E8.35089
G1 F1256.5 X146.362 Y143.375 E8.35474
G1 F1240.3 X146.188 Y142.999 E8.36274
G1 F1246.8 X146.033 Y142.767 E8.3681
G1 F1243.5 X145.808 Y142.506 E8.37474
G1 X145.543 Y142.277 E8.38148
G1 F1250 X145.312 Y142.122 E8.38681
